(Generated by svg_to_gcode.pyw)
G21
G90
G0 F3000
M5
G0 X58.8705 Y115.0687 A1271.8264
M3
G1 F1200
G1 X58.2051 Y114.6534 A1271.8264 F1200 (xy_theta)
G1 X57.5178 Y114.6534 A1268.9384 F1200 (x_theta)
G1 X56.174 Y114.6534 A1263.8893 F1200 (x_theta)
G1 X54.8946 Y114.6534 A1257.8383 F1200 (x_theta)
G1 X53.7052 Y114.6534 A1251.417 F1200 (x_theta)
G1 X52.6914 Y114.6534 A1244.1453 F1200 (x_theta)
G1 X51.4916 Y114.6534 A1235.5644 F1200 (x_theta)
G1 X50.9482 Y114.6534 A1231.3922 F1200 (x_theta)
G1 X50.3703 Y114.6534 A1226.6241 F1200 (x_theta)
G1 X49.5217 Y114.6534 A1221.0033 F1200 (x_theta)
G1 X48.7534 Y114.6534 A1214.9472 F1200 (x_theta)
G1 X46.3701 Y114.6534 A1217.6253 F1200 (x_theta)
G1 X44.3006 Y114.6534 A1222.2138 F1200 (x_theta)
G1 X43.316 Y114.6534 A1224.504 F1200 (x_theta)
G1 X42.3553 Y114.6534 A1227.3358 F1200 (x_theta)
G1 X41.7671 Y114.6534 A1231.0867 F1200 (x_theta)
G1 X41.5834 Y114.6534 A1234.161 F1200 (x_theta)
G1 X41.342 Y114.6534 A1236.0692 F1200 (x_theta)
G1 X41.2678 Y114.6534 A1239.2489 F1200 (x_theta)
G1 X41.3083 Y114.6534 A1242.557 F1200 (x_theta)
G1 X41.6368 Y114.6534 A1250.0151 F1200 (x_theta)
G1 X42.0871 Y114.6534 A1252.75 F1200 (x_theta)
G1 X42.5368 Y114.6534 A1255.5047 F1200 (x_theta)
G1 X43.6465 Y114.6534 A1260.7792 F1200 (x_theta)
G1 X44.8507 Y114.6534 A1265.7059 F1200 (x_theta)
G1 X46.0095 Y114.6534 A1269.5329 F1200 (x_theta)
G1 X47.362 Y114.6534 A1272.5755 F1200 (x_theta)
G1 X48.575 Y114.6534 A1274.9035 F1200 (x_theta)
G1 X50.0049 Y114.6534 A1277.0246 F1200 (x_theta)
G1 X51.3898 Y114.6534 A1277.9644 F1200 (x_theta)
G1 X52.6566 Y114.6534 A1278.7413 F1200 (x_theta)
G1 X53.9258 Y114.6534 A1279.5368 F1200 (x_theta)
G1 X54.9988 Y114.6534 A1278.2551 F1200 (x_theta)
G1 X56.2427 Y114.6534 A1278.4202 F1200 (x_theta)
G1 X57.0975 Y114.6534 A1277.359 F1200 (x_theta)
G1 X57.9785 Y114.6534 A1276.9389 F1200 (x_theta)
G1 X58.589 Y114.6534 A1275.4693 F1200 (x_theta)
G1 X59.105 Y114.6534 A1274.4665 F1200 (x_theta)
M5
G0 X-21.212 Y115.7035 A1782.8166
M3
G1 F1200
G1 X-20.0421 Y115.7035 A1778.9558 F1200 (x_theta)
G1 X-19.1013 Y115.7035 A1775.6728 F1200 (x_theta)
G1 X-17.069 Y115.7035 A1769.6765 F1200 (x_theta)
G1 X-14.9572 Y115.7035 A1764.4333 F1200 (x_theta)
G1 X-14.0168 Y115.7035 A1762.0943 F1200 (x_theta)
G1 X-12.9904 Y115.7035 A1760.0757 F1200 (x_theta)
G1 X-11.8987 Y115.7035 A1757.7999 F1200 (x_theta)
G1 X-9.8943 Y115.7035 A1755.0216 F1200 (x_theta)
G1 X-7.877 Y115.7035 A1752.767 F1200 (x_theta)
G1 X-6.8255 Y115.7035 A1751.7971 F1200 (x_theta)
G1 X-5.8432 Y115.7035 A1751.0534 F1200 (x_theta)
G1 X-4.93 Y115.7035 A1750.543 F1200 (x_theta)
G1 X-2.8979 Y115.7035 A1750.8329 F1200 (x_theta)
G1 X-0.9322 Y115.7035 A1751.3807 F1200 (x_theta)
G1 X1.0154 Y115.7035 A1753.4307 F1200 (x_theta)
G1 X2.8054 Y115.7035 A1755.3995 F1200 (x_theta)
G1 X4.6711 Y115.7035 A1759.3079 F1200 (x_theta)
G1 X6.3782 Y115.7035 A1763.1671 F1200 (x_theta)
G1 X7.9721 Y115.7035 A1768.2462 F1200 (x_theta)
G1 X9.4269 Y115.7035 A1773.919 F1200 (x_theta)
G1 X11.455 Y115.7035 A1769.4243 F1200 (x_theta)
G1 X13.2617 Y115.7035 A1765.5866 F1200 (x_theta)
G1 X15.1498 Y115.7035 A1762.0581 F1200 (x_theta)
G1 X16.9869 Y115.7035 A1759.39 F1200 (x_theta)
G1 X18.817 Y115.7035 A1756.653 F1200 (x_theta)
G1 X20.6689 Y115.7035 A1754.5451 F1200 (x_theta)
G1 X22.3208 Y115.7035 A1753.2399 F1200 (x_theta)
G1 X26.0091 Y115.7035 A1752.2761 F1200 (x_theta)
G1 X27.8249 Y115.7035 A1752.8236 F1200 (x_theta)
G1 X29.5139 Y115.7035 A1753.9759 F1200 (x_theta)
G1 X31.2409 Y115.7035 A1755.9164 F1200 (x_theta)
G1 X32.9705 Y115.7035 A1757.8972 F1200 (x_theta)
G1 X34.8407 Y115.7035 A1761.173 F1200 (x_theta)
G1 X36.5883 Y115.7035 A1765.1541 F1200 (x_theta)
G1 X38.3761 Y115.7035 A1770.0314 F1200 (x_theta)
G1 X40.0029 Y115.7035 A1774.8447 F1200 (x_theta)
G1 X41.8693 Y115.7035 A1781.5851 F1200 (x_theta)
G1 X43.5073 Y115.7035 A1788.5965 F1200 (x_theta)
G1 X45.2464 Y115.7035 A1796.2934 F1200 (x_theta)
G1 X46.9506 Y115.7035 A1805.3117 F1200 (x_theta)
G1 X48.5828 Y115.7035 A1814.8292 F1200 (x_theta)
G1 X50.1396 Y115.7035 A1824.8402 F1200 (x_theta)
G1 X51.816 Y115.7035 A1836.4819 F1200 (x_theta)
G1 X53.2355 Y115.7035 A1848.3386 F1200 (x_theta)
G1 X54.7349 Y115.7035 A1860.98 F1200 (x_theta)
G1 X56.3335 Y115.7035 A1875.3285 F1200 (x_theta)
G1 X57.6537 Y115.7035 A1889.8205 F1200 (x_theta)
G1 X57.6537 Y117.9892 A1892.0763 F1200 (y_theta)
G1 X57.6537 Y120.2167 A1893.8113 F1200 (y_theta)
G1 X57.6537 Y122.4394 A1896.4549 F1200 (y_theta)
G1 X57.6537 Y124.2723 A1902.0431 F1200 (y_theta)
G1 X49.8911 Y124.2723 A1861.701 F1200 (x_theta)
G1 X50.8791 Y124.2723 A1869.7375 F1200 (x_theta)
G1 X52.4945 Y124.2723 A1885.398 F1200 (x_theta)
G1 X53.1245 Y124.2723 A1893.8247 F1200 (x_theta)
G1 X54.3415 Y124.2723 A1909.9708 F1200 (x_theta)
G1 X55.3386 Y124.2723 A1926.7251 F1200 (x_theta)
G1 X55.8174 Y124.2723 A1934.7211 F1200 (x_theta)
G1 X56.1073 Y124.2723 A1943.1535 F1200 (x_theta)
G1 X56.8946 Y124.2723 A1960.2625 F1200 (x_theta)
G1 X57.7846 Y124.2723 A1977.8751 F1200 (x_theta)
G1 X58.6991 Y124.2723 A1995.3895 F1200 (x_theta)
G1 X57.0401 Y124.2723 A2001.3537 F1200 (x_theta)
G1 X54.8672 Y124.2723 A1994.954 F1200 (x_theta)
G1 X52.7929 Y124.2723 A1988.6124 F1200 (x_theta)
G1 X50.8164 Y124.2723 A1982.3083 F1200 (x_theta)
G1 X48.9369 Y124.2723 A1976.0226 F1200 (x_theta)
G1 X47.2082 Y124.2723 A1971.1018 F1200 (x_theta)
G1 X45.6651 Y124.2723 A1965.9592 F1200 (x_theta)
G1 X44.1229 Y124.2723 A1960.9314 F1200 (x_theta)
G1 X42.6742 Y124.2723 A1955.8423 F1200 (x_theta)
G1 X40.1068 Y124.2723 A1946.7113 F1200 (x_theta)
G1 X38.9129 Y124.2723 A1942.0845 F1200 (x_theta)
G1 X37.7932 Y124.2723 A1938.0768 F1200 (x_theta)
G1 X36.6874 Y124.2723 A1933.4045 F1200 (x_theta)
G1 X35.7444 Y124.2723 A1929.1454 F1200 (x_theta)
G1 X33.9528 Y124.2723 A1919.8802 F1200 (x_theta)
G1 X32.4792 Y124.2723 A1911.4484 F1200 (x_theta)
G1 X30.9353 Y124.2723 A1901.244 F1200 (x_theta)
G1 X29.5364 Y124.2723 A1891.5044 F1200 (x_theta)
G1 X28.1307 Y124.2723 A1880.5109 F1200 (x_theta)
G1 X26.8671 Y124.2723 A1869.2396 F1200 (x_theta)
G1 X25.4125 Y124.2723 A1857.1583 F1200 (x_theta)
G1 X24.8336 Y124.2723 A1850.3829 F1200 (x_theta)
G1 X24.0015 Y124.2723 A1843.6347 F1200 (x_theta)
G1 X23.2394 Y124.2723 A1836.7056 F1200 (x_theta)
G1 X22.3876 Y124.2723 A1830.0644 F1200 (x_theta)
G1 X21.9383 Y124.2723 A1834.2335 F1200 (x_theta)
G1 X21.2443 Y124.2723 A1839.0539 F1200 (x_theta)
G1 X20.5335 Y124.2723 A1842.4608 F1200 (x_theta)
G1 X19.6572 Y124.2723 A1846.2752 F1200 (x_theta)
G1 X17.2308 Y124.2723 A1852.8184 F1200 (x_theta)
G1 X15.7634 Y124.2723 A1855.9785 F1200 (x_theta)
G1 X14.9456 Y124.2723 A1857.4179 F1200 (x_theta)
G1 X14.0435 Y124.2723 A1859.0467 F1200 (x_theta)
G1 X12.46 Y124.2723 A1851.6339 F1200 (x_theta)
G1 X12.3012 Y124.2723 A1850.7694 F1200 (x_theta)
G1 X12.3033 Y124.2723 A1850.1349 F1200 (x_theta)
G1 X12.3118 Y124.2723 A1847.5729 F1200 (x_theta)
G1 X12.3954 Y124.2723 A1846.0781 F1200 (x_theta)
G1 X12.4788 Y124.2723 A1844.5847 F1200 (x_theta)
G1 X12.7234 Y124.2723 A1841.3689 F1200 (x_theta)
G1 X12.8812 Y124.2723 A1837.0673 F1200 (x_theta)
G1 X12.8682 Y124.2723 A1831.8922 F1200 (x_theta)
G1 X12.8589 Y124.2723 A1829.2981 F1200 (x_theta)
G1 X12.7647 Y124.2723 A1826.2754 F1200 (x_theta)
G1 X12.4239 Y124.2723 A1822.6367 F1200 (x_theta)
G1 X12.1626 Y124.2723 A1819.429 F1200 (x_theta)
G1 X11.0585 Y124.2723 A1811.4086 F1200 (x_theta)
G1 X9.7952 Y124.2723 A1804.5825 F1200 (x_theta)
G1 X8.4554 Y124.2723 A1798.7148 F1200 (x_theta)
G1 X7.0456 Y124.2723 A1793.8044 F1200 (x_theta)
G1 X5.7177 Y124.2723 A1789.3598 F1200 (x_theta)
G1 X4.3987 Y124.2723 A1785.6054 F1200 (x_theta)
G1 X3.0039 Y124.2723 A1782.1437 F1200 (x_theta)
G1 X1.7058 Y124.2723 A1779.7285 F1200 (x_theta)
G1 X0.4196 Y124.2723 A1777.9617 F1200 (x_theta)
G1 X-0.8551 Y124.2723 A1776.8317 F1200 (x_theta)
G1 X-2.0431 Y124.2723 A1776.0881 F1200 (x_theta)
G1 X-3.2841 Y124.2723 A1776.7831 F1200 (x_theta)
G1 X-4.4522 Y124.2723 A1777.2413 F1200 (x_theta)
G1 X-5.5364 Y124.2723 A1778.0585 F1200 (x_theta)
G1 X-6.6035 Y124.2723 A1780.0416 F1200 (x_theta)
G1 X-7.5986 Y124.2723 A1781.7713 F1200 (x_theta)
G1 X-8.5813 Y124.2723 A1784.6414 F1200 (x_theta)
G1 X-9.405 Y124.2723 A1788.1987 F1200 (x_theta)
G1 X-10.1602 Y124.2723 A1791.5004 F1200 (x_theta)
G1 X-10.7542 Y124.2723 A1796.0602 F1200 (x_theta)
G1 X-11.4369 Y124.2723 A1800.7883 F1200 (x_theta)
G1 X-11.9725 Y124.2723 A1805.6218 F1200 (x_theta)
G1 X-12.4408 Y124.2723 A1810.7795 F1200 (x_theta)
G1 X-12.843 Y124.2723 A1816.261 F1200 (x_theta)
G1 X-13.1835 Y124.2723 A1822.6253 F1200 (x_theta)
G1 X-13.1482 Y124.2723 A1829.6585 F1200 (x_theta)
G1 X-13.2919 Y124.2723 A1836.4926 F1200 (x_theta)
G1 X-13.2213 Y124.2723 A1843.8503 F1200 (x_theta)
G1 X-13.0979 Y124.2723 A1851.5615 F1200 (x_theta)
G1 X-12.7775 Y124.2723 A1860.3702 F1200 (x_theta)
G1 X-12.3156 Y124.2723 A1868.8418 F1200 (x_theta)
G1 X-11.809 Y124.2723 A1877.7025 F1200 (x_theta)
G1 X-11.2595 Y124.2723 A1886.9612 F1200 (x_theta)
G1 X-10.8303 Y124.2723 A1896.3968 F1200 (x_theta)
G1 X-10.1187 Y124.2723 A1906.3171 F1200 (x_theta)
G1 X-9.2832 Y124.2723 A1916.5206 F1200 (x_theta)
G1 X-8.3519 Y124.2723 A1927.5686 F1200 (x_theta)
G1 X-7.3055 Y124.2723 A1938.9493 F1200 (x_theta)
G1 X-6.144 Y124.2723 A1950.6871 F1200 (x_theta)
G1 X-4.9647 Y124.2723 A1962.9334 F1200 (x_theta)
G1 X-3.5223 Y124.2723 A1975.8829 F1200 (x_theta)
G1 X-2.0339 Y124.2723 A1988.8658 F1200 (x_theta)
G1 X-0.4416 Y124.2723 A2002.3304 F1200 (x_theta)
G1 X1.4069 Y124.2723 A2016.651 F1200 (x_theta)
G1 X3.3458 Y124.2723 A2030.579 F1200 (x_theta)
G1 X5.438 Y124.2723 A2045.5742 F1200 (x_theta)
G1 X7.6765 Y124.2723 A2060.7154 F1200 (x_theta)
G1 X10.1147 Y124.2723 A2076.5243 F1200 (x_theta)
G1 X12.2362 Y124.2723 A2087.8402 F1200 (x_theta)
G1 X14.2419 Y124.2723 A2098.4409 F1200 (x_theta)
G1 X16.2263 Y124.2723 A2109.2652 F1200 (x_theta)
G1 X17.9538 Y124.2723 A2118.8531 F1200 (x_theta)
G1 X19.7711 Y124.2723 A2128.594 F1200 (x_theta)
G1 X21.5314 Y124.2723 A2138.022 F1200 (x_theta)
G1 X23.2363 Y124.2723 A2147.1117 F1200 (x_theta)
G1 X24.7408 Y124.2723 A2155.3432 F1200 (x_theta)
G1 X26.3438 Y124.2723 A2163.7112 F1200 (x_theta)
G1 X27.7893 Y124.2723 A2171.6905 F1200 (x_theta)
G1 X29.2986 Y124.2723 A2179.2832 F1200 (x_theta)
G1 X30.9106 Y124.2723 A2187.0328 F1200 (x_theta)
G1 X32.3343 Y124.2723 A2193.8049 F1200 (x_theta)
G1 X33.7186 Y124.2723 A2200.1444 F1200 (x_theta)
G1 X35.2091 Y124.2723 A2206.6313 F1200 (x_theta)
G1 X36.6636 Y124.2723 A2212.6744 F1200 (x_theta)
G1 X38.2176 Y124.2723 A2218.8612 F1200 (x_theta)
G1 X39.7473 Y124.2723 A2224.6163 F1200 (x_theta)
G1 X41.2427 Y124.2723 A2229.9037 F1200 (x_theta)
G1 X42.706 Y124.2723 A2234.7076 F1200 (x_theta)
G1 X44.3967 Y124.2723 A2239.7521 F1200 (x_theta)
G1 X46.089 Y124.2723 A2244.9206 F1200 (x_theta)
G1 X47.8172 Y124.2723 A2250.8362 F1200 (x_theta)
G1 X49.5656 Y124.2723 A2255.1204 F1200 (x_theta)
G1 X51.4641 Y124.2723 A2260.2495 F1200 (x_theta)
G1 X53.3355 Y124.2723 A2264.8872 F1200 (x_theta)
G1 X55.3267 Y124.2723 A2269.7707 F1200 (x_theta)
G1 X57.439 Y124.2723 A2274.9273 F1200 (x_theta)
G1 X61.853 Y124.2723 A2284.6708 F1200 (x_theta)
G1 X64.2233 Y124.2723 A2290.6742 F1200 (x_theta)
G1 X66.6122 Y124.4186 A2295.352 F1200 (xy_theta)
G1 X69.7239 Y124.4186 A2305.6069 F1200 (x_theta)
G1 X72.8889 Y124.4186 A2317.2182 F1200 (x_theta)
G1 X75.9917 Y124.4186 A2330.1148 F1200 (x_theta)
G1 X79.2129 Y124.4186 A2346.2054 F1200 (x_theta)
G1 X82.2753 Y124.4186 A2364.4392 F1200 (x_theta)
G1 X85.3828 Y124.4186 A2384.5799 F1200 (x_theta)
G1 X88.3082 Y124.4186 A2406.9999 F1200 (x_theta)
G1 X91.16 Y124.4186 A2432.0549 F1200 (x_theta)
G1 X93.8725 Y124.4186 A2457.9616 F1200 (x_theta)
G1 X93.8725 Y128.0303 A2452.4668 F1200 (y_theta)
G1 X93.8725 Y131.2849 A2448.545 F1200 (y_theta)
G1 X93.8725 Y134.4476 A2447.8373 F1200 (y_theta)
G1 X93.8725 Y137.1596 A2450.5321 F1200 (y_theta)
G1 X93.8725 Y138.2614 A2453.8423 F1200 (y_theta)
G1 X93.8725 Y139.1108 A2460.9229 F1200 (y_theta)
G1 X93.8725 Y139.9025 A2467.5924 F1200 (y_theta)
G1 X93.8725 Y140.6464 A2473.758 F1200 (y_theta)
G1 X93.8725 Y141.0838 A2484.1277 F1200 (y_theta)
G1 X93.8725 Y141.1923 A2497.0197 F1200 (y_theta)
G1 X94.4043 Y141.1923 A2489.0417 F1200 (x_theta)
G1 X95.0321 Y141.1923 A2483.1823 F1200 (x_theta)
G1 X95.6502 Y141.1923 A2476.2873 F1200 (x_theta)
G1 X96.4927 Y141.1923 A2470.1395 F1200 (x_theta)
G1 X97.4423 Y141.1923 A2464.2851 F1200 (x_theta)
G1 X98.2467 Y141.1923 A2455.8289 F1200 (x_theta)
G1 X100.3042 Y141.1923 A2443.9726 F1200 (x_theta)
G1 X102.4081 Y141.1923 A2430.6436 F1200 (x_theta)
G1 X104.6784 Y141.1923 A2417.1476 F1200 (x_theta)
G1 X109.0754 Y141.1923 A2386.9518 F1200 (x_theta)
G1 X111.2155 Y141.1923 A2371.251 F1200 (x_theta)
G1 X113.1994 Y141.1923 A2356.3385 F1200 (x_theta)
G1 X114.88 Y141.1923 A2336.9592 F1200 (x_theta)
G1 X116.3303 Y141.1923 A2319.5316 F1200 (x_theta)
G1 X117.0431 Y141.1923 A2311.0523 F1200 (x_theta)
G1 X117.7841 Y141.1923 A2303.7274 F1200 (x_theta)
G1 X118.2079 Y141.1923 A2294.0345 F1200 (x_theta)
G1 X118.4881 Y141.1923 A2283.8024 F1200 (x_theta)
G1 X118.8046 Y141.1923 A2274.859 F1200 (x_theta)
G1 X119.0455 Y141.1923 A2267.0058 F1200 (x_theta)
G1 X119.2717 Y141.1923 A2259.0073 F1200 (x_theta)
G1 X119.2717 Y141.1614 A2250.9008 F1200 (y_theta)
G1 X108.669 Y141.1614 A2201.5593 F1200 (x_theta)
G1 X108.669 Y139.4119 A2199.3589 F1200 (y_theta)
G1 X109.0952 Y139.4119 A2185.9952 F1200 (x_theta)
G1 X109.6977 Y139.4119 A2172.3087 F1200 (x_theta)
G1 X110.1133 Y139.4119 A2155.5675 F1200 (x_theta)
G1 X111.4789 Y139.4119 A2125.5883 F1200 (x_theta)
G1 X112.1769 Y139.4119 A2109.6444 F1200 (x_theta)
G1 X112.9282 Y139.4119 A2091.4187 F1200 (x_theta)
G1 X113.6815 Y139.4119 A2073.7435 F1200 (x_theta)
G1 X112.6143 Y139.4119 A2074.0979 F1200 (x_theta)
G1 X111.252 Y139.4119 A2074.9317 F1200 (x_theta)
G1 X109.9044 Y139.4119 A2074.2913 F1200 (x_theta)
G1 X108.5575 Y139.4119 A2073.6684 F1200 (x_theta)
G1 X105.6921 Y139.4119 A2071.469 F1200 (x_theta)
G1 X102.4892 Y139.4119 A2067.495 F1200 (x_theta)
G1 X101.0312 Y139.4119 A2063.591 F1200 (x_theta)
G1 X99.4801 Y139.4119 A2060.0045 F1200 (x_theta)
G1 X97.8634 Y139.4119 A2055.5185 F1200 (x_theta)
G1 X96.3774 Y139.4119 A2049.8546 F1200 (x_theta)
G1 X94.9233 Y139.4119 A2043.2142 F1200 (x_theta)
G1 X93.6691 Y139.4119 A2036.4428 F1200 (x_theta)
G1 X92.5146 Y139.4119 A2029.6794 F1200 (x_theta)
G1 X91.3118 Y139.4119 A2020.9774 F1200 (x_theta)
G1 X92.3525 Y139.4119 A2008.5952 F1200 (x_theta)
G1 X93.1749 Y139.4119 A1995.0172 F1200 (x_theta)
G1 X93.8532 Y139.4119 A1981.2689 F1200 (x_theta)
G1 X94.3857 Y139.4119 A1968.6737 F1200 (x_theta)
G1 X94.7885 Y139.4119 A1956.0865 F1200 (x_theta)
G1 X95.1538 Y139.4119 A1943.2428 F1200 (x_theta)
G1 X95.3045 Y139.4119 A1928.1991 F1200 (x_theta)
G1 X95.3045 Y139.1042 A1901.9388 F1200 (y_theta)
G1 X95.3045 Y138.5082 A1892.3003 F1200 (y_theta)
G1 X95.3045 Y137.4884 A1884.7534 F1200 (y_theta)
G1 X95.3045 Y136.5475 A1876.0002 F1200 (y_theta)
G1 X95.3045 Y135.0977 A1871.961 F1200 (y_theta)
G1 X95.3045 Y133.5645 A1867.3432 F1200 (y_theta)
G1 X95.3045 Y131.3643 A1866.7121 F1200 (y_theta)
G1 X95.3045 Y129.2624 A1864.7019 F1200 (y_theta)
G1 X94.8411 Y129.2624 A1862.7668 F1200 (x_theta)
G1 X94.2021 Y129.2624 A1860.3546 F1200 (x_theta)
G1 X93.3883 Y129.2624 A1857.4958 F1200 (x_theta)
G1 X92.294 Y129.2624 A1853.3378 F1200 (x_theta)
G1 X91.0683 Y129.2624 A1850.1326 F1200 (x_theta)
G1 X89.7406 Y129.2624 A1846.1621 F1200 (x_theta)
G1 X86.7574 Y129.2624 A1837.7518 F1200 (x_theta)
G1 X83.3544 Y129.2624 A1828.3578 F1200 (x_theta)
G1 X80.2194 Y129.2624 A1819.57 F1200 (x_theta)
G1 X78.7277 Y129.2624 A1814.9826 F1200 (x_theta)
G1 X77.4107 Y129.2624 A1810.8481 F1200 (x_theta)
G1 X75.8285 Y129.2624 A1805.8034 F1200 (x_theta)
G1 X74.6527 Y129.2624 A1801.106 F1200 (x_theta)
G1 X74.6527 Y128.6472 A1798.4156 F1200 (y_theta)
G1 X74.6527 Y128.2894 A1795.5921 F1200 (y_theta)
G1 X74.7334 Y128.2894 A1791.0733 F1200 (x_theta)
G1 X74.7849 Y128.2894 A1788.0463 F1200 (x_theta)
G1 X74.9996 Y128.2894 A1785.2775 F1200 (x_theta)
G1 X75.2531 Y128.2894 A1783.5968 F1200 (x_theta)
G1 X76.0677 Y128.2894 A1782.283 F1200 (x_theta)
G1 X76.4852 Y128.2894 A1780.8383 F1200 (x_theta)
G1 X76.8387 Y128.2894 A1779.815 F1200 (x_theta)
G1 X77.191 Y128.2894 A1778.7722 F1200 (x_theta)
G1 X77.5435 Y128.2894 A1777.727 F1200 (x_theta)
G1 X77.6824 Y128.2894 A1775.2672 F1200 (x_theta)
G1 X77.7144 Y128.2894 A1772.0951 F1200 (x_theta)
G1 X77.7144 Y128.1436 A1769.3386 F1200 (y_theta)
G1 X77.7144 Y127.398 A1769.093 F1200 (y_theta)
G1 X77.7144 Y126.7897 A1764.1477 F1200 (y_theta)
G1 X77.7144 Y125.6593 A1762.2681 F1200 (y_theta)
G1 X77.7144 Y124.8069 A1760.0886 F1200 (y_theta)
G1 X77.7144 Y123.655 A1759.9765 F1200 (y_theta)
G1 X77.7144 Y122.6002 A1760.2673 F1200 (y_theta)
G1 X77.7144 Y121.5478 A1760.5364 F1200 (y_theta)
G1 X76.8499 Y121.5478 A1752.9825 F1200 (x_theta)
G1 X75.8688 Y121.5478 A1744.8592 F1200 (x_theta)
G1 X74.1364 Y121.5478 A1731.824 F1200 (x_theta)
G1 X72.1855 Y121.5478 A1719.4326 F1200 (x_theta)
G1 X70.0723 Y121.5478 A1707.2956 F1200 (x_theta)
G1 X68.0943 Y121.5478 A1697.6538 F1200 (x_theta)
G1 X65.8944 Y121.5478 A1687.1874 F1200 (x_theta)
G1 X63.5886 Y121.5478 A1676.5422 F1200 (x_theta)
G1 X61.4467 Y121.5478 A1666.3454 F1200 (x_theta)
G1 X59.2396 Y121.5478 A1655.5072 F1200 (x_theta)
G1 X57.0071 Y121.5478 A1643.609 F1200 (x_theta)
G1 X55.8551 Y121.5478 A1637.3325 F1200 (x_theta)
G1 X54.7423 Y121.5478 A1630.6935 F1200 (x_theta)
G1 X53.5154 Y121.5478 A1623.6939 F1200 (x_theta)
G1 X52.5506 Y121.5478 A1617.2541 F1200 (x_theta)
G1 X51.5078 Y121.5478 A1609.9899 F1200 (x_theta)
G1 X50.3483 Y121.5478 A1602.382 F1200 (x_theta)
G1 X49.6627 Y121.5478 A1607.0115 F1200 (x_theta)
G1 X48.7821 Y121.5478 A1610.2467 F1200 (x_theta)
G1 X47.8238 Y121.5478 A1612.5428 F1200 (x_theta)
G1 X46.6392 Y121.5478 A1613.9417 F1200 (x_theta)
G1 X45.646 Y121.5478 A1614.8669 F1200 (x_theta)
G1 X44.5821 Y121.5478 A1614.9236 F1200 (x_theta)
G1 X43.3398 Y121.5478 A1613.7055 F1200 (x_theta)
G1 X42.1409 Y121.5478 A1612.0861 F1200 (x_theta)
G1 X40.9432 Y121.5478 A1610.4997 F1200 (x_theta)
G1 X39.4613 Y121.5478 A1607.3091 F1200 (x_theta)
G1 X38.0913 Y121.5478 A1604.5867 F1200 (x_theta)
G1 X36.7227 Y121.5478 A1601.9097 F1200 (x_theta)
G1 X33.7756 Y121.5478 A1595.9584 F1200 (x_theta)
G1 X32.1291 Y121.5478 A1591.9198 F1200 (x_theta)
G1 X30.5939 Y121.5478 A1588.3353 F1200 (x_theta)
G1 X31.5086 Y121.5478 A1580.592 F1200 (x_theta)
G1 X32.3952 Y121.5478 A1572.7055 F1200 (x_theta)
G1 X32.772 Y121.5478 A1568.5333 F1200 (x_theta)
G1 X33.0674 Y121.5478 A1563.5428 F1200 (x_theta)
G1 X33.1705 Y121.5478 A1559.011 F1200 (x_theta)
G1 X33.1906 Y121.5478 A1553.687 F1200 (x_theta)
G1 X31.9195 Y121.5478 A1547.0218 F1200 (x_theta)
G1 X30.61 Y121.5478 A1540.8859 F1200 (x_theta)
G1 X28.0934 Y121.5478 A1529.2191 F1200 (x_theta)
G1 X25.4223 Y121.5478 A1518.0078 F1200 (x_theta)
G1 X24.0989 Y121.5478 A1512.3201 F1200 (x_theta)
G1 X21.5591 Y121.5478 A1499.5415 F1200 (x_theta)
G1 X20.1696 Y121.5478 A1493.0002 F1200 (x_theta)
G1 X18.9413 Y121.5478 A1486.0066 F1200 (x_theta)
G1 X17.6196 Y121.5478 A1478.4111 F1200 (x_theta)
G1 X16.3638 Y121.5478 A1469.6739 F1200 (x_theta)
G1 X15.1412 Y121.5478 A1460.2141 F1200 (x_theta)
G1 X14.4334 Y121.5478 A1454.8539 F1200 (x_theta)
G1 X13.8088 Y121.5478 A1450.1964 F1200 (x_theta)
G1 X12.6299 Y121.5478 A1439.2902 F1200 (x_theta)
G1 X11.5688 Y121.5478 A1435.6681 F1200 (x_theta)
G1 X10.5271 Y121.5478 A1431.6714 F1200 (x_theta)
G1 X9.6355 Y121.5478 A1427.1269 F1200 (x_theta)
G1 X8.0297 Y121.5478 A1419.4239 F1200 (x_theta)
G1 X6.6748 Y121.5478 A1411.4562 F1200 (x_theta)
G1 X6.1224 Y121.5478 A1407.3091 F1200 (x_theta)
G1 X5.5647 Y121.5478 A1403.1801 F1200 (x_theta)
G1 X5.2442 Y121.5478 A1399.0755 F1200 (x_theta)
G1 X5.0314 Y121.5478 A1395.1817 F1200 (x_theta)
G1 X4.8138 Y121.5478 A1391.287 F1200 (x_theta)
G1 X4.8303 Y121.5478 A1387.3805 F1200 (x_theta)
G1 X4.8275 Y121.5478 A1383.8757 F1200 (x_theta)
G1 X5.0462 Y121.5478 A1380.7566 F1200 (x_theta)
G1 X5.3853 Y121.5478 A1377.3945 F1200 (x_theta)
G1 X5.0709 Y121.5478 A1375.9877 F1200 (x_theta)
G1 X4.7443 Y121.5478 A1375.0012 F1200 (x_theta)
G1 X4.3982 Y121.5478 A1374.4211 F1200 (x_theta)
G1 X4.0476 Y121.5478 A1374.2699 F1200 (x_theta)
G1 X3.322 Y121.5478 A1374.7941 F1200 (x_theta)
G1 X2.4827 Y121.5478 A1375.1295 F1200 (x_theta)
G1 X-1.0506 Y121.5478 A1374.45 F1200 (x_theta)
G1 X-1.1738 Y121.5478 A1370.8699 F1200 (x_theta)
G1 X-1.2124 Y121.5478 A1368.2629 F1200 (x_theta)
G1 X-1.0722 Y121.5478 A1363.4188 F1200 (x_theta)
G1 X-0.9156 Y121.5478 A1361.9706 F1200 (x_theta)
G1 X-0.646 Y121.5478 A1360.6959 F1200 (x_theta)
G1 X-0.3785 Y121.5478 A1359.4185 F1200 (x_theta)
G1 X-0.1223 Y121.5478 A1358.5443 F1200 (x_theta)
G1 X0.4729 Y121.5478 A1358.1923 F1200 (x_theta)
G1 X0.9745 Y121.5478 A1356.8361 F1200 (x_theta)
G1 X1.4934 Y121.5478 A1354.649 F1200 (x_theta)
G1 X2.1316 Y121.5478 A1352.2043 F1200 (x_theta)
G1 X2.5473 Y121.5478 A1348.972 F1200 (x_theta)
G1 X2.9727 Y121.5478 A1344.8803 F1200 (x_theta)
G1 X3.2773 Y121.5478 A1340.5971 F1200 (x_theta)
G1 X3.5725 Y121.5478 A1336.2876 F1200 (x_theta)
G1 X3.9208 Y121.5478 A1326.4183 F1200 (x_theta)
G1 X4.2221 Y121.5478 A1317.3182 F1200 (x_theta)
G1 X4.3585 Y121.5478 A1313.1757 F1200 (x_theta)
G1 X4.4868 Y121.5478 A1309.0127 F1200 (x_theta)
G1 X4.6089 Y121.5478 A1304.8362 F1200 (x_theta)
G1 X4.7242 Y121.5478 A1301.5166 F1200 (x_theta)
G1 X5.3598 Y121.5478 A1274.0236 F1200 (x_theta)
G1 X5.575 Y121.5478 A1245.8785 F1200 (x_theta)
G1 X4.955 Y121.5478 A1187.908 F1200 (x_theta)
G1 X4.9332 Y121.5478 A1184.8121 F1200 (x_theta)
G1 X5.1323 Y121.5478 A1181.8475 F1200 (x_theta)
G1 X5.3261 Y121.5478 A1178.8666 F1200 (x_theta)
G1 X5.7402 Y121.5478 A1176.0064 F1200 (x_theta)
G1 X6.3757 Y121.5478 A1171.0203 F1200 (x_theta)
G1 X7.3785 Y121.5478 A1167.0781 F1200 (x_theta)
G1 X8.3962 Y121.5478 A1163.5433 F1200 (x_theta)
G1 X9.5405 Y121.5478 A1160.4788 F1200 (x_theta)
G1 X10.1107 Y121.5478 A1158.9304 F1200 (x_theta)
G1 X10.5675 Y121.5478 A1157.3164 F1200 (x_theta)
G1 X11.6718 Y121.5478 A1153.6832 F1200 (x_theta)
G1 X11.7886 Y121.5478 A1151.8787 F1200 (x_theta)
G1 X11.9309 Y121.5478 A1150.5502 F1200 (x_theta)
G1 X11.8776 Y121.5478 A1149.5985 F1200 (x_theta)
G1 X11.746 Y121.5478 A1143.5008 F1200 (x_theta)
G1 X11.7398 Y121.5478 A1137.9106 F1200 (x_theta)
G1 X11.5315 Y121.5478 A1132.7089 F1200 (x_theta)
G1 X11.2445 Y121.5478 A1121.4144 F1200 (x_theta)
G1 X11.0855 Y121.5478 A1115.7595 F1200 (x_theta)
G1 X10.8382 Y121.5478 A1110.5583 F1200 (x_theta)
G1 X10.7257 Y121.5478 A1105.8477 F1200 (x_theta)
G1 X10.259 Y121.5478 A1096.3917 F1200 (x_theta)
G1 X9.9818 Y121.5478 A1088.3747 F1200 (x_theta)
G1 X9.682 Y121.5478 A1080.3547 F1200 (x_theta)
G1 X9.514 Y121.5478 A1074.2174 F1200 (x_theta)
G1 X9.5476 Y121.5478 A1068.0584 F1200 (x_theta)
G1 X9.607 Y121.5478 A1062.3494 F1200 (x_theta)
G1 X10.0704 Y121.5478 A1058.9492 F1200 (x_theta)
G1 X10.6348 Y121.5478 A1055.5106 F1200 (x_theta)
G1 X11.3829 Y121.5478 A1052.9698 F1200 (x_theta)
G1 X12.3182 Y121.5478 A1051.3432 F1200 (x_theta)
G1 X12.8063 Y121.5478 A1050.7624 F1200 (x_theta)
G1 X13.9723 Y121.5478 A1050.5362 F1200 (x_theta)
G1 X14.4394 Y121.5478 A1050.9389 F1200 (x_theta)
G1 X15.46 Y121.5478 A1052.7294 F1200 (x_theta)
G1 X15.9499 Y121.5478 A1054.6333 F1200 (x_theta)
G1 X16.4824 Y121.5478 A1057.0446 F1200 (x_theta)
G1 X18.2504 Y121.5478 A1058.7884 F1200 (x_theta)
G1 X20.2333 Y121.5478 A1060.544 F1200 (x_theta)
G1 X23.9733 Y121.5478 A1065.2734 F1200 (x_theta)
G1 X26.0083 Y121.5478 A1067.7107 F1200 (x_theta)
G1 X27.8768 Y121.5478 A1070.7641 F1200 (x_theta)
G1 X31.1927 Y121.5478 A1077.116 F1200 (x_theta)
G1 X31.3197 Y121.5478 A1076.0177 F1200 (x_theta)
G1 X31.5989 Y121.5478 A1075.4602 F1200 (x_theta)
G1 X32.1807 Y121.5478 A1075.9922 F1200 (x_theta)
G1 X32.5913 Y121.5478 A1077.086 F1200 (x_theta)
G1 X33.2619 Y121.5478 A1078.7374 F1200 (x_theta)
G1 X33.8888 Y121.5478 A1079.8464 F1200 (x_theta)
G1 X35.3404 Y121.5478 A1083.2221 F1200 (x_theta)
G1 X33.1595 Y121.5478 A1064.2439 F1200 (x_theta)
G1 X32.1732 Y121.5478 A1057.676 F1200 (x_theta)
G1 X31.1218 Y121.5478 A1051.7471 F1200 (x_theta)
G1 X30.1142 Y121.5478 A1046.4304 F1200 (x_theta)
G1 X28.9419 Y121.5478 A1041.7722 F1200 (x_theta)
G1 X27.7122 Y121.5478 A1037.7449 F1200 (x_theta)
G1 X26.532 Y121.5478 A1034.3107 F1200 (x_theta)
G1 X25.4013 Y121.5478 A1031.4496 F1200 (x_theta)
G1 X24.2153 Y121.5478 A1029.1814 F1200 (x_theta)
G1 X22.982 Y121.5478 A1026.4388 F1200 (x_theta)
G1 X21.6386 Y121.5478 A1024.8343 F1200 (x_theta)
G1 X20.5545 Y121.5478 A1023.6838 F1200 (x_theta)
G1 X19.368 Y121.5478 A1022.591 F1200 (x_theta)
G1 X18.2299 Y121.5478 A1022.0122 F1200 (x_theta)
G1 X17.2448 Y121.5478 A1021.8934 F1200 (x_theta)
G1 X16.0522 Y121.5478 A1021.8588 F1200 (x_theta)
G1 X15.115 Y121.5478 A1022.2293 F1200 (x_theta)
G1 X14.187 Y121.5478 A1021.5869 F1200 (x_theta)
G1 X12.4464 Y121.5478 A1019.2846 F1200 (x_theta)
G1 X11.5296 Y121.5478 A1017.6764 F1200 (x_theta)
G1 X10.7174 Y121.5478 A1016.0417 F1200 (x_theta)
G1 X10.0081 Y121.5478 A1014.3736 F1200 (x_theta)
G1 X8.5425 Y121.5478 A1010.6346 F1200 (x_theta)
G1 X7.1405 Y121.5478 A1005.4601 F1200 (x_theta)
G1 X5.9891 Y121.5478 A1000.7101 F1200 (x_theta)
G1 X4.9373 Y121.5478 A995.961 F1200 (x_theta)
G1 X4.0872 Y121.5478 A991.1493 F1200 (x_theta)
G1 X3.1314 Y121.5478 A985.475 F1200 (x_theta)
G1 X2.3202 Y121.5478 A980.2324 F1200 (x_theta)
G1 X1.6562 Y121.5478 A975.4029 F1200 (x_theta)
G1 X1.0374 Y121.5478 A971.0432 F1200 (x_theta)
G1 X0.5146 Y121.5478 A966.6339 F1200 (x_theta)
G1 X-0.061 Y121.5478 A962.7563 F1200 (x_theta)
G1 X-0.4335 Y121.5478 A959.6932 F1200 (x_theta)
G1 X-0.8535 Y121.5478 A957.1563 F1200 (x_theta)
G1 X-1.2845 Y121.5478 A953.6785 F1200 (x_theta)
G1 X-1.7635 Y121.5478 A950.7311 F1200 (x_theta)
G1 X-2.2893 Y121.5478 A948.3103 F1200 (x_theta)
G1 X-2.7611 Y121.5478 A946.3258 F1200 (x_theta)
G1 X-5.1602 Y121.5478 A937.9999 F1200 (x_theta)
G1 X-4.9893 Y121.5478 A935.957 F1200 (x_theta)
G1 X-4.6659 Y121.5478 A934.2395 F1200 (x_theta)
G1 X-4.4424 Y121.5478 A932.6062 F1200 (x_theta)
G1 X-4.107 Y121.5478 A931.8142 F1200 (x_theta)
G1 X-3.4947 Y121.5478 A929.7951 F1200 (x_theta)
G1 X-3.1204 Y121.5478 A928.4715 F1200 (x_theta)
G1 X-2.5919 Y121.5478 A927.4714 F1200 (x_theta)
G1 X-1.2531 Y121.5478 A930.0437 F1200 (x_theta)
G1 X0.0285 Y121.5478 A932.2158 F1200 (x_theta)
G1 X2.4794 Y121.5478 A935.772 F1200 (x_theta)
G1 X3.6079 Y121.5478 A937.6811 F1200 (x_theta)
G1 X4.7206 Y121.5478 A938.6267 F1200 (x_theta)
G1 X6.636 Y121.5478 A939.8359 F1200 (x_theta)
G1 X8.6923 Y121.5478 A940.4304 F1200 (x_theta)
G1 X10.279 Y121.5478 A939.9297 F1200 (x_theta)
G1 X11.9638 Y121.5478 A939.3205 F1200 (x_theta)
G1 X17.5172 Y121.5478 A933.578 F1200 (x_theta)
G1 X18.7422 Y121.5478 A932.8007 F1200 (x_theta)
G1 X20.0281 Y121.5478 A932.5032 F1200 (x_theta)
G1 X21.3426 Y121.5478 A933.3076 F1200 (x_theta)
G1 X21.9514 Y121.5478 A933.7667 F1200 (x_theta)
G1 X22.6858 Y121.5478 A935.2391 F1200 (x_theta)
G1 X23.4539 Y121.5478 A936.109 F1200 (x_theta)
G1 X24.2511 Y121.5478 A938.1107 F1200 (x_theta)
G1 X25.6874 Y121.5478 A941.77 F1200 (x_theta)
G1 X27.0271 Y121.5478 A945.5996 F1200 (x_theta)
G1 X28.3314 Y121.5478 A950.1209 F1200 (x_theta)
G1 X29.5738 Y121.5478 A954.1851 F1200 (x_theta)
G1 X30.6811 Y121.5478 A959.0398 F1200 (x_theta)
G1 X31.7258 Y121.5478 A963.4193 F1200 (x_theta)
G1 X32.9902 Y121.5478 A968.8576 F1200 (x_theta)
G1 X33.8927 Y121.5478 A974.0866 F1200 (x_theta)
G1 X35.7465 Y121.5478 A985.2685 F1200 (x_theta)
G1 X37.337 Y121.5478 A997.4603 F1200 (x_theta)
G1 X38.7994 Y121.5478 A1009.9178 F1200 (x_theta)
G1 X41.3297 Y121.5478 A1036.7243 F1200 (x_theta)
G1 X42.3828 Y121.5478 A1049.7821 F1200 (x_theta)
G1 X44.5217 Y121.5478 A1078.0432 F1200 (x_theta)
G1 X46.6587 Y121.5478 A1106.1596 F1200 (x_theta)
G1 X47.8852 Y121.5478 A1120.4569 F1200 (x_theta)
G1 X49.1413 Y121.5478 A1134.3304 F1200 (x_theta)
G1 X49.609 Y121.5478 A1138.2036 F1200 (x_theta)
G1 X49.8514 Y121.5478 A1141.9838 F1200 (x_theta)
G1 X50.44 Y121.5478 A1149.6319 F1200 (x_theta)
G1 X51.2037 Y121.5478 A1156.8232 F1200 (x_theta)
G1 X51.9589 Y121.5478 A1164.0676 F1200 (x_theta)
G1 X52.7062 Y121.5478 A1171.3766 F1200 (x_theta)
G1 X53.7093 Y121.5478 A1179.5786 F1200 (x_theta)
G1 X54.6688 Y121.5478 A1187.2202 F1200 (x_theta)
G1 X55.6554 Y121.5478 A1195.6136 F1200 (x_theta)
G1 X56.9464 Y121.5478 A1203.804 F1200 (x_theta)
G1 X56.9464 Y121.2659 A1198.4949 F1200 (y_theta)
G1 X56.9464 Y120.4986 A1195.9774 F1200 (y_theta)
G1 X56.9464 Y119.4898 A1194.8446 F1200 (y_theta)
G1 X56.9464 Y118.3289 A1193.331 F1200 (y_theta)
G1 X55.4012 Y118.3289 A1178.1632 F1200 (x_theta)
G1 X53.7816 Y118.3289 A1162.5898 F1200 (x_theta)
G1 X53.7816 Y118.2471 A1162.4356 F1200 (y_theta)
G1 X53.1059 Y118.2471 A1157.0138 F1200 (x_theta)
G1 X52.4699 Y118.2471 A1152.2846 F1200 (x_theta)
G1 X51.9433 Y118.2471 A1147.6541 F1200 (x_theta)
G1 X51.5273 Y118.2471 A1143.1099 F1200 (x_theta)
G1 X51.0825 Y118.2471 A1139.797 F1200 (x_theta)
G1 X50.5473 Y118.2471 A1132.1622 F1200 (x_theta)
G1 X50.4318 Y118.2471 A1129.0289 F1200 (x_theta)
G1 X50.3603 Y118.2471 A1126.535 F1200 (x_theta)
G1 X50.4436 Y118.2471 A1124.7149 F1200 (x_theta)
G1 X50.5605 Y118.2471 A1120.4241 F1200 (x_theta)
G1 X50.9865 Y118.2471 A1117.4488 F1200 (x_theta)
G1 X51.6778 Y118.2471 A1115.1577 F1200 (x_theta)
G1 X53.4681 Y118.2471 A1113.1464 F1200 (x_theta)
G1 X54.4712 Y118.2471 A1112.1464 F1200 (x_theta)
G1 X55.6846 Y118.2471 A1112.4883 F1200 (x_theta)
G1 X58.2804 Y118.2471 A1112.5784 F1200 (x_theta)
G1 X60.7095 Y118.2471 A1113.3037 F1200 (x_theta)
G1 X61.6531 Y118.2471 A1111.5334 F1200 (x_theta)
G1 X63.1972 Y118.2471 A1106.4019 F1200 (x_theta)
G1 X63.7382 Y118.2471 A1102.3095 F1200 (x_theta)
G1 X64.7446 Y118.2471 A1094.658 F1200 (x_theta)
G1 X65.5642 Y118.2471 A1087.5235 F1200 (x_theta)
G1 X66.4212 Y118.2471 A1080.9684 F1200 (x_theta)
G1 X66.881 Y118.2471 A1078.7506 F1200 (x_theta)
G1 X67.2939 Y118.2471 A1077.2555 F1200 (x_theta)
G1 X67.7685 Y118.2471 A1076.4932 F1200 (x_theta)
G1 X68.3058 Y118.2471 A1076.474 F1200 (x_theta)
G1 X68.7994 Y118.2471 A1077.2134 F1200 (x_theta)
G1 X69.5292 Y118.2471 A1079.478 F1200 (x_theta)
G1 X70.445 Y118.2471 A1087.8937 F1200 (x_theta)
G1 X71.3538 Y118.2471 A1096.414 F1200 (x_theta)
G1 X71.3538 Y119.3867 A1096.7589 F1200 (y_theta)
G1 X71.3538 Y120.9221 A1095.8386 F1200 (y_theta)
G1 X71.3538 Y123.1042 A1097.995 F1200 (y_theta)
G1 X71.3538 Y124.0325 A1099.8418 F1200 (y_theta)
G1 X71.3538 Y124.8469 A1103.2535 F1200 (y_theta)
G1 X74.5204 Y124.8469 A1076.976 F1200 (x_theta)
G1 X73.0613 Y124.8469 A1063.4919 F1200 (x_theta)
G1 X71.6926 Y124.8469 A1050.2496 F1200 (x_theta)
G1 X69.1644 Y124.8469 A1027.5158 F1200 (x_theta)
G1 X66.7578 Y124.8469 A1006.2226 F1200 (x_theta)
G1 X64.5447 Y124.8469 A986.9521 F1200 (x_theta)
G1 X62.3239 Y124.8469 A967.4323 F1200 (x_theta)
G1 X61.2471 Y124.8469 A957.8204 F1200 (x_theta)
G1 X60.0163 Y124.8469 A946.9791 F1200 (x_theta)
G1 X58.9391 Y124.8469 A936.8351 F1200 (x_theta)
G1 X57.6041 Y124.8469 A925.6421 F1200 (x_theta)
G1 X56.2585 Y124.8469 A914.6451 F1200 (x_theta)
G1 X54.6741 Y124.8469 A901.9098 F1200 (x_theta)
G1 X54.0657 Y124.8469 A901.4796 F1200 (x_theta)
G1 X53.2911 Y124.8469 A900.5914 F1200 (x_theta)
G1 X51.5961 Y124.8469 A897.6062 F1200 (x_theta)
G1 X49.8301 Y124.8469 A894.0859 F1200 (x_theta)
G1 X47.755 Y124.8469 A889.035 F1200 (x_theta)
G1 X45.5789 Y124.8469 A885.0744 F1200 (x_theta)
G1 X43.3505 Y124.8469 A879.9187 F1200 (x_theta)
G1 X38.7477 Y124.8469 A869.7205 F1200 (x_theta)
G1 X34.0935 Y124.8469 A859.6422 F1200 (x_theta)
G1 X31.9806 Y124.8469 A855.0985 F1200 (x_theta)
G1 X29.7093 Y124.8469 A850.3499 F1200 (x_theta)
G1 X27.8548 Y124.8469 A846.2145 F1200 (x_theta)
G1 X26.1637 Y124.8469 A842.4974 F1200 (x_theta)
G1 X24.7243 Y124.8469 A838.9927 F1200 (x_theta)
G1 X24.0782 Y124.8469 A837.7492 F1200 (x_theta)
G1 X23.4331 Y124.8469 A836.5205 F1200 (x_theta)
G1 X21.8354 Y124.8469 A832.8361 F1200 (x_theta)
G1 X20.3856 Y124.8469 A830.1658 F1200 (x_theta)
G1 X19.112 Y124.8469 A827.1841 F1200 (x_theta)
G1 X17.752 Y124.8469 A824.4295 F1200 (x_theta)
G1 X15.3084 Y124.8469 A817.8837 F1200 (x_theta)
G1 X13.0991 Y124.8469 A812.2348 F1200 (x_theta)
G1 X11.0391 Y124.8469 A807.6079 F1200 (x_theta)
G1 X9.0772 Y124.8469 A802.2911 F1200 (x_theta)
G1 X7.4348 Y124.8469 A797.5721 F1200 (x_theta)
G1 X5.7815 Y124.8469 A793.5463 F1200 (x_theta)
G1 X4.364 Y124.8469 A790.2439 F1200 (x_theta)
G1 X2.9367 Y124.8469 A787.5884 F1200 (x_theta)
G1 X1.3413 Y124.8469 A785.3483 F1200 (x_theta)
G1 X0.0576 Y124.8469 A784.177 F1200 (x_theta)
G1 X-1.3192 Y124.8469 A783.7923 F1200 (x_theta)
G1 X-1.9742 Y124.8469 A784.0912 F1200 (x_theta)
G1 X-2.714 Y124.8469 A784.5699 F1200 (x_theta)
G1 X-3.3799 Y124.8469 A785.4404 F1200 (x_theta)
G1 X-4.1207 Y124.8469 A785.9091 F1200 (x_theta)
G1 X-5.7354 Y124.8469 A789.2854 F1200 (x_theta)
G1 X-6.7776 Y124.8469 A795.7122 F1200 (x_theta)
G1 X-7.8567 Y124.8469 A802.6049 F1200 (x_theta)
G1 X-8.7863 Y124.8469 A809.0701 F1200 (x_theta)
G1 X-9.9647 Y124.8469 A814.8243 F1200 (x_theta)
G1 X-11.3885 Y124.8469 A819.8731 F1200 (x_theta)
G1 X-12.0517 Y124.8469 A822.0171 F1200 (x_theta)
G1 X-12.7857 Y124.8469 A823.7589 F1200 (x_theta)
G1 X-14.3952 Y124.8469 A826.4329 F1200 (x_theta)
G1 X-15.4264 Y124.8469 A827.1375 F1200 (x_theta)
G1 X-16.3682 Y124.8469 A827.689 F1200 (x_theta)
G1 X-17.4446 Y124.8469 A827.4798 F1200 (x_theta)
G1 X-18.3634 Y124.8469 A827.5063 F1200 (x_theta)
G1 X-20.5574 Y124.8469 A826.2196 F1200 (x_theta)
G1 X-22.5567 Y124.8469 A827.9418 F1200 (x_theta)
G1 X-24.3142 Y124.8469 A829.7143 F1200 (x_theta)
G1 X-26.2303 Y124.8469 A831.2287 F1200 (x_theta)
G1 X-28.189 Y124.8469 A831.8649 F1200 (x_theta)
G1 X-29.1363 Y124.8469 A832.3568 F1200 (x_theta)
G1 X-30.0579 Y124.8469 A832.3601 F1200 (x_theta)
G1 X-31.0428 Y124.8469 A832.0115 F1200 (x_theta)
G1 X-32.1833 Y124.8469 A831.4462 F1200 (x_theta)
G1 X-33.1406 Y124.8469 A830.6276 F1200 (x_theta)
G1 X-34.2257 Y124.8469 A829.1272 F1200 (x_theta)
G1 X-35.2845 Y124.8469 A827.1648 F1200 (x_theta)
G1 X-36.4087 Y124.8469 A824.8826 F1200 (x_theta)
G1 X-36.4207 Y124.8469 A823.5979 F1200 (x_theta)
G1 X-36.2798 Y124.8469 A822.5213 F1200 (x_theta)
G1 X-36.1387 Y124.8469 A821.4415 F1200 (x_theta)
G1 X-35.9079 Y124.8469 A820.2249 F1200 (x_theta)
G1 X-33.9284 Y124.8469 A817.2324 F1200 (x_theta)
G1 X-32.0008 Y124.8469 A813.3455 F1200 (x_theta)
G1 X-28.0477 Y124.8469 A806.026 F1200 (x_theta)
G1 X-28.6517 Y124.8469 A800.5361 F1200 (x_theta)
G1 X-28.87 Y124.8469 A797.6508 F1200 (x_theta)
G1 X-28.9348 Y124.8469 A794.9627 F1200 (x_theta)
G1 X-28.985 Y124.8469 A791.7739 F1200 (x_theta)
G1 X-28.6404 Y124.8469 A788.8046 F1200 (x_theta)
G1 X-28.4179 Y124.8469 A786.9866 F1200 (x_theta)
G1 X-28.041 Y124.8469 A785.3526 F1200 (x_theta)
G1 X-27.7512 Y124.8469 A783.8689 F1200 (x_theta)
G1 X-27.2912 Y124.8469 A782.061 F1200 (x_theta)
G1 X-27.762 Y124.8469 A781.502 F1200 (x_theta)
G1 X-28.3039 Y124.8469 A780.6011 F1200 (x_theta)
G1 X-28.7894 Y124.8469 A780.5518 F1200 (x_theta)
G1 X-29.4321 Y124.8469 A780.3197 F1200 (x_theta)
G1 X-30.678 Y124.8469 A781.1867 F1200 (x_theta)
G1 X-32.0095 Y124.8469 A782.2085 F1200 (x_theta)
G1 X-33.2722 Y124.8469 A783.5528 F1200 (x_theta)
G1 X-34.0173 Y124.8469 A783.9591 F1200 (x_theta)
G1 X-34.5371 Y124.8469 A784.8796 F1200 (x_theta)
G1 X-35.8039 Y124.8469 A786.1893 F1200 (x_theta)
G1 X-36.812 Y124.8469 A787.0326 F1200 (x_theta)
G1 X-37.6982 Y124.8469 A786.7552 F1200 (x_theta)
G1 X-38.5484 Y124.8469 A785.5283 F1200 (x_theta)
G1 X-39.3117 Y124.8469 A784.1609 F1200 (x_theta)
G1 X-39.9012 Y124.8469 A782.5025 F1200 (x_theta)
G1 X-40.3187 Y124.8469 A780.5521 F1200 (x_theta)
G1 X-40.7222 Y124.8469 A778.1316 F1200 (x_theta)
G1 X-41.1103 Y124.8469 A775.2449 F1200 (x_theta)
G1 X-41.4176 Y124.8469 A772.2075 F1200 (x_theta)
G1 X-41.7003 Y124.8469 A770.9251 F1200 (x_theta)
G1 X-42.1547 Y124.8469 A769.9508 F1200 (x_theta)
G1 X-42.9641 Y124.8469 A767.3948 F1200 (x_theta)
G1 X-43.7758 Y124.8469 A764.8533 F1200 (x_theta)
G1 X-44.5876 Y124.8469 A762.3305 F1200 (x_theta)
G1 X-46.5903 Y124.8469 A756.2492 F1200 (x_theta)
G1 X-48.4455 Y124.8469 A750.4152 F1200 (x_theta)
G1 X-49.4124 Y124.8469 A747.3788 F1200 (x_theta)
G1 X-50.2259 Y124.8469 A744.5094 F1200 (x_theta)
G1 X-51.032 Y124.8469 A741.1977 F1200 (x_theta)
G1 X-51.6849 Y124.8469 A738.0431 F1200 (x_theta)
G1 X-52.1029 Y124.8469 A734.8764 F1200 (x_theta)
G1 X-52.4499 Y124.8469 A732.0169 F1200 (x_theta)
G1 X-52.7262 Y124.8469 A729.4556 F1200 (x_theta)
G1 X-52.8411 Y124.8469 A726.5697 F1200 (x_theta)
G1 X-40.7506 Y124.8469 A735.5646 F1200 (x_theta)
G1 X-40.5622 Y124.8469 A733.2824 F1200 (x_theta)
G1 X-40.2958 Y124.8469 A730.8172 F1200 (x_theta)
G1 X-39.9604 Y124.8469 A729.1455 F1200 (x_theta)
G1 X-39.5511 Y124.8469 A727.7821 F1200 (x_theta)
G1 X-38.7357 Y124.8469 A725.0353 F1200 (x_theta)
G1 X-38.173 Y124.8469 A723.7886 F1200 (x_theta)
G1 X-37.6082 Y124.8469 A722.0395 F1200 (x_theta)
G1 X-38.3882 Y124.8469 A720.3825 F1200 (x_theta)
G1 X-39.6313 Y124.8469 A716.3829 F1200 (x_theta)
G1 X-40.02 Y124.8469 A714.8322 F1200 (x_theta)
G1 X-40.0933 Y124.8469 A713.053 F1200 (x_theta)
G1 X-40.1674 Y124.8469 A710.7802 F1200 (x_theta)
G1 X-40.1655 Y124.8469 A709.798 F1200 (x_theta)
G1 X-39.9281 Y124.8469 A708.264 F1200 (x_theta)
G1 X-39.7706 Y124.8469 A706.9112 F1200 (x_theta)
G1 X-39.4569 Y124.8469 A705.6768 F1200 (x_theta)
G1 X-47.5482 Y124.8469 A675.6114 F1200 (x_theta)
G1 X-47.9672 Y124.8469 A673.217 F1200 (x_theta)
G1 X-48.2396 Y124.8469 A670.4425 F1200 (x_theta)
G1 X-48.4397 Y124.8469 A667.4806 F1200 (x_theta)
G1 X-48.6524 Y124.8469 A664.0444 F1200 (x_theta)
G1 X-48.761 Y124.8469 A658.2994 F1200 (x_theta)
G1 X-48.7385 Y124.8469 A655.705 F1200 (x_theta)
G1 X-48.572 Y124.8469 A652.7035 F1200 (x_theta)
G1 X-47.0686 Y124.8469 A654.195 F1200 (x_theta)
G1 X-45.3766 Y124.8469 A657.2506 F1200 (x_theta)
G1 X-43.9251 Y124.8469 A659.9751 F1200 (x_theta)
G1 X-42.3817 Y124.8469 A663.5188 F1200 (x_theta)
G1 X-39.2184 Y124.8469 A671.0492 F1200 (x_theta)
G1 X-37.6068 Y124.8469 A674.5414 F1200 (x_theta)
G1 X-36.0047 Y124.8469 A677.5797 F1200 (x_theta)
G1 X-35.7216 Y124.8469 A675.7593 F1200 (x_theta)
G1 X-35.283 Y124.8469 A674.0331 F1200 (x_theta)
G1 X-35.0773 Y124.8469 A672.4022 F1200 (x_theta)
G1 X-34.9471 Y124.8469 A670.9731 F1200 (x_theta)
G1 X-34.7348 Y124.8469 A669.8455 F1200 (x_theta)
G1 X-34.3762 Y124.8469 A668.302 F1200 (x_theta)
G1 X-33.4952 Y124.8469 A665.8034 F1200 (x_theta)
G1 X-32.0915 Y124.8469 A666.1521 F1200 (x_theta)
G1 X-30.8333 Y124.8469 A666.933 F1200 (x_theta)
G1 X-29.7949 Y124.8469 A668.3572 F1200 (x_theta)
G1 X-28.8186 Y124.8469 A670.5377 F1200 (x_theta)
G1 X-27.833 Y124.8469 A673.2668 F1200 (x_theta)
G1 X-26.8479 Y124.8469 A676.0187 F1200 (x_theta)
G1 X-25.7822 Y124.8469 A679.1159 F1200 (x_theta)
G1 X-24.5505 Y124.8469 A682.8935 F1200 (x_theta)
G1 X-23.8803 Y124.8469 A680.9865 F1200 (x_theta)
G1 X-23.7412 Y124.8469 A680.0231 F1200 (x_theta)
G1 X-23.5284 Y124.8469 A678.8434 F1200 (x_theta)
G1 X-23.7158 Y124.8469 A677.1173 F1200 (x_theta)
G1 X-23.7458 Y124.8469 A675.4991 F1200 (x_theta)
G1 X-24.0417 Y124.8469 A672.3723 F1200 (x_theta)
G1 X-24.498 Y124.8469 A669.1519 F1200 (x_theta)
G1 X-24.9706 Y124.8469 A665.4025 F1200 (x_theta)
G1 X-25.5066 Y124.8469 A662.4208 F1200 (x_theta)
G1 X-25.7759 Y124.8469 A660.9385 F1200 (x_theta)
G1 X-26.0452 Y124.8469 A659.4574 F1200 (x_theta)
G1 X-26.4732 Y124.8469 A657.884 F1200 (x_theta)
G1 X-26.7592 Y124.8469 A655.876 F1200 (x_theta)
G1 X-26.8878 Y124.8469 A653.9625 F1200 (x_theta)
G1 X-26.9472 Y124.8469 A651.8291 F1200 (x_theta)
G1 X-26.9854 Y124.8469 A647.8703 F1200 (x_theta)
G1 X-26.6469 Y124.8469 A643.8405 F1200 (x_theta)
G1 X-26.1594 Y124.8469 A639.8741 F1200 (x_theta)
G1 X-25.5925 Y124.8469 A636.1893 F1200 (x_theta)
G1 X-25.0129 Y124.8469 A633.017 F1200 (x_theta)
G1 X-24.4868 Y124.8469 A630.6008 F1200 (x_theta)
G1 X-23.5621 Y124.8469 A628.6182 F1200 (x_theta)
G1 X-23.1135 Y124.8469 A628.2859 F1200 (x_theta)
G1 X-22.5762 Y124.8469 A628.2617 F1200 (x_theta)
G1 X-31.1859 Y124.8469 A608.1933 F1200 (x_theta)
G1 X-31.1691 Y124.8469 A606.904 F1200 (x_theta)
G1 X-31.1523 Y124.8469 A605.6117 F1200 (x_theta)
G1 X-30.8511 Y124.8469 A603.894 F1200 (x_theta)
G1 X-30.461 Y124.8469 A602.4586 F1200 (x_theta)
G1 X-29.6961 Y124.8469 A600.8692 F1200 (x_theta)
G1 X-28.815 Y124.8469 A600.0929 F1200 (x_theta)
G1 X-27.9355 Y124.8469 A599.3067 F1200 (x_theta)
G1 X-25.813 Y124.8469 A598.8879 F1200 (x_theta)
G1 X-23.5071 Y124.8469 A599.0579 F1200 (x_theta)
G1 X-22.4175 Y124.8469 A599.398 F1200 (x_theta)
G1 X-21.4205 Y124.8469 A599.4376 F1200 (x_theta)
G1 X-20.4584 Y124.8469 A600.2875 F1200 (x_theta)
G1 X-19.588 Y124.8469 A600.8408 F1200 (x_theta)
G1 X-18.8451 Y124.8469 A601.9111 F1200 (x_theta)
G1 X-18.3499 Y124.8469 A602.63 F1200 (x_theta)
G1 X-16.9903 Y124.8469 A605.3207 F1200 (x_theta)
G1 X-15.759 Y124.8469 A608.5606 F1200 (x_theta)
G1 X-14.4113 Y124.8469 A612.7353 F1200 (x_theta)
G1 X-13.6789 Y124.8469 A615.2923 F1200 (x_theta)
G1 X-13.078 Y124.8469 A618.378 F1200 (x_theta)
G1 X-12.572 Y124.8469 A621.1551 F1200 (x_theta)
G1 X-11.9766 Y124.8469 A624.2689 F1200 (x_theta)
G1 X-11.5398 Y124.8469 A627.3279 F1200 (x_theta)
G1 X-11.1503 Y124.8469 A631.2319 F1200 (x_theta)
G1 X-10.7649 Y124.8469 A635.1497 F1200 (x_theta)
G1 X-10.3624 Y124.8469 A639.661 F1200 (x_theta)
G1 X-10.1251 Y124.8469 A644.0916 F1200 (x_theta)
G1 X-10.0132 Y124.8469 A649.6061 F1200 (x_theta)
G1 X-9.2166 Y124.8469 A652.6782 F1200 (x_theta)
G1 X-8.6679 Y124.8469 A655.3296 F1200 (x_theta)
G1 X-8.2791 Y124.8469 A657.8868 F1200 (x_theta)
G1 X-7.9625 Y124.8469 A660.6955 F1200 (x_theta)
G1 X-7.8775 Y124.8469 A663.6454 F1200 (x_theta)
G1 X-7.7238 Y124.8469 A666.3574 F1200 (x_theta)
G1 X-7.629 Y124.8469 A669.8949 F1200 (x_theta)
G1 X-7.4526 Y124.8469 A673.7837 F1200 (x_theta)
G1 X-6.4163 Y124.8469 A674.8452 F1200 (x_theta)
G1 X-4.5154 Y124.8469 A676.2842 F1200 (x_theta)
G1 X-3.7371 Y124.8469 A676.289 F1200 (x_theta)
G1 X-2.9586 Y124.8469 A676.2995 F1200 (x_theta)
G1 X-2.2832 Y124.8469 A675.3339 F1200 (x_theta)
G1 X-1.6029 Y124.8469 A674.359 F1200 (x_theta)
G1 X-1.0882 Y124.8469 A673.2566 F1200 (x_theta)
G1 X-0.591 Y124.8469 A671.5323 F1200 (x_theta)
G1 X-0.183 Y124.8469 A669.427 F1200 (x_theta)
G1 X0.5546 Y124.8469 A665.4348 F1200 (x_theta)
G1 X1.0651 Y124.8469 A659.423 F1200 (x_theta)
G1 X1.3326 Y124.8469 A653.5125 F1200 (x_theta)
G1 X1.4033 Y124.8469 A646.8395 F1200 (x_theta)
G1 X1.3898 Y124.8469 A640.4089 F1200 (x_theta)
G1 X1.2686 Y124.8469 A633.6047 F1200 (x_theta)
G1 X1.0933 Y124.8469 A627.6888 F1200 (x_theta)
G1 X0.7206 Y124.8469 A621.072 F1200 (x_theta)
G1 X0.3921 Y124.8469 A615.7145 F1200 (x_theta)
G1 X0.0849 Y124.8469 A610.9908 F1200 (x_theta)
G1 X-0.2589 Y124.8469 A607.1816 F1200 (x_theta)
G1 X0.8042 Y124.8469 A606.9897 F1200 (x_theta)
G1 X1.6483 Y124.8469 A607.0187 F1200 (x_theta)
G1 X3.3711 Y124.8469 A607.7136 F1200 (x_theta)
G1 X5 Y124.8469 A608.0686 F1200 (x_theta)
G1 X7.8221 Y124.8469 A609.2586 F1200 (x_theta)
G1 X9.1388 Y124.8469 A609.505 F1200 (x_theta)
G1 X10.3319 Y124.8469 A610.3503 F1200 (x_theta)
G1 X11.6222 Y124.8469 A611.5825 F1200 (x_theta)
G1 X12.8525 Y124.8469 A613.1341 F1200 (x_theta)
G1 X14.022 Y124.8469 A615.0132 F1200 (x_theta)
G1 X15.2882 Y124.8469 A617.3016 F1200 (x_theta)
G1 X16.4934 Y124.8469 A619.9319 F1200 (x_theta)
G1 X17.7941 Y124.8469 A622.9886 F1200 (x_theta)
G1 X20.9726 Y124.8469 A631.6722 F1200 (x_theta)
G1 X22.5945 Y124.8469 A636.8616 F1200 (x_theta)
G1 X24.2833 Y124.8469 A628.4281 F1200 (x_theta)
G1 X25.579 Y124.8469 A618.8481 F1200 (x_theta)
G1 X26.5148 Y124.8469 A608.8946 F1200 (x_theta)
G1 X26.9585 Y124.8469 A604.3878 F1200 (x_theta)
G1 X27.3503 Y124.8469 A599.0963 F1200 (x_theta)
G1 X27.618 Y124.8469 A594.4487 F1200 (x_theta)
G1 X27.8214 Y124.8469 A590.1206 F1200 (x_theta)
G1 X28.0633 Y124.8469 A586.5232 F1200 (x_theta)
G1 X28.144 Y124.8469 A582.8593 F1200 (x_theta)
G1 X28.2671 Y124.8469 A579.9389 F1200 (x_theta)
G1 X28.4945 Y124.8469 A576.2931 F1200 (x_theta)
G1 X28.5528 Y124.8469 A574.8224 F1200 (x_theta)
G1 X29.5286 Y124.8469 A576.9424 F1200 (x_theta)
G1 X30.5061 Y124.8469 A579.094 F1200 (x_theta)
G1 X31.3812 Y124.8469 A580.8608 F1200 (x_theta)
G1 X32.2037 Y124.8469 A583.0098 F1200 (x_theta)
G1 X33.6939 Y124.8469 A587.3324 F1200 (x_theta)
G1 X35.1779 Y124.8469 A592.902 F1200 (x_theta)
G1 X36.5043 Y124.8469 A598.5084 F1200 (x_theta)
G1 X37.9771 Y124.8469 A605.4597 F1200 (x_theta)
G1 X38.7349 Y124.8469 A609.3951 F1200 (x_theta)
G1 X39.6496 Y124.8469 A613.4557 F1200 (x_theta)
G1 X40.4492 Y124.8469 A618.292 F1200 (x_theta)
G1 X41.4045 Y124.8469 A623.2799 F1200 (x_theta)
G1 X41.911 Y124.8469 A625.617 F1200 (x_theta)
G1 X42.2568 Y124.8469 A627.8581 F1200 (x_theta)
G1 X42.6606 Y124.8469 A629.7456 F1200 (x_theta)
G1 X43.0221 Y124.8469 A630.8044 F1200 (x_theta)
G1 X43.6866 Y124.8469 A633.3026 F1200 (x_theta)
G1 X44.2668 Y124.8469 A634.1339 F1200 (x_theta)
G1 X44.6451 Y124.8469 A634.0051 F1200 (x_theta)
G1 X44.9646 Y124.8469 A634.2428 F1200 (x_theta)
G1 X45.6351 Y124.8469 A632.2704 F1200 (x_theta)
G1 X45.9255 Y124.8469 A630.4162 F1200 (x_theta)
G1 X46.3735 Y124.8469 A628.6662 F1200 (x_theta)
G1 X46.7745 Y124.8469 A626.0354 F1200 (x_theta)
G1 X47.3881 Y124.8469 A623.1068 F1200 (x_theta)
G1 X48.0753 Y124.8469 A615.9694 F1200 (x_theta)
G1 X48.5287 Y124.8469 A609.0224 F1200 (x_theta)
G1 X48.701 Y124.8469 A600.149 F1200 (x_theta)
G1 X48.7969 Y124.8469 A591.6075 F1200 (x_theta)
G1 X48.8125 Y124.8469 A573.8821 F1200 (x_theta)
G1 X48.7314 Y124.8469 A564.7232 F1200 (x_theta)
G1 X48.5808 Y124.8469 A555.9544 F1200 (x_theta)
G1 X49.8594 Y124.8469 A555.6915 F1200 (x_theta)
G1 X51.0027 Y124.8469 A556.7521 F1200 (x_theta)
G1 X52.2564 Y124.8469 A558.3016 F1200 (x_theta)
G1 X53.4857 Y124.8469 A561.699 F1200 (x_theta)
G1 X54.8265 Y124.8469 A565.6472 F1200 (x_theta)
G1 X56.1232 Y124.8469 A570.1236 F1200 (x_theta)
G1 X57.3766 Y124.8469 A575.1502 F1200 (x_theta)
G1 X58.694 Y124.8469 A581.2417 F1200 (x_theta)
G1 X59.9643 Y124.8469 A587.9116 F1200 (x_theta)
G1 X61.1231 Y124.8469 A594.1716 F1200 (x_theta)
G1 X62.2335 Y124.8469 A600.997 F1200 (x_theta)
G1 X63.2318 Y124.8469 A607.3857 F1200 (x_theta)
G1 X64.2283 Y124.8469 A613.8642 F1200 (x_theta)
G1 X65.0621 Y124.8469 A620.3181 F1200 (x_theta)
G1 X65.8351 Y124.8469 A625.8183 F1200 (x_theta)
G1 X66.4954 Y124.8469 A630.7928 F1200 (x_theta)
G1 X67.0373 Y124.8469 A632.2464 F1200 (x_theta)
G1 X67.3604 Y124.8469 A632.5321 F1200 (x_theta)
G1 X67.6264 Y124.8469 A631.7735 F1200 (x_theta)
G1 X68.1503 Y124.8469 A628.7338 F1200 (x_theta)
G1 X68.5674 Y124.8469 A626.5792 F1200 (x_theta)
G1 X68.8211 Y124.8469 A624.2678 F1200 (x_theta)
G1 X69.3581 Y124.8469 A617.5901 F1200 (x_theta)
G1 X69.9258 Y124.8469 A610.3235 F1200 (x_theta)
G1 X70.4067 Y124.8469 A601.8503 F1200 (x_theta)
G1 X70.8814 Y124.8469 A591.1549 F1200 (x_theta)
G1 X71.5958 Y124.8469 A570.7524 F1200 (x_theta)
G1 X71.9228 Y124.8469 A560.0542 F1200 (x_theta)
G1 X72.0239 Y124.8469 A549.7199 F1200 (x_theta)
G1 X72.307 Y124.8469 A530.959 F1200 (x_theta)
G1 X72.307 Y124.8015 A524.031 F1200 (y_theta)
G1 X72.307 Y124.6009 A522.1426 F1200 (y_theta)
G1 X72.4337 Y124.6009 A519.8713 F1200 (x_theta)
G1 X74.6531 Y124.6009 A522.8564 F1200 (x_theta)
G1 X76.8678 Y124.6009 A534.7625 F1200 (x_theta)
G1 X79.1782 Y124.6009 A548.3422 F1200 (x_theta)
G1 X81.1828 Y124.6009 A562.4023 F1200 (x_theta)
G1 X83.0655 Y124.6009 A576.2945 F1200 (x_theta)
G1 X84.9089 Y124.6009 A591.2313 F1200 (x_theta)
G1 X86.5041 Y124.6009 A605.2099 F1200 (x_theta)
G1 X88.0104 Y124.6009 A620.7264 F1200 (x_theta)
G1 X89.5459 Y124.6009 A636.0298 F1200 (x_theta)
G1 X89.5459 Y128.9716 A628.6541 F1200 (y_theta)
G1 X89.5459 Y133.2847 A620.9764 F1200 (y_theta)
G1 X91.6911 Y133.2847 A650.4641 F1200 (x_theta)
G1 X91.6911 Y137.3614 A643.477 F1200 (y_theta)
G1 X92.1222 Y137.3614 A640.7596 F1200 (x_theta)
G1 X92.4935 Y137.3614 A636.612 F1200 (x_theta)
G1 X92.8006 Y137.3614 A631.0095 F1200 (x_theta)
G1 X92.9375 Y137.3614 A625.1619 F1200 (x_theta)
G1 X93.0541 Y137.3614 A617.235 F1200 (x_theta)
G1 X93.1088 Y137.3614 A609.8708 F1200 (x_theta)
G1 X93.1607 Y137.3614 A592.916 F1200 (x_theta)
G1 X93.1607 Y137.1316 A577.1322 F1200 (y_theta)
G1 X93.1607 Y136.7115 A563.6102 F1200 (y_theta)
G1 X93.1607 Y136.429 A557.8209 F1200 (y_theta)
G1 X93.1607 Y136.2728 A552.2518 F1200 (y_theta)
G1 X93.1607 Y135.8832 A548.1106 F1200 (y_theta)
G1 X93.1761 Y135.8832 A541.7608 F1200 (x_theta)
G1 X94.1768 Y135.8832 A543.228 F1200 (x_theta)
G1 X95.1446 Y135.8832 A545.4583 F1200 (x_theta)
G1 X95.9612 Y135.8832 A547.7287 F1200 (x_theta)
G1 X96.9003 Y135.8832 A550.8126 F1200 (x_theta)
G1 X97.6868 Y135.8832 A553.9342 F1200 (x_theta)
G1 X98.3209 Y135.8832 A557.074 F1200 (x_theta)
G1 X99.9209 Y135.8832 A566.684 F1200 (x_theta)
G1 X101.3711 Y135.8832 A576.5858 F1200 (x_theta)
G1 X102.9134 Y135.8832 A588.4812 F1200 (x_theta)
G1 X104.7065 Y135.8832 A602.6491 F1200 (x_theta)
G1 X105.7708 Y135.8832 A611.7463 F1200 (x_theta)
G1 X106.8388 Y135.8832 A621.0989 F1200 (x_theta)
G1 X106.8388 Y135.0868 A609.9925 F1200 (y_theta)
G1 X106.8388 Y134.1712 A600.9378 F1200 (y_theta)
G1 X106.8388 Y133.2439 A591.1213 F1200 (y_theta)
G1 X106.8388 Y132.2145 A583.1907 F1200 (y_theta)
G1 X106.8388 Y129.7776 A572.2214 F1200 (y_theta)
G1 X106.8388 Y126.9954 A565.8411 F1200 (y_theta)
G1 X106.8388 Y124.2747 A561.3038 F1200 (y_theta)
G1 X106.8388 Y121.5213 A556.2657 F1200 (y_theta)
G1 X106.8388 Y118.5401 A555.4605 F1200 (y_theta)
G1 X106.8388 Y115.7089 A552.9869 F1200 (y_theta)
G1 X106.8388 Y113.1576 A550.7962 F1200 (y_theta)
G1 X106.8388 Y110.4392 A548.7626 F1200 (y_theta)
G1 X106.8388 Y107.9861 A544.5824 F1200 (y_theta)
G1 X106.8388 Y105.9211 A538.5056 F1200 (y_theta)
G1 X106.8388 Y103.6704 A532.8099 F1200 (y_theta)
G1 X106.8388 Y102.8078 A528.6526 F1200 (y_theta)
G1 X106.8388 Y101.9325 A524.6192 F1200 (y_theta)
G1 X106.8388 Y101.0269 A520.0057 F1200 (y_theta)
G1 X106.8388 Y100.3591 A513.4345 F1200 (y_theta)
G1 X106.8388 Y99.5329 A507.7489 F1200 (y_theta)
G1 X106.8388 Y98.9589 A500.7855 F1200 (y_theta)
G1 X106.8388 Y98.102 A503.7922 F1200 (y_theta)
G1 X106.8388 Y97.4056 A506.6911 F1200 (y_theta)
G1 X106.8388 Y96.6031 A510.8593 F1200 (y_theta)
G1 X106.8388 Y95.8504 A516.2206 F1200 (y_theta)
G1 X106.8388 Y94.3492 A526.7493 F1200 (y_theta)
G1 X105.8585 Y94.3492 A524.3141 F1200 (x_theta)
G1 X105.0895 Y94.3492 A523.6334 F1200 (x_theta)
G1 X103.26 Y94.3492 A522.3959 F1200 (x_theta)
G1 X101.3132 Y94.3492 A522.079 F1200 (x_theta)
G1 X99.5763 Y94.3492 A524.1266 F1200 (x_theta)
G1 X97.8087 Y94.3492 A525.2841 F1200 (x_theta)
G1 X94.1028 Y94.3492 A527.464 F1200 (x_theta)
G1 X92.1455 Y94.3492 A527.0568 F1200 (x_theta)
G1 X90.3324 Y94.3492 A525.9529 F1200 (x_theta)
G1 X89.4287 Y94.3492 A525.4162 F1200 (x_theta)
G1 X88.52 Y94.3492 A524.2213 F1200 (x_theta)
G1 X87.6082 Y94.3492 A522.3688 F1200 (x_theta)
G1 X86.6948 Y94.3492 A519.8882 F1200 (x_theta)
G1 X85.6277 Y94.3492 A516.1593 F1200 (x_theta)
G1 X84.7191 Y94.3492 A513.1177 F1200 (x_theta)
G1 X83.8103 Y94.3492 A509.4783 F1200 (x_theta)
G1 X83.8103 Y93.573 A512.2127 F1200 (y_theta)
G1 X81.2761 Y93.573 A506.0158 F1200 (x_theta)
G1 X78.916 Y93.573 A500.0594 F1200 (x_theta)
G1 X76.8732 Y93.573 A495.4498 F1200 (x_theta)
G1 X74.8433 Y93.573 A489.8 F1200 (x_theta)
G1 X72.9731 Y93.573 A484.2631 F1200 (x_theta)
G1 X70.9742 Y93.573 A477.821 F1200 (x_theta)
G1 X69.273 Y93.573 A471.965 F1200 (x_theta)
G1 X67.5833 Y93.573 A465.6916 F1200 (x_theta)
G1 X66.0388 Y93.573 A458.8848 F1200 (x_theta)
G1 X64.3618 Y93.573 A451.2153 F1200 (x_theta)
G1 X64.3618 Y91.8293 A454.46 F1200 (y_theta)
G1 X64.3618 Y89.9325 A458.2756 F1200 (y_theta)
G1 X64.3618 Y88.2081 A460.2374 F1200 (y_theta)
G1 X64.3618 Y86.4787 A461.0973 F1200 (y_theta)
G1 X64.3618 Y84.5826 A462.0607 F1200 (y_theta)
G1 X64.3618 Y82.8107 A460.3796 F1200 (y_theta)
G1 X64.7484 Y82.8107 A458.8906 F1200 (x_theta)
G1 X65.0191 Y82.8107 A458.6538 F1200 (x_theta)
G1 X65.4462 Y82.8107 A459.4351 F1200 (x_theta)
G1 X65.8631 Y82.8107 A459.6522 F1200 (x_theta)
G1 X66.7427 Y82.8107 A462.3978 F1200 (x_theta)
G1 X67.3435 Y82.8107 A464.8289 F1200 (x_theta)
G1 X68.97 Y82.8107 A470.0167 F1200 (x_theta)
G1 X70.7491 Y82.8107 A475.249 F1200 (x_theta)
G1 X72.5436 Y82.8107 A480.633 F1200 (x_theta)
G1 X74.4948 Y82.8107 A486.094 F1200 (x_theta)
G1 X76.2986 Y82.8107 A490.5966 F1200 (x_theta)
G1 X79.9278 Y82.8107 A498.7918 F1200 (x_theta)
G1 X81.8954 Y82.8107 A502.4019 F1200 (x_theta)
G1 X81.8954 Y81.5457 A503.4189 F1200 (y_theta)
G1 X81.8954 Y80.6823 A501.6446 F1200 (y_theta)
G1 X81.8954 Y79.6888 A500.9909 F1200 (y_theta)
G1 X81.8954 Y78.817 A499.2776 F1200 (y_theta)
G1 X81.8954 Y78.0648 A496.5231 F1200 (y_theta)
G1 X81.8954 Y77.2849 A493.3297 F1200 (y_theta)
G1 X81.8954 Y76.7552 A488.5739 F1200 (y_theta)
G1 X81.8954 Y76.2112 A483.9014 F1200 (y_theta)
G1 X81.8954 Y72.6742 A500.1873 F1200 (y_theta)
G1 X81.8954 Y69.1785 A515.6896 F1200 (y_theta)
G1 X81.8954 Y67.445 A523.1694 F1200 (y_theta)
G1 X81.8954 Y61.9185 A542.7303 F1200 (y_theta)
G1 X81.8954 Y60.2815 A547.2601 F1200 (y_theta)
G1 X81.8954 Y58.6153 A550.7794 F1200 (y_theta)
G1 X81.8954 Y57.0705 A553.3262 F1200 (y_theta)
G1 X81.8954 Y55.642 A554.95 F1200 (y_theta)
G1 X81.8954 Y54.309 A555.2302 F1200 (y_theta)
G1 X81.8954 Y53.6863 A554.7233 F1200 (y_theta)
G1 X81.8954 Y53.194 A553.7991 F1200 (y_theta)
G1 X81.8954 Y52.5498 A552.8713 F1200 (y_theta)
G1 X81.8954 Y51.8825 A551.5235 F1200 (y_theta)
G1 X81.8954 Y51.4703 A549.3572 F1200 (y_theta)
G1 X81.8954 Y51.032 A546.7932 F1200 (y_theta)
G1 X82.8603 Y51.032 A547.489 F1200 (x_theta)
G1 X82.8603 Y51.9645 A542.4341 F1200 (y_theta)
G1 X82.8603 Y52.8966 A537.3323 F1200 (y_theta)
G1 X82.8603 Y53.9809 A532.1732 F1200 (y_theta)
G1 X82.8603 Y56.1797 A522.0767 F1200 (y_theta)
G1 X82.8603 Y58.6467 A510.7797 F1200 (y_theta)
G1 X82.8603 Y60.963 A499.1916 F1200 (y_theta)
G1 X84.102 Y60.963 A500.6134 F1200 (x_theta)
G1 X84.102 Y62.0189 A494.5191 F1200 (y_theta)
G1 X85.3362 Y62.0189 A495.8988 F1200 (x_theta)
G1 X86.3504 Y62.0189 A496.0186 F1200 (x_theta)
G1 X87.1378 Y62.0189 A494.8297 F1200 (x_theta)
G1 X87.6471 Y62.0189 A491.594 F1200 (x_theta)
G1 X87.6471 Y61.969 A482.4226 F1200 (y_theta)
G1 X87.6471 Y61.9445 A472.0116 F1200 (y_theta)
G1 X87.9707 Y61.9445 A463.0644 F1200 (x_theta)
G1 X88.1472 Y61.9445 A458.0491 F1200 (x_theta)
G1 X88.5472 Y61.9445 A454.2877 F1200 (x_theta)
G1 X89.0513 Y61.9445 A451.9636 F1200 (x_theta)
G1 X89.8503 Y61.9445 A449.9986 F1200 (x_theta)
G1 X90.8269 Y61.9445 A450.2922 F1200 (x_theta)
G1 X91.8064 Y61.9445 A450.5989 F1200 (x_theta)
G1 X91.8064 Y62.7544 A444.858 F1200 (y_theta)
G1 X91.8064 Y63.7722 A439.316 F1200 (y_theta)
G1 X91.8064 Y64.9576 A433.5611 F1200 (y_theta)
G1 X91.8064 Y66.5247 A427.7952 F1200 (y_theta)
G1 X91.8064 Y66.1 A427.3179 F1200 (y_theta)
G1 X91.8064 Y65.6753 A426.8482 F1200 (y_theta)
G1 X91.8064 Y64.7596 A428.5551 F1200 (y_theta)
G1 X91.8064 Y64.0124 A430.0965 F1200 (y_theta)
G1 X91.8064 Y63.2227 A431.2279 F1200 (y_theta)
G1 X91.8064 Y62.4332 A432.3497 F1200 (y_theta)
G1 X91.8064 Y62.1763 A431.7295 F1200 (y_theta)
G1 X91.8064 Y61.7519 A431.254 F1200 (y_theta)
G1 X91.8064 Y61.4483 A430.2605 F1200 (y_theta)
G1 X91.8064 Y60.8458 A425.3695 F1200 (y_theta)
G1 X91.8064 Y60.588 A421.8711 F1200 (y_theta)
G1 X91.8064 Y60.2774 A420.9212 F1200 (y_theta)
G1 X91.8064 Y59.7271 A421.0246 F1200 (y_theta)
G1 X91.8064 Y58.9859 A422.5367 F1200 (y_theta)
G1 X91.8064 Y58.1278 A424.5381 F1200 (y_theta)
G1 X91.8064 Y57.0826 A427.8984 F1200 (y_theta)
G1 X91.8064 Y55.8019 A432.213 F1200 (y_theta)
G1 X91.8064 Y54.6426 A435.9604 F1200 (y_theta)
G1 X91.8064 Y53.4623 A440.8601 F1200 (y_theta)
G1 X91.8064 Y50.7817 A450.6604 F1200 (y_theta)
G1 X91.8064 Y47.9225 A461.4014 F1200 (y_theta)
G1 X91.8064 Y45.3089 A470.8873 F1200 (y_theta)
G1 X91.8064 Y44.2159 A474.4728 F1200 (y_theta)
G1 X91.8064 Y42.8929 A478.86 F1200 (y_theta)
G1 X91.8064 Y43.6393 A469.8465 F1200 (y_theta)
G1 X92.9689 Y43.6393 A467.642 F1200 (x_theta)
G1 X92.9689 Y45.3222 A451.5923 F1200 (y_theta)
G1 X92.9689 Y46.4052 A444.0742 F1200 (y_theta)
G1 X92.9689 Y47.5963 A436.0077 F1200 (y_theta)
G1 X92.9689 Y48.8808 A428.5215 F1200 (y_theta)
G1 X92.9689 Y50.0475 A421.4174 F1200 (y_theta)
G1 X92.9689 Y51.4289 A414.4061 F1200 (y_theta)
G1 X92.9689 Y52.9242 A406.7839 F1200 (y_theta)
G1 X92.9689 Y55.7871 A394.0225 F1200 (y_theta)
G1 X92.9689 Y57.2186 A388.0632 F1200 (y_theta)
G1 X92.9689 Y58.9396 A381.2513 F1200 (y_theta)
G1 X92.9689 Y60.3193 A375.9265 F1200 (y_theta)
G1 X92.9689 Y61.7586 A370.8391 F1200 (y_theta)
G1 X92.9689 Y62.5725 A364.4525 F1200 (y_theta)
G1 X94.0346 Y62.5725 A365.068 F1200 (x_theta)
G1 X94.0346 Y63.546 A358.3829 F1200 (y_theta)
G1 X94.0346 Y64.2878 A352.788 F1200 (y_theta)
G1 X94.0346 Y65.2616 A347.2104 F1200 (y_theta)
G1 X94.0346 Y66.1795 A342.4845 F1200 (y_theta)
G1 X94.0346 Y67.3363 A337.7374 F1200 (y_theta)
G1 X94.0346 Y68.0346 A335.3469 F1200 (y_theta)
G1 X94.0346 Y68.8493 A332.326 F1200 (y_theta)
G1 X94.0346 Y70.593 A324.2702 F1200 (y_theta)
G1 X94.0346 Y70.4593 A322.3655 F1200 (y_theta)
G1 X94.0346 Y70.2622 A320.1594 F1200 (y_theta)
G1 X94.0346 Y70.2289 A316.3969 F1200 (y_theta)
G1 X94.0346 Y70.0756 A313.2787 F1200 (y_theta)
G1 X94.0346 Y69.854 A309.8769 F1200 (y_theta)
G1 X94.0346 Y69.6434 A307.7317 F1200 (y_theta)
G1 X94.0346 Y69.1388 A306.5594 F1200 (y_theta)
G1 X94.0346 Y68.895 A306.5897 F1200 (y_theta)
G1 X94.0346 Y68.5849 A306.3188 F1200 (y_theta)
G1 X94.0346 Y57.6242 A333.0961 F1200 (y_theta)
G1 X95.7156 Y57.6242 A333.8914 F1200 (x_theta)
G1 X95.7156 Y58.8084 A324.5982 F1200 (y_theta)
G1 X95.7156 Y60.1172 A315.7618 F1200 (y_theta)
G1 X95.7156 Y61.7031 A305.904 F1200 (y_theta)
G1 X95.7156 Y63.2461 A296.7317 F1200 (y_theta)
G1 X95.7156 Y64.9276 A287.9284 F1200 (y_theta)
G1 X95.7156 Y66.6816 A279.1952 F1200 (y_theta)
G1 X95.7156 Y68.4766 A271.4228 F1200 (y_theta)
G1 X95.7156 Y70.1699 A264.0958 F1200 (y_theta)
G1 X95.7156 Y71.9078 A257.7682 F1200 (y_theta)
G1 X95.7156 Y73.6191 A252.2132 F1200 (y_theta)
G1 X95.7156 Y75.3046 A247.4429 F1200 (y_theta)
G1 X95.7156 Y76.1136 A245.9642 F1200 (y_theta)
G1 X95.7156 Y77.5164 A244.3623 F1200 (y_theta)
G1 X95.7156 Y78.1078 A244.2573 F1200 (y_theta)
G1 X95.7156 Y78.7723 A244.4143 F1200 (y_theta)
G1 X95.7156 Y79.2507 A245.026 F1200 (y_theta)
G1 X95.7156 Y80.197 A248.5429 F1200 (y_theta)
G1 X95.7156 Y80.6524 A245.6251 F1200 (y_theta)
G1 X95.7156 Y81.407 A241.4911 F1200 (y_theta)
G1 X95.7156 Y82.1235 A238.3253 F1200 (y_theta)
G1 X95.7156 Y83.2593 A233.1191 F1200 (y_theta)
G1 X95.7156 Y84.2043 A230.6422 F1200 (y_theta)
G1 X95.7156 Y85.1516 A228.128 F1200 (y_theta)
G1 X95.7156 Y85.9856 A226.3474 F1200 (y_theta)
G1 X95.7156 Y86.473 A226.9014 F1200 (y_theta)
G1 X95.7156 Y87.2544 A228.5478 F1200 (y_theta)
G1 X95.7156 Y87.7952 A231.8196 F1200 (y_theta)
G1 X95.7156 Y88.4006 A235.4288 F1200 (y_theta)
G1 X95.7156 Y89.1385 A239.6844 F1200 (y_theta)
G1 X95.7156 Y89.6021 A244.2461 F1200 (y_theta)
G1 X95.7156 Y90.3674 A247.5645 F1200 (y_theta)
G1 X95.7156 Y91.768 A249.7444 F1200 (y_theta)
G1 X95.7156 Y92.3568 A249.656 F1200 (y_theta)
G1 X96.7395 Y92.3568 A245.2828 F1200 (x_theta)
G1 X97.3031 Y92.3568 A239.652 F1200 (x_theta)
G1 X98.7398 Y92.3568 A229.6745 F1200 (x_theta)
G1 X99.3266 Y92.3568 A224.6294 F1200 (x_theta)
G1 X99.9442 Y92.3568 A218.7477 F1200 (x_theta)
G1 X100.6321 Y92.3568 A213.7565 F1200 (x_theta)
G1 X101.4875 Y92.3568 A208.2117 F1200 (x_theta)
G1 X101.4875 Y93.0083 A206.7172 F1200 (y_theta)
G1 X101.4875 Y93.6607 A205.1991 F1200 (y_theta)
G1 X101.4875 Y94.0863 A205.399 F1200 (y_theta)
G1 X101.4875 Y94.4333 A205.3302 F1200 (y_theta)
G1 X101.4875 Y95.0879 A208.9103 F1200 (y_theta)
G1 X101.4875 Y95.6927 A213.7305 F1200 (y_theta)
G1 X101.4875 Y96.574 A213.0564 F1200 (y_theta)
G1 X101.4875 Y97.4573 A212.3704 F1200 (y_theta)
G1 X101.4875 Y97.9523 A212.908 F1200 (y_theta)
G1 X101.4875 Y98.4458 A213.4502 F1200 (y_theta)
G1 X101.4875 Y98.8186 A214.9195 F1200 (y_theta)
G1 X101.4875 Y99.0681 A217.3248 F1200 (y_theta)
G1 X101.4875 Y99.4606 A220.3606 F1200 (y_theta)
G1 X101.4875 Y99.7748 A223.1279 F1200 (y_theta)
G1 X102.9133 Y99.7748 A226.7926 F1200 (x_theta)
G1 X104.1262 Y99.7748 A229.1221 F1200 (x_theta)
G1 X105.2016 Y99.7748 A231.137 F1200 (x_theta)
G1 X106.2812 Y99.7748 A233.2013 F1200 (x_theta)
G1 X108.2195 Y99.7748 A235.9334 F1200 (x_theta)
G1 X109.6777 Y99.7748 A235.5162 F1200 (x_theta)
G1 X110.7298 Y99.7748 A232.957 F1200 (x_theta)
G1 X111.5732 Y99.7748 A230.6749 F1200 (x_theta)
G1 X112.1495 Y99.7748 A226.5922 F1200 (x_theta)
G1 X112.8599 Y99.7748 A222.8119 F1200 (x_theta)
G1 X113.103 Y99.7748 A217.6178 F1200 (x_theta)
G1 X113.2948 Y99.7748 A213.2155 F1200 (x_theta)
G1 X113.3281 Y99.7748 A208.3207 F1200 (x_theta)
G1 X113.5458 Y99.7748 A206.9141 F1200 (x_theta)
G1 X113.6131 Y99.7748 A205.0832 F1200 (x_theta)
G1 X113.7121 Y99.7748 A202.3275 F1200 (x_theta)
G1 X114.0722 Y99.7748 A201.2839 F1200 (x_theta)
G1 X114.3993 Y99.7748 A201.1548 F1200 (x_theta)
G1 X114.3993 Y100.2689 A197.6768 F1200 (y_theta)
G1 X114.3993 Y101.4836 A192.6864 F1200 (y_theta)
G1 X114.3993 Y103.0581 A187.3993 F1200 (y_theta)
G1 X114.3993 Y104.7273 A182.1698 F1200 (y_theta)
G1 X114.3993 Y106.2788 A179.0678 F1200 (y_theta)
G1 X114.3993 Y108.0878 A176.6638 F1200 (y_theta)
G1 X114.3993 Y109.8225 A173.8534 F1200 (y_theta)
G1 X114.3993 Y113.2592 A170.6609 F1200 (y_theta)
G1 X114.3993 Y114.9867 A168.9263 F1200 (y_theta)
G1 X114.3993 Y116.4824 A169.5367 F1200 (y_theta)
G1 X114.3993 Y117.8148 A169.5562 F1200 (y_theta)
G1 X114.3993 Y119.1897 A167.9871 F1200 (y_theta)
G1 X114.3993 Y120.1937 A170.2366 F1200 (y_theta)
G1 X114.3993 Y121.0325 A171.9043 F1200 (y_theta)
G1 X114.3993 Y121.6597 A174.6112 F1200 (y_theta)
G1 X114.3993 Y121.6868 A176.6266 F1200 (y_theta)
G1 X114.8108 Y121.6868 A168.5101 F1200 (x_theta)
G1 X115.0647 Y121.6868 A159.8338 F1200 (x_theta)
G1 X115.0778 Y121.6868 A149.2543 F1200 (x_theta)
G1 X115.0778 Y121.6371 A140.2703 F1200 (y_theta)
G1 X115.0778 Y121.5682 A131.4314 F1200 (y_theta)
G1 X115.0778 Y121.3599 A124.0505 F1200 (y_theta)
G1 X115.0778 Y121.2225 A117.0415 F1200 (y_theta)
G1 X115.0778 Y120.9541 A111.4727 F1200 (y_theta)
G1 X115.0778 Y120.8561 A106.4129 F1200 (y_theta)
G1 X115.0901 Y120.8561 A100.2282 F1200 (x_theta)
G1 X115.0901 Y120.7203 A96.7957 F1200 (y_theta)
G1 X115.3614 Y120.7203 A95.9921 F1200 (x_theta)
G1 X115.7306 Y120.7203 A96.5948 F1200 (x_theta)
G1 X116.3236 Y120.7203 A98.8428 F1200 (x_theta)
G1 X116.3236 Y121.5492 A94.2206 F1200 (y_theta)
G1 X116.3236 Y122.1527 A92.2424 F1200 (y_theta)
G1 X116.3236 Y122.6641 A90.0407 F1200 (y_theta)
G1 X116.3236 Y123.8074 A90.6714 F1200 (y_theta)
G1 X116.3236 Y125.0696 A89.8856 F1200 (y_theta)
G1 X116.3236 Y126.5811 A86.0819 F1200 (y_theta)
G1 X116.3236 Y128.1093 A82.0476 F1200 (y_theta)
G1 X116.3236 Y131.4803 A69.9353 F1200 (y_theta)
G1 X116.3236 Y135.0069 A54.1658 F1200 (y_theta)
G1 X116.3236 Y138.7398 A38.1079 F1200 (y_theta)
G1 X116.3236 Y140.3666 A30.9586 F1200 (y_theta)
G1 X116.3236 Y143.5996 A19.6121 F1200 (y_theta)
G1 X116.3236 Y145.0882 A15.5728 F1200 (y_theta)
G1 X116.3236 Y146.2279 A16.1949 F1200 (y_theta)
G1 X116.3236 Y147.1697 A19.4566 F1200 (y_theta)
G1 X117.1438 Y147.1697 A18.3217 F1200 (x_theta)
G1 X117.9606 Y147.1697 A17.1336 F1200 (x_theta)
G1 X118.7624 Y147.1697 A12.8811 F1200 (x_theta)
G1 X119.6646 Y147.1697 A8.4888 F1200 (x_theta)
G1 X121.3021 Y147.1697 A-4.1129 F1200 (x_theta)
G1 X122.8427 Y147.1697 A-16.0905 F1200 (x_theta)
G1 X123.9365 Y147.1697 A-30.5513 F1200 (x_theta)
G1 X124.5144 Y147.1697 A-34.5662 F1200 (x_theta)
G1 X125.0839 Y147.1697 A-38.7229 F1200 (x_theta)
G1 X127.0906 Y147.1697 A-10.2996 F1200 (x_theta)
G1 X128.9528 Y147.1697 A16.2651 F1200 (x_theta)
G1 X128.9528 Y149.4022 A3.3754 F1200 (y_theta)
G1 X128.9528 Y151.6251 A-11.4781 F1200 (y_theta)
G1 X130.3995 Y151.6251 A14.2372 F1200 (x_theta)
G1 X130.3995 Y153.2265 A8.5487 F1200 (y_theta)
G1 X130.3995 Y154.9476 A-1.4536 F1200 (y_theta)
G1 X130.3995 Y156.5415 A-9.1183 F1200 (y_theta)
G1 X130.3995 Y157.9769 A-13.8214 F1200 (y_theta)
G1 X130.3995 Y159.3365 A-19.1451 F1200 (y_theta)
G1 X130.3995 Y161.2951 A-21.5297 F1200 (y_theta)
G1 X130.3995 Y162.9852 A-18.8293 F1200 (y_theta)
G1 X130.3995 Y164.3987 A-14.9994 F1200 (y_theta)
G1 X131.4655 Y164.3987 A-21.7334 F1200 (x_theta)
G1 X132.4399 Y164.3987 A-33.185 F1200 (x_theta)
G1 X133.4088 Y164.3987 A-49.883 F1200 (x_theta)
G1 X134.441 Y164.3987 A-67.9442 F1200 (x_theta)
G1 X136.4618 Y164.3987 A-108.5257 F1200 (x_theta)
G1 X137.3387 Y164.3987 A-130.9466 F1200 (x_theta)
G1 X137.8345 Y164.3987 A-141.7797 F1200 (x_theta)
G1 X138.2194 Y164.3987 A-152.4842 F1200 (x_theta)
G1 X139.483 Y164.3987 A-133.2044 F1200 (x_theta)
G1 X140.7139 Y164.3987 A-109.1316 F1200 (x_theta)
G1 X141.8812 Y164.3987 A-85.9935 F1200 (x_theta)
G1 X144.0062 Y164.3987 A-33.7352 F1200 (x_theta)
G1 X144.8384 Y164.3987 A-11.3544 F1200 (x_theta)
G1 X146.437 Y164.3987 A40.8721 F1200 (x_theta)
G1 X147.8547 Y164.3987 A87.5808 F1200 (x_theta)
G1 X147.8547 Y166.2448 A69.3182 F1200 (y_theta)
G1 X147.8547 Y167.8408 A51.6872 F1200 (y_theta)
G1 X147.8547 Y169.2211 A37.5224 F1200 (y_theta)
G1 X147.9751 Y169.2211 A-8.345 F1200 (x_theta)
G1 X148.0399 Y169.2211 A-51.7474 F1200 (x_theta)
G1 X148.1643 Y169.2211 A-101.2354 F1200 (x_theta)
G1 X148.3296 Y169.2211 A-149.3992 F1200 (x_theta)
G1 X148.5414 Y169.2211 A-196.6498 F1200 (x_theta)
G1 X148.8168 Y169.2211 A-248.7852 F1200 (x_theta)
G1 X148.9535 Y169.2211 A-303.6834 F1200 (x_theta)
G1 X149.0369 Y169.2211 A-357.1016 F1200 (x_theta)
G1 X149.1378 Y169.1832 A-415.4504 F1200 (xy_theta)
G1 X150.1244 Y166.9465 A-392.2942 F1200 (xy_theta)
G1 X150.1244 Y166.7675 A-448.6723 F1200 (y_theta)
G1 X150.1244 Y165.5044 A-530.4003 F1200 (y_theta)
G1 X150.1244 Y164.8078 A-576.913 F1200 (y_theta)
G1 X150.1244 Y162.7942 A-639.6308 F1200 (y_theta)
G1 X150.1244 Y160.2175 A-691.0992 F1200 (y_theta)
G1 X150.1244 Y157.2282 A-729.9602 F1200 (y_theta)
G1 X150.1244 Y154.074 A-757.935 F1200 (y_theta)
G1 X150.1244 Y150.7881 A-785.8774 F1200 (y_theta)
G1 X150.1244 Y147.5706 A-810.4958 F1200 (y_theta)
G1 X150.1244 Y144.3616 A-830.9479 F1200 (y_theta)
G1 X150.1244 Y141.1977 A-848.6173 F1200 (y_theta)
G1 X150.1244 Y138.1056 A-864.3968 F1200 (y_theta)
G1 X150.1244 Y138.3328 A-833.0538 F1200 (y_theta)
G1 X150.1244 Y138.3733 A-801.5271 F1200 (y_theta)
G1 X150.0643 Y138.3733 A-775.6894 F1200 (x_theta)
G1 X149.3139 Y138.3733 A-741.6695 F1200 (x_theta)
G1 X149.0601 Y138.3733 A-726.5995 F1200 (x_theta)
G1 X148.6685 Y138.3733 A-711.1866 F1200 (x_theta)
G1 X148.4801 Y138.3733 A-696.3094 F1200 (x_theta)
G1 X148.2631 Y138.3733 A-677.956 F1200 (x_theta)
G1 X148.0573 Y138.3733 A-661.9363 F1200 (x_theta)
G1 X148.0573 Y138.5038 A-640.0359 F1200 (y_theta)
G1 X148.0573 Y138.7904 A-616.6928 F1200 (y_theta)
G1 X148.0573 Y138.9097 A-604.7334 F1200 (y_theta)
G1 X148.0573 Y139.0587 A-591.3079 F1200 (y_theta)
G1 X148.0573 Y139.1856 A-577.6286 F1200 (y_theta)
G1 X148.0573 Y139.3724 A-560.9314 F1200 (y_theta)
G1 X148.0573 Y139.6068 A-546.761 F1200 (y_theta)
G1 X148.0573 Y139.8004 A-526.3877 F1200 (y_theta)
G1 X148.0573 Y140.0362 A-508.4383 F1200 (y_theta)
G1 X148.0573 Y140.2872 A-486.8436 F1200 (y_theta)
G1 X147.9832 Y140.2872 A-472.8285 F1200 (x_theta)
G1 X147.9832 Y140.8124 A-427.8601 F1200 (y_theta)
G1 X147.9832 Y141.0565 A-413.4215 F1200 (y_theta)
G1 X147.9832 Y141.408 A-398.025 F1200 (y_theta)
G1 X147.9832 Y142.0172 A-361.9056 F1200 (y_theta)
G1 X147.9832 Y142.7102 A-325.5223 F1200 (y_theta)
G1 X147.9832 Y143.2041 A-282.4082 F1200 (y_theta)
G1 X147.9832 Y143.6066 A-237.3282 F1200 (y_theta)
G1 X147.8792 Y143.6066 A-190.5251 F1200 (x_theta)
G1 X146.7902 Y144.0753 A-161.352 F1200 (xy_theta)
G1 X145.6432 Y144.0753 A-132.8768 F1200 (x_theta)
G1 X142.7728 Y144.0753 A-112.1986 F1200 (x_theta)
G1 X141.5396 Y144.0753 A-112.735 F1200 (x_theta)
G1 X140.0808 Y144.0753 A-115.4591 F1200 (x_theta)
G1 X138.7206 Y144.0753 A-118.3667 F1200 (x_theta)
G1 X137.2381 Y144.0753 A-123.4673 F1200 (x_theta)
G1 X135.6056 Y144.0753 A-133.186 F1200 (x_theta)
G1 X134.0045 Y144.0753 A-142.098 F1200 (x_theta)
G1 X132.2287 Y144.0753 A-151.8905 F1200 (x_theta)
G1 X130.4176 Y144.0753 A-165.7409 F1200 (x_theta)
G1 X128.5284 Y144.0753 A-180.3753 F1200 (x_theta)
G1 X128.5284 Y141.129 A-161.3541 F1200 (y_theta)
G1 X128.5284 Y136.4701 A-135.9343 F1200 (y_theta)
G1 X128.5284 Y134.3048 A-126.7876 F1200 (y_theta)
G1 X128.5284 Y130.737 A-118.0237 F1200 (y_theta)
G1 X128.5284 Y129.1065 A-115.7987 F1200 (y_theta)
G1 X128.5284 Y127.6044 A-113.9707 F1200 (y_theta)
G1 X128.5284 Y126.174 A-113.7224 F1200 (y_theta)
G1 X128.5284 Y124.9248 A-115.1569 F1200 (y_theta)
G1 X128.5284 Y123.6139 A-117.6839 F1200 (y_theta)
G1 X128.5284 Y121.4436 A-123.3118 F1200 (y_theta)
G1 X128.5284 Y120.4018 A-127.2748 F1200 (y_theta)
G1 X128.5284 Y118.4369 A-138.5106 F1200 (y_theta)
G1 X128.5284 Y114.8886 A-161.9402 F1200 (y_theta)
G1 X128.5284 Y112.8563 A-174.1683 F1200 (y_theta)
G1 X128.5284 Y111.0632 A-188.3144 F1200 (y_theta)
G1 X128.5284 Y108.7994 A-199.5069 F1200 (y_theta)
G1 X128.5284 Y106.618 A-211.2084 F1200 (y_theta)
G1 X128.5284 Y104.0103 A-221.1054 F1200 (y_theta)
G1 X128.5284 Y101.3295 A-229.2973 F1200 (y_theta)
G1 X128.5284 Y100.0942 A-230.4114 F1200 (y_theta)
G1 X128.5284 Y98.5871 A-229.0349 F1200 (y_theta)
G1 X128.5284 Y97.3202 A-228.3209 F1200 (y_theta)
G1 X128.5284 Y96.0402 A-226.75 F1200 (y_theta)
G1 X128.5284 Y94.7496 A-224.3634 F1200 (y_theta)
G1 X128.5284 Y93.5656 A-221.4762 F1200 (y_theta)
G1 X128.5284 Y90.9433 A-213.7242 F1200 (y_theta)
G1 X128.5284 Y89.8587 A-209.7065 F1200 (y_theta)
G1 X128.5284 Y88.6322 A-203.9036 F1200 (y_theta)
G1 X128.5284 Y87.5377 A-199.282 F1200 (y_theta)
G1 X128.5284 Y86.2989 A-192.9371 F1200 (y_theta)
G1 X128.5284 Y85.1923 A-187.7409 F1200 (y_theta)
G1 X128.5284 Y84.0558 A-181.1006 F1200 (y_theta)
G1 X128.5284 Y83.0344 A-174.7973 F1200 (y_theta)
G1 X128.5284 Y81.8793 A-167.6501 F1200 (y_theta)
G1 X128.5284 Y79.7738 A-153.3649 F1200 (y_theta)
G1 X128.5284 Y77.8652 A-139.1448 F1200 (y_theta)
G1 X128.5284 Y75.8972 A-123.8992 F1200 (y_theta)
G1 X128.5284 Y74.0872 A-107.9111 F1200 (y_theta)
G1 X128.5284 Y72.2474 A-92.3446 F1200 (y_theta)
G1 X128.5284 Y70.5476 A-75.9623 F1200 (y_theta)
G1 X128.5284 Y68.8412 A-60.653 F1200 (y_theta)
G1 X128.5284 Y67.4026 A-45.1696 F1200 (y_theta)
G1 X128.5284 Y66.613 A-37.5145 F1200 (y_theta)
G1 X128.5284 Y66.0997 A-31.3493 F1200 (y_theta)
G1 X128.5284 Y67.4011 A-24.9649 F1200 (y_theta)
G1 X128.5284 Y69.008 A-20.5295 F1200 (y_theta)
G1 X128.5284 Y70.6726 A-15.2528 F1200 (y_theta)
G1 X128.5284 Y72.3979 A-11.2321 F1200 (y_theta)
G1 X128.5284 Y75.7315 A-1.259 F1200 (y_theta)
G1 X128.5284 Y78.9812 A7.9141 F1200 (y_theta)
G1 X128.5284 Y78.5483 A22.5044 F1200 (y_theta)
G1 X128.5284 Y78.7028 A28.7534 F1200 (y_theta)
G1 X128.5284 Y78.7993 A35.8083 F1200 (y_theta)
G1 X128.5284 Y78.9475 A46.8732 F1200 (y_theta)
G1 X128.5284 Y78.9086 A58.7382 F1200 (y_theta)
G1 X128.5284 Y78.7338 A70.5932 F1200 (y_theta)
G1 X128.5284 Y78.2703 A83.0577 F1200 (y_theta)
G1 X128.5284 Y77.6746 A95.3838 F1200 (y_theta)
G1 X128.5284 Y76.9521 A107.5279 F1200 (y_theta)
G1 X128.5284 Y76.0444 A120.1777 F1200 (y_theta)
G1 X128.5284 Y74.917 A132.4054 F1200 (y_theta)
G1 X128.5284 Y73.2133 A141.9755 F1200 (y_theta)
G1 X128.5284 Y73.0082 A139.2676 F1200 (y_theta)
G1 X128.5284 Y72.7046 A136.4351 F1200 (y_theta)
G1 X128.5284 Y72.1679 A128.5822 F1200 (y_theta)
G1 X128.5284 Y71.7277 A119.4417 F1200 (y_theta)
G1 X128.5284 Y70.8279 A100.8408 F1200 (y_theta)
G1 X128.5284 Y70.312 A92.0764 F1200 (y_theta)
G1 X128.5284 Y70.0174 A88.8338 F1200 (y_theta)
G1 X128.5284 Y69.7182 A85.614 F1200 (y_theta)
G1 X128.5284 Y69.4158 A82.4114 F1200 (y_theta)
G1 X128.5284 Y69.0068 A80.619 F1200 (y_theta)
G1 X128.5284 Y68.2367 A85.0954 F1200 (y_theta)
G1 X128.5284 Y68.0776 A88.605 F1200 (y_theta)
G1 X128.5284 Y67.9173 A92.1052 F1200 (y_theta)
G1 X128.5284 Y67.2792 A100.2496 F1200 (y_theta)
G1 X128.5284 Y66.3279 A108.0202 F1200 (y_theta)
G1 X128.5284 Y65.2238 A114.795 F1200 (y_theta)
G1 X128.5284 Y64.0717 A120.6956 F1200 (y_theta)
G1 X128.5284 Y62.7743 A125.6078 F1200 (y_theta)
G1 X128.5284 Y62.0544 A127.5823 F1200 (y_theta)
G1 X128.5284 Y61.4901 A129.0181 F1200 (y_theta)
G1 X128.5284 Y60.7709 A130.9525 F1200 (y_theta)
G1 X128.5284 Y60.164 A131.6062 F1200 (y_theta)
G1 X128.5284 Y59.7561 A137.3888 F1200 (y_theta)
G1 X128.5284 Y59.3244 A144.5178 F1200 (y_theta)
G1 X128.5284 Y58.9789 A151.7625 F1200 (y_theta)
G1 X128.5284 Y58.7193 A159.1353 F1200 (y_theta)
G1 X128.5284 Y58.3597 A168.4897 F1200 (y_theta)
G1 X128.5284 Y58.042 A177.2196 F1200 (y_theta)
G1 X128.5284 Y57.5684 A195.7671 F1200 (y_theta)
G1 X128.5284 Y56.7513 A197.1125 F1200 (y_theta)
G1 X128.5284 Y56.1555 A197.4268 F1200 (y_theta)
G1 X128.5284 Y54.8414 A197.112 F1200 (y_theta)
G1 X128.5284 Y53.7462 A195.8082 F1200 (y_theta)
G1 X128.5284 Y52.681 A193.2051 F1200 (y_theta)
G1 X128.5284 Y51.8287 A189.6613 F1200 (y_theta)
G1 X128.5284 Y51.0311 A185.5989 F1200 (y_theta)
G1 X128.5284 Y50.2867 A181.0198 F1200 (y_theta)
G1 X128.5284 Y49.689 A176.0913 F1200 (y_theta)
G1 X128.5284 Y48.4644 A166.3998 F1200 (y_theta)
G1 X128.5284 Y47.8373 A161.6415 F1200 (y_theta)
G1 X128.5284 Y47.3405 A157.7635 F1200 (y_theta)
G1 X128.5284 Y46.9363 A154.0446 F1200 (y_theta)
G1 X128.5284 Y46.4703 A150.9191 F1200 (y_theta)
G1 X128.5284 Y45.8922 A148.9373 F1200 (y_theta)
G1 X128.5284 Y45.4543 A147.7714 F1200 (y_theta)
G1 X128.5284 Y44.799 A148.8286 F1200 (y_theta)
G1 X128.5284 Y44.2534 A148.776 F1200 (y_theta)
G1 X128.5284 Y43.6628 A148.0552 F1200 (y_theta)
G1 X128.5284 Y43.2234 A146.9122 F1200 (y_theta)
G1 X128.5284 Y42.7383 A145.1162 F1200 (y_theta)
G1 X128.5284 Y42.4026 A142.9046 F1200 (y_theta)
G1 X128.5284 Y41.6828 A136.6705 F1200 (y_theta)
G1 X128.5284 Y41.0467 A130.6225 F1200 (y_theta)
G1 X128.5284 Y40.6473 A124.305 F1200 (y_theta)
G1 X128.5284 Y40.286 A118.6747 F1200 (y_theta)
G1 X128.5284 Y40.1778 A116.2396 F1200 (y_theta)
G1 X128.5284 Y40.0196 A114.3498 F1200 (y_theta)
G1 X128.5284 Y39.4172 A114.9733 F1200 (y_theta)
G1 X128.5284 Y38.5219 A117.6338 F1200 (y_theta)
G1 X128.5284 Y38.0258 A119.4826 F1200 (y_theta)
G1 X128.5284 Y37.0832 A123.7702 F1200 (y_theta)
G1 X128.5284 Y36.3393 A128.2041 F1200 (y_theta)
G1 X128.5284 Y35.4908 A130.2163 F1200 (y_theta)
G1 X128.5284 Y33.9923 A132.1215 F1200 (y_theta)
G1 X128.5284 Y33.2929 A132.5488 F1200 (y_theta)
G1 X128.5284 Y30.7852 A130.1051 F1200 (y_theta)
G1 X128.5284 Y30.1892 A131.7247 F1200 (y_theta)
G1 X128.5284 Y29.6928 A133.429 F1200 (y_theta)
G1 X128.5284 Y29.0998 A136.1169 F1200 (y_theta)
G1 X128.5284 Y28.5038 A138.7839 F1200 (y_theta)
G1 X128.5284 Y27.8574 A141.9286 F1200 (y_theta)
G1 X128.5284 Y27.3591 A145.7431 F1200 (y_theta)
G1 X128.5284 Y26.2006 A153.6893 F1200 (y_theta)
G1 X128.5284 Y25.1777 A161.1705 F1200 (y_theta)
G1 X128.5284 Y23.5363 A175.916 F1200 (y_theta)
G1 X128.5284 Y23.2556 A179.3348 F1200 (y_theta)
G1 X128.5284 Y23.0253 A182.2756 F1200 (y_theta)
G1 X128.5284 Y22.0068 A185.2498 F1200 (y_theta)
G1 X128.5284 Y20.2557 A173.4423 F1200 (y_theta)
G1 X128.5284 Y19.7548 A167.0778 F1200 (y_theta)
G1 X128.5284 Y19.2352 A161.802 F1200 (y_theta)
G1 X128.5284 Y18.8524 A156.2165 F1200 (y_theta)
G1 X128.5284 Y18.5569 A150.7723 F1200 (y_theta)
G1 X128.5284 Y18.3489 A145.4574 F1200 (y_theta)
G1 X128.5284 Y18.2792 A139.8018 F1200 (y_theta)
G1 X128.5284 Y18.3517 A134.8072 F1200 (y_theta)
G1 X128.5284 Y18.5167 A129.9058 F1200 (y_theta)
G1 X128.5284 Y18.7743 A125.0875 F1200 (y_theta)
G1 X128.5284 Y19.1718 A119.883 F1200 (y_theta)
G1 X128.5284 Y19.6628 A114.7359 F1200 (y_theta)
G1 X128.5284 Y20.204 A110.112 F1200 (y_theta)
G1 X128.5284 Y20.843 A105.5376 F1200 (y_theta)
G1 X128.5284 Y21.5184 A100.4568 F1200 (y_theta)
G1 X128.5284 Y21.3002 A96.7855 F1200 (y_theta)
G1 X128.5284 Y20.8277 A93.474 F1200 (y_theta)
G1 X128.5284 Y20.2038 A88.1062 F1200 (y_theta)
G1 X128.5284 Y20.0612 A82.079 F1200 (y_theta)
G1 X128.5284 Y20.2317 A78.7053 F1200 (y_theta)
G1 X128.5284 Y20.3608 A75.8078 F1200 (y_theta)
G1 X128.5284 Y20.8184 A70.1042 F1200 (y_theta)
G1 X128.5284 Y21.1851 A66.8087 F1200 (y_theta)
G1 X128.5284 Y21.5808 A64.509 F1200 (y_theta)
G1 X128.5284 Y22.0119 A61.7191 F1200 (y_theta)
G1 X128.5284 Y22.3676 A59.8797 F1200 (y_theta)
G1 X128.5284 Y22.7238 A58.0289 F1200 (y_theta)
G1 X128.5284 Y23.0429 A56.6594 F1200 (y_theta)
G1 X128.5284 Y23.3248 A55.7694 F1200 (y_theta)
G1 X128.5284 Y22.9399 A55.1288 F1200 (y_theta)
G1 X128.5284 Y22.4491 A54.4533 F1200 (y_theta)
G1 X128.5284 Y21.4674 A53.1159 F1200 (y_theta)
G1 X128.5284 Y20.7992 A51.9036 F1200 (y_theta)
G1 X128.5284 Y20.0942 A49.7171 F1200 (y_theta)
G1 X128.5284 Y19.8808 A48.191 F1200 (y_theta)
G1 X128.5284 Y18.6529 A50.2208 F1200 (y_theta)
G1 X128.5284 Y17.5657 A51.7844 F1200 (y_theta)
G1 X128.5284 Y16.5842 A53.3679 F1200 (y_theta)
G1 X128.5284 Y15.7088 A54.9656 F1200 (y_theta)
G1 X128.5284 Y14.728 A56.509 F1200 (y_theta)
G1 X128.5284 Y14.0975 A57.6931 F1200 (y_theta)
G1 X128.5284 Y12.7673 A60.9466 F1200 (y_theta)
G1 X128.5284 Y11.3999 A64.6 F1200 (y_theta)
G1 X128.5284 Y10.7675 A67.1182 F1200 (y_theta)
G1 X128.5284 Y10.0648 A69.1288 F1200 (y_theta)
G1 X128.5284 Y9.2216 A71.5213 F1200 (y_theta)
G1 X128.5284 Y8.3046 A74.7766 F1200 (y_theta)
G1 X128.5284 Y7.4228 A77.5581 F1200 (y_theta)
G1 X128.5284 Y6.3599 A81.1356 F1200 (y_theta)
G1 X128.5284 Y5.9931 A77.7924 F1200 (y_theta)
G1 X128.5284 Y5.7254 A74.5101 F1200 (y_theta)
G1 X128.5284 Y5.698 A70.9022 F1200 (y_theta)
G1 X128.5284 Y5.666 A67.2958 F1200 (y_theta)
G1 X128.5284 Y5.9081 A62.9063 F1200 (y_theta)
G1 X128.5284 Y6.1808 A59.4196 F1200 (y_theta)
G1 X128.5284 Y6.6206 A55.0869 F1200 (y_theta)
G1 X128.5284 Y6.9891 A51.6189 F1200 (y_theta)
G1 X128.5284 Y7.4933 A47.7272 F1200 (y_theta)
G1 X128.5284 Y8.0983 A43.8452 F1200 (y_theta)
G1 X128.5284 Y9.5398 A35.6136 F1200 (y_theta)
G1 X128.5284 Y10.9043 A28.166 F1200 (y_theta)
G1 X128.5284 Y12.5478 A21.1092 F1200 (y_theta)
G1 X128.5284 Y13.8024 A14.8152 F1200 (y_theta)
G1 X128.5284 Y15.1285 A8.9049 F1200 (y_theta)
G1 X128.5284 Y15.3719 A4.7418 F1200 (y_theta)
G1 X128.5284 Y15.7429 A0.1092 F1200 (y_theta)
G1 X128.5284 Y16.1656 A-3.6106 F1200 (y_theta)
G1 X128.5284 Y16.5831 A-7.3408 F1200 (y_theta)
G1 X128.5284 Y17.1055 A-11.0974 F1200 (y_theta)
G1 X128.5284 Y17.5768 A-13.9317 F1200 (y_theta)
G1 X128.5284 Y18.1538 A-16.7914 F1200 (y_theta)
G1 X128.5284 Y18.7056 A-19.197 F1200 (y_theta)
G1 X128.5284 Y19.3653 A-21.6368 F1200 (y_theta)
G1 X128.5284 Y20.0009 A-23.6147 F1200 (y_theta)
G1 X128.5284 Y20.853 A-25.6472 F1200 (y_theta)
G1 X128.5284 Y21.5731 A-27.1962 F1200 (y_theta)
G1 X128.5284 Y23.1233 A-30.3569 F1200 (y_theta)
G1 X128.5284 Y24.7381 A-32.6213 F1200 (y_theta)
G1 X128.5284 Y26.1129 A-34.3873 F1200 (y_theta)
G1 X128.5284 Y27.4437 A-35.1859 F1200 (y_theta)
G1 X128.5284 Y30.2163 A-36.8534 F1200 (y_theta)
G1 X128.5284 Y33.1011 A-38.6136 F1200 (y_theta)
G1 X128.5284 Y35.9419 A-39.3859 F1200 (y_theta)
G1 X128.5284 Y36.4097 A-42.6628 F1200 (y_theta)
G1 X128.5284 Y36.7893 A-46.4544 F1200 (y_theta)
G1 X128.5284 Y36.8567 A-48.0519 F1200 (y_theta)
G1 X128.5284 Y36.8367 A-50.1442 F1200 (y_theta)
G1 X128.5284 Y36.836 A-52.7708 F1200 (y_theta)
G1 X128.5284 Y36.5927 A-54.7731 F1200 (y_theta)
G1 X128.5284 Y29.3795 A-91.3238 F1200 (y_theta)
G1 X128.5284 Y29.5578 A-93.9031 F1200 (y_theta)
G1 X128.5284 Y29.9431 A-96.1295 F1200 (y_theta)
G1 X128.5284 Y30.4393 A-98.4344 F1200 (y_theta)
G1 X128.5284 Y30.9464 A-101.2637 F1200 (y_theta)
G1 X128.5284 Y31.5506 A-103.674 F1200 (y_theta)
G1 X128.5284 Y32.2642 A-106.1811 F1200 (y_theta)
G1 X128.5284 Y33.8019 A-111.3527 F1200 (y_theta)
G1 X128.5284 Y37.2714 A-120.2677 F1200 (y_theta)
G1 X128.5284 Y38.6718 A-124.5872 F1200 (y_theta)
G1 X128.5284 Y39.3711 A-126.7768 F1200 (y_theta)
G1 X128.5284 Y39.9593 A-128.8861 F1200 (y_theta)
G1 X128.5284 Y39.5523 A-130.6202 F1200 (y_theta)
G1 X128.5284 Y39.0413 A-132.7762 F1200 (y_theta)
G1 X128.5284 Y38.5102 A-133.8493 F1200 (y_theta)
G1 X128.5284 Y37.8675 A-134.8098 F1200 (y_theta)
G1 X128.5284 Y36.5708 A-136.1845 F1200 (y_theta)
G1 X128.5284 Y35.1527 A-136.9065 F1200 (y_theta)
G1 X128.5284 Y33.7419 A-138.1314 F1200 (y_theta)
G1 X128.5284 Y33.0881 A-138.5296 F1200 (y_theta)
G1 X128.5284 Y32.5581 A-140.0415 F1200 (y_theta)
G1 X128.5284 Y32.0204 A-141.0364 F1200 (y_theta)
G1 X128.5284 Y31.5997 A-142.6323 F1200 (y_theta)
G1 X128.5284 Y31.295 A-144.8316 F1200 (y_theta)
G1 X128.5284 Y31.1039 A-147.6239 F1200 (y_theta)
G1 X128.5284 Y31.9082 A-150.9073 F1200 (y_theta)
G1 X128.5284 Y32.7165 A-154.7297 F1200 (y_theta)
G1 X128.5284 Y33.6254 A-157.6965 F1200 (y_theta)
G1 X128.5284 Y34.5298 A-160.1823 F1200 (y_theta)
G1 X128.5284 Y36.6795 A-166.6577 F1200 (y_theta)
G1 X128.5284 Y38.82 A-171.7508 F1200 (y_theta)
G1 X128.5284 Y40.8479 A-176.8531 F1200 (y_theta)
G1 X128.5284 Y42.9897 A-182.2422 F1200 (y_theta)
G1 X128.5284 Y43.7805 A-184.895 F1200 (y_theta)
G1 X128.5284 Y44.6849 A-188.279 F1200 (y_theta)
G1 X128.5284 Y45.3621 A-190.8399 F1200 (y_theta)
G1 X128.5284 Y46.0404 A-194.5278 F1200 (y_theta)
G1 X128.5284 Y45.5908 A-193.8931 F1200 (y_theta)
G1 X128.5284 Y44.9179 A-193.494 F1200 (y_theta)
G1 X128.5284 Y43.571 A-192.1673 F1200 (y_theta)
G1 X128.5284 Y41.8885 A-191.4766 F1200 (y_theta)
G1 X128.5284 Y40.2079 A-190.8041 F1200 (y_theta)
G1 X128.5284 Y38.6384 A-191.3393 F1200 (y_theta)
G1 X128.5284 Y37.9664 A-191.4899 F1200 (y_theta)
G1 X128.5284 Y37.4035 A-192.8203 F1200 (y_theta)
G1 X128.5284 Y36.8419 A-193.6231 F1200 (y_theta)
G1 X128.5284 Y36.5017 A-194.7135 F1200 (y_theta)
G1 X128.5284 Y36.2721 A-196.4591 F1200 (y_theta)
G1 X128.5284 Y36.1522 A-198.3521 F1200 (y_theta)
G1 X128.5284 Y36.6858 A-204.2191 F1200 (y_theta)
G1 X128.5284 Y37.435 A-210.4348 F1200 (y_theta)
G1 X128.5284 Y38.1839 A-215.6751 F1200 (y_theta)
G1 X128.5284 Y39.2582 A-221.996 F1200 (y_theta)
G1 X128.5284 Y40.3426 A-226.8399 F1200 (y_theta)
G1 X128.5284 Y41.6484 A-232.1176 F1200 (y_theta)
G1 X128.5284 Y42.9592 A-236.968 F1200 (y_theta)
G1 X128.5284 Y44.2746 A-241.3685 F1200 (y_theta)
G1 X128.5284 Y47.1355 A-250.2894 F1200 (y_theta)
G1 X128.5284 Y49.891 A-258.8086 F1200 (y_theta)
G1 X128.5284 Y52.6544 A-267.1146 F1200 (y_theta)
G1 X128.5284 Y53.7607 A-270.5401 F1200 (y_theta)
G1 X128.5284 Y54.8559 A-274.5803 F1200 (y_theta)
G1 X128.5284 Y53.9834 A-277.4133 F1200 (y_theta)
G1 X128.5284 Y53.2535 A-278.7747 F1200 (y_theta)
G1 X128.5284 Y52.6335 A-280.3607 F1200 (y_theta)
G1 X128.5284 Y52.1245 A-282.1636 F1200 (y_theta)
G1 X128.5284 Y51.4026 A-282.9276 F1200 (y_theta)
G1 X128.5284 Y51.0277 A-283.8486 F1200 (y_theta)
G1 X128.5284 Y50.1526 A-285.9842 F1200 (y_theta)
G1 X128.5284 Y49.4839 A-289.095 F1200 (y_theta)
G1 X128.5284 Y49.2042 A-290.7628 F1200 (y_theta)
G1 X128.5284 Y48.9076 A-292.9472 F1200 (y_theta)
G1 X128.5284 Y48.4676 A-295.9432 F1200 (y_theta)
G1 X128.5284 Y48.1506 A-298.6252 F1200 (y_theta)
G1 X128.5284 Y47.7978 A-302.3399 F1200 (y_theta)
G1 X128.5284 Y47.4234 A-306.5567 F1200 (y_theta)
G1 X128.5284 Y52.2679 A-323.0054 F1200 (y_theta)
G1 X128.5284 Y57.1236 A-340.0989 F1200 (y_theta)
G1 X128.5284 Y62.0182 A-357.3654 F1200 (y_theta)
G1 X128.5284 Y66.7998 A-375.6591 F1200 (y_theta)
G1 X128.5284 Y66.3857 A-379.5924 F1200 (y_theta)
G1 X128.5284 Y65.9652 A-383.4795 F1200 (y_theta)
G1 X128.5284 Y65.246 A-390.9464 F1200 (y_theta)
G1 X128.5284 Y64.5898 A-396.6129 F1200 (y_theta)
G1 X128.5284 Y64.0312 A-402.5596 F1200 (y_theta)
G1 X128.5284 Y63.5497 A-406.7893 F1200 (y_theta)
G1 X128.5284 Y63.1705 A-411.3409 F1200 (y_theta)
G1 X128.5284 Y62.8474 A-414.7695 F1200 (y_theta)
G1 X128.5284 Y62.4698 A-421.2262 F1200 (y_theta)
G1 X128.5284 Y62.3512 A-425.3433 F1200 (y_theta)
G1 X128.5284 Y62.2955 A-428.3815 F1200 (y_theta)
G1 X128.5284 Y62.3448 A-431.7972 F1200 (y_theta)
G1 X128.5284 Y62.5826 A-440.442 F1200 (y_theta)
G1 X128.5284 Y62.7683 A-445.6862 F1200 (y_theta)
G1 X128.5284 Y62.9096 A-451.4554 F1200 (y_theta)
G1 X128.5284 Y63.482 A-454.9095 F1200 (y_theta)
G1 X128.5284 Y64.0209 A-456.9429 F1200 (y_theta)
G1 X128.5284 Y64.6346 A-457.9458 F1200 (y_theta)
G1 X128.5284 Y65.249 A-458.9545 F1200 (y_theta)
G1 X128.5284 Y65.9707 A-460.3936 F1200 (y_theta)
G1 X128.5284 Y66.7677 A-460.7807 F1200 (y_theta)
G1 X128.5284 Y67.6731 A-461.6046 F1200 (y_theta)
G1 X128.5284 Y68.5076 A-461.4655 F1200 (y_theta)
G1 X128.5284 Y69.596 A-461.6507 F1200 (y_theta)
G1 X128.5284 Y70.6484 A-462.3916 F1200 (y_theta)
G1 X128.5284 Y72.7532 A-461.7761 F1200 (y_theta)
G1 X128.5284 Y74.9674 A-461.6013 F1200 (y_theta)
G1 X128.5284 Y77.3322 A-463.5247 F1200 (y_theta)
G1 X128.5284 Y79.814 A-466.0234 F1200 (y_theta)
G1 X128.5284 Y80.9843 A-467.3815 F1200 (y_theta)
G1 X128.5284 Y82.2336 A-469.8764 F1200 (y_theta)
G1 X128.5284 Y83.5643 A-473.5763 F1200 (y_theta)
G1 X128.5284 Y84.7855 A-476.8545 F1200 (y_theta)
G1 X128.5284 Y86.0877 A-481.3789 F1200 (y_theta)
G1 X128.5284 Y87.3572 A-486.6553 F1200 (y_theta)
G1 X128.5284 Y88.4474 A-492.7961 F1200 (y_theta)
G1 X128.5284 Y89.7266 A-500.8482 F1200 (y_theta)
G1 X128.5284 Y90.9311 A-510.3938 F1200 (y_theta)
G1 X128.5284 Y92.019 A-519.5489 F1200 (y_theta)
G1 X128.5284 Y93.1356 A-530.7854 F1200 (y_theta)
G1 X128.5284 Y94.3134 A-543.5252 F1200 (y_theta)
G1 X128.5284 Y95.237 A-557.7638 F1200 (y_theta)
G1 X130.3474 Y95.237 A-557.2242 F1200 (x_theta)
G1 X130.3474 Y92.136 A-554.7665 F1200 (y_theta)
G1 X130.3474 Y88.9967 A-553.0787 F1200 (y_theta)
G1 X130.3474 Y86.1829 A-553.2793 F1200 (y_theta)
G1 X130.3474 Y83.3214 A-554.0286 F1200 (y_theta)
G1 X130.3474 Y80.5606 A-555.2946 F1200 (y_theta)
G1 X130.3474 Y77.9029 A-558.6241 F1200 (y_theta)
G1 X130.3474 Y75.3345 A-562.3097 F1200 (y_theta)
G1 X130.3474 Y72.8553 A-566.3281 F1200 (y_theta)
G1 X130.3474 Y70.2993 A-572.0957 F1200 (y_theta)
G1 X130.3474 Y67.8751 A-577.6222 F1200 (y_theta)
G1 X130.3474 Y65.4152 A-584.2882 F1200 (y_theta)
G1 X130.3474 Y63.0631 A-592.0632 F1200 (y_theta)
G1 X130.3474 Y60.4273 A-598.9256 F1200 (y_theta)
G1 X130.3474 Y57.9217 A-607.7028 F1200 (y_theta)
G1 X130.3474 Y55.4697 A-616.5689 F1200 (y_theta)
G1 X130.3474 Y52.7537 A-625.3099 F1200 (y_theta)
G1 X130.3474 Y49.932 A-611.7109 F1200 (y_theta)
G1 X130.3474 Y48.6372 A-605.3707 F1200 (y_theta)
G1 X130.3474 Y47.4939 A-599.2197 F1200 (y_theta)
G1 X130.3474 Y46.3452 A-593.1547 F1200 (y_theta)
G1 X130.3474 Y45.3143 A-586.4346 F1200 (y_theta)
G1 X130.3474 Y44.3701 A-580.2235 F1200 (y_theta)
G1 X130.3474 Y43.6329 A-573.7446 F1200 (y_theta)
G1 X130.3474 Y43.0065 A-566.5634 F1200 (y_theta)
G1 X130.3474 Y42.3673 A-559.4259 F1200 (y_theta)
G1 X130.3474 Y42.0619 A-553.1527 F1200 (y_theta)
G1 X130.3474 Y41.8594 A-546.1138 F1200 (y_theta)
G1 X130.3474 Y41.8508 A-538.684 F1200 (y_theta)
G1 X130.3474 Y41.9863 A-530.0429 F1200 (y_theta)
G1 X130.3474 Y42.0686 A-526.0951 F1200 (y_theta)
G1 X130.3474 Y42.2961 A-522.1162 F1200 (y_theta)
G1 X130.3474 Y42.5195 A-518.1172 F1200 (y_theta)
G1 X130.3474 Y42.8388 A-513.2805 F1200 (y_theta)
G1 X130.3474 Y43.7489 A-510.6743 F1200 (y_theta)
G1 X130.3474 Y44.9552 A-507.9511 F1200 (y_theta)
G1 X130.3474 Y46.2079 A-505.9901 F1200 (y_theta)
G1 X130.3474 Y47.4051 A-503.1657 F1200 (y_theta)
G1 X130.3474 Y48.7999 A-501.0616 F1200 (y_theta)
G1 X130.3474 Y50.185 A-497.6334 F1200 (y_theta)
G1 X130.3474 Y51.5704 A-495.4153 F1200 (y_theta)
G1 X130.3474 Y52.793 A-491.8977 F1200 (y_theta)
G1 X130.3474 Y53.8604 A-488.3725 F1200 (y_theta)
G1 X130.3474 Y54.9658 A-484.3122 F1200 (y_theta)
G1 X130.3474 Y55.7061 A-479.4558 F1200 (y_theta)
G1 X130.3474 Y56.2902 A-474.6116 F1200 (y_theta)
G1 X130.3474 Y56.4431 A-471.3386 F1200 (y_theta)
G1 X130.3474 Y56.6571 A-465.7317 F1200 (y_theta)
G1 X130.3474 Y56.6547 A-462.5192 F1200 (y_theta)
G1 X130.3474 Y56.5853 A-458.4364 F1200 (y_theta)
G1 X130.3474 Y56.3658 A-454.4601 F1200 (y_theta)
G1 X130.3474 Y56.1025 A-450.9747 F1200 (y_theta)
G1 X130.3474 Y55.6264 A-446.7628 F1200 (y_theta)
G1 X130.3474 Y56.389 A-445.6707 F1200 (y_theta)
G1 X130.3474 Y56.8999 A-444.3057 F1200 (y_theta)
G1 X130.3474 Y57.5157 A-443.3093 F1200 (y_theta)
G1 X130.3474 Y57.9184 A-441.5505 F1200 (y_theta)
G1 X130.3474 Y58.6116 A-437.608 F1200 (y_theta)
G1 X130.3474 Y59.1191 A-432.3529 F1200 (y_theta)
G1 X130.3474 Y59.3685 A-426.8182 F1200 (y_theta)
G1 X130.3474 Y59.392 A-420.5181 F1200 (y_theta)
G1 X130.3474 Y59.2965 A-413.8321 F1200 (y_theta)
G1 X130.3474 Y59.0489 A-407.3096 F1200 (y_theta)
G1 X130.3474 Y58.6352 A-399.0462 F1200 (y_theta)
G1 X130.3474 Y58.1479 A-391.8716 F1200 (y_theta)
G1 X130.3474 Y56.8927 A-377.5158 F1200 (y_theta)
G1 X130.3474 Y55.6828 A-364.2214 F1200 (y_theta)
G1 X130.3474 Y55.1452 A-357.2627 F1200 (y_theta)
G1 X130.3474 Y54.439 A-351.1137 F1200 (y_theta)
G1 X130.3474 Y52.522 A-347.1767 F1200 (y_theta)
G1 X130.3474 Y52.0295 A-362.3976 F1200 (y_theta)
G1 X130.3474 Y51.2998 A-378.1025 F1200 (y_theta)
G1 X130.3474 Y50.712 A-385.8733 F1200 (y_theta)
G1 X130.3474 Y50.1998 A-392.0533 F1200 (y_theta)
G1 X130.3474 Y49.9012 A-394.7124 F1200 (y_theta)
G1 X130.3474 Y49.5236 A-396.5444 F1200 (y_theta)
G1 X130.3474 Y49.1448 A-398.3596 F1200 (y_theta)
G1 X130.3474 Y48.8318 A-399.1892 F1200 (y_theta)
G1 X130.3474 Y48.123 A-398.2545 F1200 (y_theta)
G1 X130.3474 Y47.4476 A-396.8455 F1200 (y_theta)
G1 X130.3474 Y46.2772 A-395.1655 F1200 (y_theta)
G1 X130.3474 Y45.0414 A-394.4679 F1200 (y_theta)
G1 X130.3474 Y44.2675 A-394.536 F1200 (y_theta)
G1 X130.3474 Y43.6008 A-394.9036 F1200 (y_theta)
G1 X130.3474 Y43.9218 A-388.4506 F1200 (y_theta)
G1 X130.3474 Y44.1667 A-382.91 F1200 (y_theta)
G1 X130.3474 Y44.371 A-377.8136 F1200 (y_theta)
G1 X130.3474 Y44.4276 A-372.8808 F1200 (y_theta)
G1 X130.3474 Y44.5566 A-368.7155 F1200 (y_theta)
G1 X130.3474 Y44.4347 A-364.4467 F1200 (y_theta)
G1 X130.3474 Y44.3069 A-360.1759 F1200 (y_theta)
G1 X130.3474 Y44.1201 A-356.892 F1200 (y_theta)
G1 X130.3474 Y43.795 A-353.8215 F1200 (y_theta)
G1 X130.3474 Y43.3588 A-350.4933 F1200 (y_theta)
G1 X130.3474 Y42.6774 A-347.1335 F1200 (y_theta)
G1 X130.3474 Y41.8597 A-344.024 F1200 (y_theta)
G1 X130.3474 Y40.9323 A-340.6822 F1200 (y_theta)
G1 X130.3474 Y39.8947 A-337.1289 F1200 (y_theta)
G1 X130.3474 Y38.6143 A-333.6008 F1200 (y_theta)
G1 X130.3474 Y37.2011 A-330.363 F1200 (y_theta)
G1 X130.3474 Y37.4741 A-322.4897 F1200 (y_theta)
G1 X130.3474 Y37.727 A-314.5645 F1200 (y_theta)
G1 X130.3474 Y38.1762 A-307.0476 F1200 (y_theta)
G1 X130.3474 Y38.6969 A-300.1812 F1200 (y_theta)
G1 X130.3474 Y39.7347 A-284.7452 F1200 (y_theta)
G1 X130.3474 Y41.0183 A-269.6107 F1200 (y_theta)
G1 X130.3474 Y40.8102 A-268.6827 F1200 (y_theta)
G1 X130.3474 Y40.492 A-267.551 F1200 (y_theta)
G1 X130.3474 Y40.2835 A-266.6338 F1200 (y_theta)
G1 X130.3474 Y39.8404 A-265.8102 F1200 (y_theta)
G1 X130.3474 Y39.0507 A-264.878 F1200 (y_theta)
G1 X130.3474 Y38.2207 A-265.4667 F1200 (y_theta)
G1 X130.3474 Y37.2794 A-265.846 F1200 (y_theta)
G1 X130.3474 Y36.3089 A-267.2003 F1200 (y_theta)
G1 X130.3474 Y35.3228 A-269.0253 F1200 (y_theta)
G1 X130.3474 Y34.427 A-271.5103 F1200 (y_theta)
G1 X130.3474 Y32.4064 A-275.9744 F1200 (y_theta)
G1 X130.3474 Y31.4655 A-279.3041 F1200 (y_theta)
G1 X130.3474 Y30.666 A-281.8512 F1200 (y_theta)
G1 X130.3474 Y30.0815 A-284.7753 F1200 (y_theta)
G1 X130.3474 Y29.5108 A-287.2118 F1200 (y_theta)
G1 X130.3474 Y29.0478 A-289.8358 F1200 (y_theta)
G1 X130.3474 Y28.8408 A-291.9334 F1200 (y_theta)
G1 X130.3474 Y28.5492 A-295.859 F1200 (y_theta)
G1 X130.3474 Y28.2527 A-299.7653 F1200 (y_theta)
G1 X130.3474 Y28.1241 A-302.4961 F1200 (y_theta)
G1 X130.3474 Y27.9067 A-304.5529 F1200 (y_theta)
G1 X130.3474 Y27.7087 A-306.1523 F1200 (y_theta)
G1 X130.3474 Y27.6186 A-307.9632 F1200 (y_theta)
G1 X130.3474 Y27.1329 A-310.4643 F1200 (y_theta)
G1 X130.3474 Y26.5825 A-311.8349 F1200 (y_theta)
G1 X130.3474 Y26.2945 A-312.738 F1200 (y_theta)
G1 X130.3474 Y25.8745 A-313.8698 F1200 (y_theta)
G1 X130.3474 Y25.2366 A-314.5589 F1200 (y_theta)
G1 X130.3474 Y24.5995 A-315.24 F1200 (y_theta)
G1 X130.3474 Y23.887 A-317.23 F1200 (y_theta)
G1 X130.3474 Y23.0649 A-318.9846 F1200 (y_theta)
G1 X130.3474 Y21.3613 A-315.119 F1200 (y_theta)
G1 X130.3474 Y19.8246 A-312.6041 F1200 (y_theta)
G1 X130.3474 Y18.1815 A-309.9288 F1200 (y_theta)
G1 X130.3474 Y17.2691 A-309.1478 F1200 (y_theta)
G1 X130.3474 Y16.4654 A-308.5735 F1200 (y_theta)
G1 X130.3474 Y15.8064 A-305.4903 F1200 (y_theta)
G1 X130.3474 Y15.1463 A-302.435 F1200 (y_theta)
G1 X130.3474 Y14.6159 A-299.1746 F1200 (y_theta)
G1 X130.3474 Y14.0826 A-295.936 F1200 (y_theta)
G1 X130.3474 Y12.8311 A-283.7768 F1200 (y_theta)
G1 X130.3474 Y12.4473 A-277.2675 F1200 (y_theta)
G1 X130.3474 Y12.0688 A-270.3571 F1200 (y_theta)
G1 X130.3474 Y11.7459 A-261.7854 F1200 (y_theta)
G1 X130.3474 Y11.5752 A-257.5015 F1200 (y_theta)
G1 X130.3474 Y11.4146 A-252.7997 F1200 (y_theta)
G1 X130.3474 Y10.4426 A-254.0244 F1200 (y_theta)
G1 X130.3474 Y9.5775 A-255.3947 F1200 (y_theta)
G1 X130.3474 Y8.0634 A-258.4185 F1200 (y_theta)
G1 X130.3474 Y7.3939 A-260.4832 F1200 (y_theta)
G1 X130.3474 Y6.8125 A-263.0974 F1200 (y_theta)
G1 X130.3474 Y6.2465 A-265.29 F1200 (y_theta)
G1 X130.3474 Y5.7675 A-268.0319 F1200 (y_theta)
G1 X130.3474 Y5.0338 A-273.3989 F1200 (y_theta)
G1 X130.3474 Y4.3749 A-279.2808 F1200 (y_theta)
G1 X130.3474 Y4.024 A-285.6269 F1200 (y_theta)
G1 X130.3474 Y3.7634 A-292.1101 F1200 (y_theta)
G1 X130.3474 Y3.7267 A-298.5334 F1200 (y_theta)
G1 X130.3474 Y3.7549 A-305.5134 F1200 (y_theta)
G1 X130.3474 Y4.0314 A-312.0812 F1200 (y_theta)
G1 X130.3474 Y4.3201 A-318.2689 F1200 (y_theta)
G1 X130.3474 Y4.8088 A-324.8596 F1200 (y_theta)
G1 X130.3474 Y5.342 A-330.6988 F1200 (y_theta)
G1 X130.3474 Y6.1358 A-336.2044 F1200 (y_theta)
G1 X130.3474 Y6.9834 A-340.981 F1200 (y_theta)
G1 X130.3474 Y6.6608 A-343.472 F1200 (y_theta)
G1 X130.3474 Y6.4729 A-345.7789 F1200 (y_theta)
G1 X130.3474 Y6.4204 A-347.9084 F1200 (y_theta)
G1 X130.3474 Y6.397 A-349.6541 F1200 (y_theta)
G1 X130.3474 Y6.2356 A-351.5645 F1200 (y_theta)
G1 X130.3474 Y6.3492 A-353.1382 F1200 (y_theta)
G1 X130.3474 Y6.573 A-356.2875 F1200 (y_theta)
G1 X130.3474 Y6.8611 A-358.6863 F1200 (y_theta)
G1 X130.3474 Y7.4613 A-361.7503 F1200 (y_theta)
G1 X130.3474 Y7.674 A-363.5574 F1200 (y_theta)
G1 X130.3474 Y8.4462 A-367.4777 F1200 (y_theta)
G1 X130.3474 Y8.9346 A-370.3651 F1200 (y_theta)
G1 X130.3474 Y8.0981 A-368.5552 F1200 (y_theta)
G1 X130.3474 Y7.3998 A-367.9647 F1200 (y_theta)
G1 X130.3474 Y6.7027 A-367.381 F1200 (y_theta)
G1 X130.3474 Y6.1444 A-368.0011 F1200 (y_theta)
G1 X130.3474 Y5.5509 A-368.9882 F1200 (y_theta)
G1 X130.3474 Y5.0936 A-371.1612 F1200 (y_theta)
G1 X130.3474 Y4.5259 A-374.4336 F1200 (y_theta)
G1 X130.3474 Y4.0951 A-377.5367 F1200 (y_theta)
G1 X130.3474 Y2.9242 A-372.7969 F1200 (y_theta)
G1 X130.3474 Y1.7491 A-368.1162 F1200 (y_theta)
G1 X130.3474 Y0.7765 A-363.9154 F1200 (y_theta)
G1 X130.3474 Y-0.0264 A-359.2321 F1200 (y_theta)
G1 X130.3474 Y-0.8319 A-355.8882 F1200 (y_theta)
G1 X130.3474 Y-1.5019 A-352.4153 F1200 (y_theta)
G1 X130.3474 Y-2.2069 A-349.3278 F1200 (y_theta)
G1 X130.3474 Y-2.706 A-346.6627 F1200 (y_theta)
G1 X130.3474 Y-3.1652 A-344.9351 F1200 (y_theta)
G1 X130.3474 Y-3.5546 A-343.7798 F1200 (y_theta)
G1 X130.3474 Y-3.8698 A-343.1876 F1200 (y_theta)
G1 X130.3474 Y-4.1443 A-343.5187 F1200 (y_theta)
G1 X130.3474 Y-4.4523 A-344.2081 F1200 (y_theta)
G1 X130.3474 Y-5.0474 A-350.6842 F1200 (y_theta)
G1 X130.3474 Y-5.1459 A-353.0289 F1200 (y_theta)
G1 X130.3474 Y-5.141 A-356.8472 F1200 (y_theta)
G1 X130.3474 Y-5.1064 A-360.303 F1200 (y_theta)
G1 X130.3474 Y-4.9713 A-363.9656 F1200 (y_theta)
G1 X130.3474 Y-4.8065 A-367.2774 F1200 (y_theta)
G1 X130.3474 Y-4.2069 A-373.6268 F1200 (y_theta)
G1 X130.3474 Y-3.6601 A-380.356 F1200 (y_theta)
G1 X130.3474 Y-2.9469 A-386.6303 F1200 (y_theta)
G1 X130.3474 Y-2.1054 A-392.8185 F1200 (y_theta)
G1 X130.3474 Y-0.4803 A-406.6146 F1200 (y_theta)
G1 X130.3474 Y-0.6051 A-407.662 F1200 (y_theta)
G1 X130.3474 Y-0.6712 A-409.2891 F1200 (y_theta)
G1 X130.3474 Y-0.7379 A-410.9195 F1200 (y_theta)
G1 X130.3474 Y-0.7047 A-412.7831 F1200 (y_theta)
G1 X130.3474 Y-0.5708 A-414.8818 F1200 (y_theta)
G1 X130.3474 Y-0.3363 A-417.2277 F1200 (y_theta)
G1 X130.3474 Y0.0821 A-422.2708 F1200 (y_theta)
G1 X130.3474 Y0.7938 A-428.0681 F1200 (y_theta)
G1 X130.3474 Y1.7968 A-434.6567 F1200 (y_theta)
G1 X130.3474 Y2.8337 A-440.9607 F1200 (y_theta)
G1 X130.3474 Y4.2522 A-447.423 F1200 (y_theta)
G1 X130.3474 Y3.9171 A-448.884 F1200 (y_theta)
G1 X130.3474 Y3.4808 A-450.0708 F1200 (y_theta)
G1 X130.3474 Y2.9958 A-451.5913 F1200 (y_theta)
G1 X130.3474 Y2.459 A-452.5044 F1200 (y_theta)
G1 X130.3474 Y1.1872 A-454.7263 F1200 (y_theta)
G1 X130.3474 Y-0.335 A-456.7266 F1200 (y_theta)
G1 X130.3474 Y-1.8603 A-457.7736 F1200 (y_theta)
G1 X130.3474 Y-2.5495 A-458.711 F1200 (y_theta)
G1 X130.3474 Y-3.0914 A-459.5725 F1200 (y_theta)
G1 X130.3474 Y-3.7337 A-460.1726 F1200 (y_theta)
G1 X130.3474 Y-4.1783 A-461.2798 F1200 (y_theta)
G1 X130.3474 Y-4.5751 A-462.0601 F1200 (y_theta)
G1 X130.3474 Y-4.8728 A-463.0921 F1200 (y_theta)
G1 X130.3474 Y-4.3064 A-476.8923 F1200 (y_theta)
G1 X130.3474 Y4.005 A-505.4438 F1200 (y_theta)
G1 X130.3474 Y3.2196 A-507.4537 F1200 (y_theta)
G1 X130.3474 Y2.2251 A-509.7836 F1200 (y_theta)
G1 X130.3474 Y0.2624 A-512.5499 F1200 (y_theta)
G1 X130.3474 Y-0.5892 A-514.7894 F1200 (y_theta)
G1 X130.3474 Y-1.2928 A-516.9806 F1200 (y_theta)
G1 X130.3474 Y-1.9275 A-520.3358 F1200 (y_theta)
G1 X130.3474 Y-2.0302 A-522.4249 F1200 (y_theta)
G1 X130.3474 Y-2.0769 A-524.2114 F1200 (y_theta)
G1 X130.3474 Y-1.6006 A-527.1343 F1200 (y_theta)
G1 X130.3474 Y-1.0669 A-529.7721 F1200 (y_theta)
G1 X130.3474 Y0.1127 A-534.4821 F1200 (y_theta)
G1 X130.3474 Y1.2553 A-538.6502 F1200 (y_theta)
G1 X130.3474 Y3.3754 A-545.6134 F1200 (y_theta)
G1 X130.3474 Y5.73 A-553.0564 F1200 (y_theta)
G1 X130.3474 Y6.8268 A-556.8412 F1200 (y_theta)
G1 X130.3474 Y6.5778 A-558.0532 F1200 (y_theta)
G1 X130.3474 Y6.0551 A-558.311 F1200 (y_theta)
G1 X130.3474 Y5.4081 A-559.1634 F1200 (y_theta)
G1 X130.3474 Y4.6069 A-559.9913 F1200 (y_theta)
G1 X130.3474 Y3.6508 A-560.7956 F1200 (y_theta)
G1 X130.3474 Y2.6309 A-561.8841 F1200 (y_theta)
G1 X130.3474 Y0.5615 A-563.4208 F1200 (y_theta)
G1 X130.3474 Y-0.4613 A-564.4741 F1200 (y_theta)
G1 X130.3474 Y-1.2409 A-565.8415 F1200 (y_theta)
G1 X130.3474 Y-1.9322 A-567.5029 F1200 (y_theta)
G1 X130.3474 Y-2.5372 A-569.4567 F1200 (y_theta)
G1 X130.3474 Y-2.6417 A-570.6064 F1200 (y_theta)
G1 X130.3474 Y-2.7475 A-571.7514 F1200 (y_theta)
G1 X130.3474 Y-2.7889 A-572.6153 F1200 (y_theta)
G1 X130.3474 Y-2.806 A-574.0682 F1200 (y_theta)
G1 X130.3474 Y-2.6052 A-575.2691 F1200 (y_theta)
G1 X130.3474 Y-2.4704 A-576.7506 F1200 (y_theta)
G1 X130.3474 Y-2.1812 A-578.2693 F1200 (y_theta)
G1 X130.3474 Y-1.7399 A-579.8207 F1200 (y_theta)
G1 X130.3474 Y-0.659 A-584.1686 F1200 (y_theta)
G1 X130.3474 Y0.2416 A-587.9312 F1200 (y_theta)
G1 X130.3474 Y0.9635 A-591.0845 F1200 (y_theta)
G1 X130.3474 Y2.7959 A-597.886 F1200 (y_theta)
G1 X130.3474 Y3.8889 A-600.9464 F1200 (y_theta)
G1 X130.3474 Y4.3229 A-602.6021 F1200 (y_theta)
G1 X130.3474 Y4.91 A-604.3221 F1200 (y_theta)
G1 X130.3474 Y6.4301 A-609.1445 F1200 (y_theta)
G1 X130.3474 Y7.4459 A-612.6116 F1200 (y_theta)
G1 X130.3474 Y8.617 A-616.1843 F1200 (y_theta)
G1 X130.3474 Y9.8161 A-621.058 F1200 (y_theta)
G1 X130.3474 Y10.5677 A-623.593 F1200 (y_theta)
G1 X130.3474 Y11.4048 A-626.5062 F1200 (y_theta)
G1 X130.3474 Y3.6612 A-635.5937 F1200 (y_theta)
G1 X130.3474 Y3.4519 A-641.4452 F1200 (y_theta)
G1 X130.3474 Y4.7703 A-647.0038 F1200 (y_theta)
G1 X130.3474 Y6.2369 A-652.7419 F1200 (y_theta)
G1 X130.3474 Y8.994 A-664.3725 F1200 (y_theta)
G1 X130.3474 Y11.723 A-676.9694 F1200 (y_theta)
G1 X130.3474 Y12.9171 A-683.2722 F1200 (y_theta)
G1 X130.3474 Y14.1811 A-690.675 F1200 (y_theta)
G1 X130.3474 Y13.4779 A-692.2505 F1200 (y_theta)
G1 X130.3474 Y12.9306 A-693.3299 F1200 (y_theta)
G1 X130.3474 Y11.8342 A-693.5931 F1200 (y_theta)
G1 X130.3474 Y10.6596 A-694.0956 F1200 (y_theta)
G1 X130.3474 Y10.0329 A-694.15 F1200 (y_theta)
G1 X130.3474 Y9.2505 A-694.0674 F1200 (y_theta)
G1 X130.3474 Y10.0101 A-701.5389 F1200 (y_theta)
G1 X130.3474 Y10.6004 A-708.2893 F1200 (y_theta)
G1 X130.3474 Y11.2612 A-714.2257 F1200 (y_theta)
G1 X130.3474 Y11.9945 A-719.9731 F1200 (y_theta)
G1 X130.3474 Y12.9575 A-725.7064 F1200 (y_theta)
G1 X130.3474 Y13.7636 A-730.6979 F1200 (y_theta)
G1 X130.3474 Y15.4507 A-739.9629 F1200 (y_theta)
G1 X130.3474 Y17.3695 A-748.7442 F1200 (y_theta)
G1 X130.3474 Y19.1289 A-756.8678 F1200 (y_theta)
G1 X130.3474 Y21.1024 A-765.798 F1200 (y_theta)
G1 X130.3474 Y22.8338 A-774.2674 F1200 (y_theta)
G1 X130.3474 Y22.2626 A-777.4429 F1200 (y_theta)
G1 X130.3474 Y21.7738 A-780.388 F1200 (y_theta)
G1 X130.3474 Y21.1258 A-783.0804 F1200 (y_theta)
G1 X130.3474 Y20.5415 A-786.1786 F1200 (y_theta)
