(Generated by svg_to_gcode.pyw)
G21
G90
G0 F3000
(XY preview mode: theta axis omitted)
G0 Z5
G0 X5 Y45 Z5
G1 Z0 F1200
G1 X75 Y45 F1200
G1 X75 Y5 F1200
G1 X5 Y5 F1200
G1 X5 Y45 F1200
G0 Z5
G0 X52 Y25 Z5
G1 Z0 F1200
G1 X51.9974 Y24.7495 F1200
G1 X51.9895 Y24.4992 F1200
G1 X51.9765 Y24.249 F1200
G1 X51.9582 Y23.9992 F1200
G1 X51.9347 Y23.7498 F1200
G1 X51.906 Y23.501 F1200
G1 X51.8721 Y23.2528 F1200
G1 X51.8331 Y23.0054 F1200
G1 X51.7889 Y22.7588 F1200
G1 X51.7395 Y22.5132 F1200
G1 X51.685 Y22.2687 F1200
G1 X51.6255 Y22.0254 F1200
G1 X51.5609 Y21.7834 F1200
G1 X51.4912 Y21.5428 F1200
G1 X51.4165 Y21.3037 F1200
G1 X51.3369 Y21.0662 F1200
G1 X51.2523 Y20.8304 F1200
G1 X51.1628 Y20.5965 F1200
G1 X51.0685 Y20.3644 F1200
G1 X50.9693 Y20.1344 F1200
G1 X50.8654 Y19.9065 F1200
G1 X50.7567 Y19.6808 F1200
G1 X50.6433 Y19.4575 F1200
G1 X50.5253 Y19.2365 F1200
G1 X50.4027 Y19.0181 F1200
G1 X50.2756 Y18.8023 F1200
G1 X50.144 Y18.5891 F1200
G1 X50.008 Y18.3788 F1200
G1 X49.8676 Y18.1713 F1200
G1 X49.7229 Y17.9669 F1200
G1 X49.574 Y17.7654 F1200
G1 X49.4209 Y17.5672 F1200
G1 X49.2637 Y17.3722 F1200
G1 X49.1025 Y17.1805 F1200
G1 X48.9373 Y16.9922 F1200
G1 X48.7682 Y16.8074 F1200
G1 X48.5953 Y16.6261 F1200
G1 X48.4186 Y16.4486 F1200
G1 X48.2383 Y16.2747 F1200
G1 X48.0544 Y16.1046 F1200
G1 X47.8669 Y15.9385 F1200
G1 X47.6761 Y15.7762 F1200
G1 X47.4819 Y15.618 F1200
G1 X47.2844 Y15.4639 F1200
G1 X47.0838 Y15.3139 F1200
G1 X46.8801 Y15.1682 F1200
G1 X46.6734 Y15.0267 F1200
G1 X46.4637 Y14.8896 F1200
G1 X46.2513 Y14.7569 F1200
G1 X46.0361 Y14.6286 F1200
G1 X45.8183 Y14.5049 F1200
G1 X45.598 Y14.3857 F1200
G1 X45.3752 Y14.2712 F1200
G1 X45.1501 Y14.1613 F1200
G1 X44.9228 Y14.0562 F1200
G1 X44.6933 Y13.9558 F1200
G1 X44.4617 Y13.8603 F1200
G1 X44.2282 Y13.7696 F1200
G1 X43.9929 Y13.6838 F1200
G1 X43.7558 Y13.6029 F1200
G1 X43.5171 Y13.527 F1200
G1 X43.2769 Y13.4561 F1200
G1 X43.0352 Y13.3902 F1200
G1 X42.7922 Y13.3294 F1200
G1 X42.548 Y13.2736 F1200
G1 X42.3027 Y13.223 F1200
G1 X42.0564 Y13.1775 F1200
G1 X41.8091 Y13.1372 F1200
G1 X41.5611 Y13.102 F1200
G1 X41.3125 Y13.072 F1200
G1 X41.0632 Y13.0472 F1200
G1 X40.8135 Y13.0276 F1200
G1 X40.5634 Y13.0132 F1200
G1 X40.3131 Y13.0041 F1200
G1 X40.0626 Y13.0002 F1200
G1 X39.8121 Y13.0015 F1200
G1 X39.5617 Y13.008 F1200
G1 X39.3115 Y13.0198 F1200
G1 X39.0616 Y13.0367 F1200
G1 X38.8121 Y13.0589 F1200
G1 X38.5631 Y13.0863 F1200
G1 X38.3148 Y13.1189 F1200
G1 X38.0671 Y13.1567 F1200
G1 X37.8204 Y13.1996 F1200
G1 X37.5745 Y13.2477 F1200
G1 X37.3297 Y13.3009 F1200
G1 X37.0861 Y13.3591 F1200
G1 X36.8438 Y13.4225 F1200
G1 X36.6028 Y13.4909 F1200
G1 X36.3633 Y13.5643 F1200
G1 X36.1254 Y13.6427 F1200
G1 X35.8892 Y13.7261 F1200
G1 X35.6548 Y13.8143 F1200
G1 X35.4223 Y13.9075 F1200
G1 X35.1917 Y14.0054 F1200
G1 X34.9633 Y14.1082 F1200
G1 X34.737 Y14.2157 F1200
G1 X34.5131 Y14.3279 F1200
G1 X34.2915 Y14.4447 F1200
G1 X34.0725 Y14.5662 F1200
G1 X33.856 Y14.6922 F1200
G1 X33.6421 Y14.8227 F1200
G1 X33.4311 Y14.9576 F1200
G1 X33.2229 Y15.0969 F1200
G1 X33.0177 Y15.2405 F1200
G1 X32.8155 Y15.3884 F1200
G1 X32.6164 Y15.5404 F1200
G1 X32.4206 Y15.6966 F1200
G1 X32.2281 Y15.8569 F1200
G1 X32.0389 Y16.0211 F1200
G1 X31.8532 Y16.1892 F1200
G1 X31.6711 Y16.3612 F1200
G1 X31.4926 Y16.5369 F1200
G1 X31.3178 Y16.7163 F1200
G1 X31.1468 Y16.8993 F1200
G1 X30.9796 Y17.0859 F1200
G1 X30.8164 Y17.2759 F1200
G1 X30.6572 Y17.4693 F1200
G1 X30.502 Y17.6659 F1200
G1 X30.351 Y17.8658 F1200
G1 X30.2042 Y18.0687 F1200
G1 X30.0617 Y18.2747 F1200
G1 X29.9235 Y18.4836 F1200
G1 X29.7896 Y18.6953 F1200
G1 X29.6603 Y18.9098 F1200
G1 X29.5354 Y19.127 F1200
G1 X29.4151 Y19.3467 F1200
G1 X29.2994 Y19.5689 F1200
G1 X29.1884 Y19.7934 F1200
G1 X29.0821 Y20.0202 F1200
G1 X28.9805 Y20.2492 F1200
G1 X28.8837 Y20.4802 F1200
G1 X28.7918 Y20.7132 F1200
G1 X28.7048 Y20.9481 F1200
G1 X28.6227 Y21.1848 F1200
G1 X28.5455 Y21.4231 F1200
G1 X28.4733 Y21.6629 F1200
G1 X28.4062 Y21.9043 F1200
G1 X28.3441 Y22.1469 F1200
G1 X28.2871 Y22.3908 F1200
G1 X28.2352 Y22.6359 F1200
G1 X28.1884 Y22.882 F1200
G1 X28.1468 Y23.129 F1200
G1 X28.1103 Y23.3768 F1200
G1 X28.079 Y23.6253 F1200
G1 X28.0529 Y23.8744 F1200
G1 X28.032 Y24.1241 F1200
G1 X28.0163 Y24.3741 F1200
G1 X28.0059 Y24.6243 F1200
G1 X28.0007 Y24.8748 F1200
G1 X28.0007 Y25.1252 F1200
G1 X28.0059 Y25.3757 F1200
G1 X28.0163 Y25.6259 F1200
G1 X28.032 Y25.8759 F1200
G1 X28.0529 Y26.1256 F1200
G1 X28.079 Y26.3747 F1200
G1 X28.1103 Y26.6232 F1200
G1 X28.1468 Y26.871 F1200
G1 X28.1884 Y27.118 F1200
G1 X28.2352 Y27.3641 F1200
G1 X28.2871 Y27.6092 F1200
G1 X28.3441 Y27.8531 F1200
G1 X28.4062 Y28.0957 F1200
G1 X28.4733 Y28.3371 F1200
G1 X28.5455 Y28.5769 F1200
G1 X28.6227 Y28.8152 F1200
G1 X28.7048 Y29.0519 F1200
G1 X28.7918 Y29.2868 F1200
G1 X28.8837 Y29.5198 F1200
G1 X28.9805 Y29.7508 F1200
G1 X29.0821 Y29.9798 F1200
G1 X29.1884 Y30.2066 F1200
G1 X29.2994 Y30.4311 F1200
G1 X29.4151 Y30.6533 F1200
G1 X29.5354 Y30.873 F1200
G1 X29.6603 Y31.0902 F1200
G1 X29.7896 Y31.3047 F1200
G1 X29.9235 Y31.5164 F1200
G1 X30.0617 Y31.7253 F1200
G1 X30.2042 Y31.9313 F1200
G1 X30.351 Y32.1342 F1200
G1 X30.502 Y32.3341 F1200
G1 X30.6572 Y32.5307 F1200
G1 X30.8164 Y32.7241 F1200
G1 X30.9796 Y32.9141 F1200
G1 X31.1468 Y33.1007 F1200
G1 X31.3178 Y33.2837 F1200
G1 X31.4926 Y33.4631 F1200
G1 X31.6711 Y33.6388 F1200
G1 X31.8532 Y33.8108 F1200
G1 X32.0389 Y33.9789 F1200
G1 X32.2281 Y34.1431 F1200
G1 X32.4206 Y34.3034 F1200
G1 X32.6164 Y34.4596 F1200
G1 X32.8155 Y34.6116 F1200
G1 X33.0177 Y34.7595 F1200
G1 X33.2229 Y34.9031 F1200
G1 X33.4311 Y35.0424 F1200
G1 X33.6421 Y35.1773 F1200
G1 X33.856 Y35.3078 F1200
G1 X34.0725 Y35.4338 F1200
G1 X34.2915 Y35.5553 F1200
G1 X34.5131 Y35.6721 F1200
G1 X34.737 Y35.7843 F1200
G1 X34.9633 Y35.8918 F1200
G1 X35.1917 Y35.9946 F1200
G1 X35.4223 Y36.0925 F1200
G1 X35.6548 Y36.1857 F1200
G1 X35.8892 Y36.2739 F1200
G1 X36.1254 Y36.3573 F1200
G1 X36.3633 Y36.4357 F1200
G1 X36.6028 Y36.5091 F1200
G1 X36.8438 Y36.5775 F1200
G1 X37.0861 Y36.6409 F1200
G1 X37.3297 Y36.6991 F1200
G1 X37.5745 Y36.7523 F1200
G1 X37.8204 Y36.8004 F1200
G1 X38.0671 Y36.8433 F1200
G1 X38.3148 Y36.8811 F1200
G1 X38.5631 Y36.9137 F1200
G1 X38.8121 Y36.9411 F1200
G1 X39.0616 Y36.9633 F1200
G1 X39.3115 Y36.9802 F1200
G1 X39.5617 Y36.992 F1200
G1 X39.8121 Y36.9985 F1200
G1 X40.0626 Y36.9998 F1200
G1 X40.3131 Y36.9959 F1200
G1 X40.5634 Y36.9868 F1200
G1 X40.8135 Y36.9724 F1200
G1 X41.0632 Y36.9528 F1200
G1 X41.3125 Y36.928 F1200
G1 X41.5611 Y36.898 F1200
G1 X41.8091 Y36.8628 F1200
G1 X42.0564 Y36.8225 F1200
G1 X42.3027 Y36.777 F1200
G1 X42.548 Y36.7264 F1200
G1 X42.7922 Y36.6706 F1200
G1 X43.0352 Y36.6098 F1200
G1 X43.2769 Y36.5439 F1200
G1 X43.5171 Y36.473 F1200
G1 X43.7558 Y36.3971 F1200
G1 X43.9929 Y36.3162 F1200
G1 X44.2282 Y36.2304 F1200
G1 X44.4617 Y36.1397 F1200
G1 X44.6933 Y36.0442 F1200
G1 X44.9228 Y35.9438 F1200
G1 X45.1501 Y35.8387 F1200
G1 X45.3752 Y35.7288 F1200
G1 X45.598 Y35.6143 F1200
G1 X45.8183 Y35.4951 F1200
G1 X46.0361 Y35.3714 F1200
G1 X46.2513 Y35.2431 F1200
G1 X46.4637 Y35.1104 F1200
G1 X46.6734 Y34.9733 F1200
G1 X46.8801 Y34.8318 F1200
G1 X47.0838 Y34.6861 F1200
G1 X47.2844 Y34.5361 F1200
G1 X47.4819 Y34.382 F1200
G1 X47.6761 Y34.2238 F1200
G1 X47.8669 Y34.0615 F1200
G1 X48.0544 Y33.8954 F1200
G1 X48.2383 Y33.7253 F1200
G1 X48.4186 Y33.5514 F1200
G1 X48.5953 Y33.3739 F1200
G1 X48.7682 Y33.1926 F1200
G1 X48.9373 Y33.0078 F1200
G1 X49.1025 Y32.8195 F1200
G1 X49.2637 Y32.6278 F1200
G1 X49.4209 Y32.4328 F1200
G1 X49.574 Y32.2346 F1200
G1 X49.7229 Y32.0331 F1200
G1 X49.8676 Y31.8287 F1200
G1 X50.008 Y31.6212 F1200
G1 X50.144 Y31.4109 F1200
G1 X50.2756 Y31.1977 F1200
G1 X50.4027 Y30.9819 F1200
G1 X50.5253 Y30.7635 F1200
G1 X50.6433 Y30.5425 F1200
G1 X50.7567 Y30.3192 F1200
G1 X50.8654 Y30.0935 F1200
G1 X50.9693 Y29.8656 F1200
G1 X51.0685 Y29.6356 F1200
G1 X51.1628 Y29.4035 F1200
G1 X51.2523 Y29.1696 F1200
G1 X51.3369 Y28.9338 F1200
G1 X51.4165 Y28.6963 F1200
G1 X51.4912 Y28.4572 F1200
G1 X51.5609 Y28.2166 F1200
G1 X51.6255 Y27.9746 F1200
G1 X51.685 Y27.7313 F1200
G1 X51.7395 Y27.4868 F1200
G1 X51.7889 Y27.2412 F1200
G1 X51.8331 Y26.9946 F1200
G1 X51.8721 Y26.7472 F1200
G1 X51.906 Y26.499 F1200
G1 X51.9347 Y26.2502 F1200
G1 X51.9582 Y26.0008 F1200
G1 X51.9765 Y25.751 F1200
G1 X51.9895 Y25.5008 F1200
G1 X51.9974 Y25.2505 F1200
G1 X52 Y25 F1200
G0 Z5
G0 X15 Y15 Z5
G1 Z0 F1200
G1 X15.121 Y15.2988 F1200
G1 X15.2438 Y15.5952 F1200
G1 X15.3686 Y15.8892 F1200
G1 X15.4952 Y16.1808 F1200
G1 X15.6237 Y16.47 F1200
G1 X15.754 Y16.7568 F1200
G1 X15.8862 Y17.0412 F1200
G1 X16.0201 Y17.3232 F1200
G1 X16.1559 Y17.6028 F1200
G1 X16.2934 Y17.88 F1200
G1 X16.4328 Y18.1548 F1200
G1 X16.5738 Y18.4272 F1200
G1 X16.7166 Y18.6972 F1200
G1 X16.8611 Y18.9648 F1200
G1 X17.0074 Y19.23 F1200
G1 X17.1553 Y19.4928 F1200
G1 X17.3049 Y19.7532 F1200
G1 X17.4561 Y20.0112 F1200
G1 X17.609 Y20.2668 F1200
G1 X17.7635 Y20.52 F1200
G1 X17.9197 Y20.7708 F1200
G1 X18.0774 Y21.0192 F1200
G1 X18.2367 Y21.2652 F1200
G1 X18.3976 Y21.5088 F1200
G1 X18.56 Y21.75 F1200
G1 X18.724 Y21.9888 F1200
G1 X18.8895 Y22.2252 F1200
G1 X19.0564 Y22.4592 F1200
G1 X19.2249 Y22.6908 F1200
G1 X19.3949 Y22.92 F1200
G1 X19.5663 Y23.1468 F1200
G1 X19.7392 Y23.3712 F1200
G1 X19.9134 Y23.5932 F1200
G1 X20.0891 Y23.8128 F1200
G1 X20.2662 Y24.03 F1200
G1 X20.4447 Y24.2448 F1200
G1 X20.6246 Y24.4572 F1200
G1 X20.8058 Y24.6672 F1200
G1 X20.9883 Y24.8748 F1200
G1 X21.1722 Y25.08 F1200
G1 X21.3573 Y25.2828 F1200
G1 X21.5438 Y25.4832 F1200
G1 X21.7315 Y25.6812 F1200
G1 X21.9205 Y25.8768 F1200
G1 X22.1107 Y26.07 F1200
G1 X22.3022 Y26.2608 F1200
G1 X22.4949 Y26.4492 F1200
G1 X22.6887 Y26.6352 F1200
G1 X22.8838 Y26.8188 F1200
G1 X23.08 Y27 F1200
G1 X23.2774 Y27.1788 F1200
G1 X23.4759 Y27.3552 F1200
G1 X23.6755 Y27.5292 F1200
G1 X23.8763 Y27.7008 F1200
G1 X24.0781 Y27.87 F1200
G1 X24.281 Y28.0368 F1200
G1 X24.4849 Y28.2012 F1200
G1 X24.69 Y28.3632 F1200
G1 X24.896 Y28.5228 F1200
G1 X25.103 Y28.68 F1200
G1 X25.3111 Y28.8348 F1200
G1 X25.5201 Y28.9872 F1200
G1 X25.7301 Y29.1372 F1200
G1 X25.9411 Y29.2848 F1200
G1 X26.153 Y29.43 F1200
G1 X26.3658 Y29.5728 F1200
G1 X26.5795 Y29.7132 F1200
G1 X26.7941 Y29.8512 F1200
G1 X27.0096 Y29.9868 F1200
G1 X27.2259 Y30.12 F1200
G1 X27.4431 Y30.2508 F1200
G1 X27.6611 Y30.3792 F1200
G1 X27.88 Y30.5052 F1200
G1 X28.0996 Y30.6288 F1200
G1 X28.32 Y30.75 F1200
G1 X28.5412 Y30.8688 F1200
G1 X28.7631 Y30.9852 F1200
G1 X28.9858 Y31.0992 F1200
G1 X29.2092 Y31.2108 F1200
G1 X29.4333 Y31.32 F1200
G1 X29.6581 Y31.4268 F1200
G1 X29.8835 Y31.5312 F1200
G1 X30.1097 Y31.6332 F1200
G1 X30.3364 Y31.7328 F1200
G1 X30.5638 Y31.83 F1200
G1 X30.7919 Y31.9248 F1200
G1 X31.0205 Y32.0172 F1200
G1 X31.2497 Y32.1072 F1200
G1 X31.4794 Y32.1948 F1200
G1 X31.7098 Y32.28 F1200
G1 X31.9406 Y32.3628 F1200
G1 X32.172 Y32.4432 F1200
G1 X32.4039 Y32.5212 F1200
G1 X32.6363 Y32.5968 F1200
G1 X32.8691 Y32.67 F1200
G1 X33.1024 Y32.7408 F1200
G1 X33.3362 Y32.8092 F1200
G1 X33.5704 Y32.8752 F1200
G1 X33.805 Y32.9388 F1200
G1 X34.04 Y33 F1200
G1 X34.2754 Y33.0588 F1200
G1 X34.5111 Y33.1152 F1200
G1 X34.7473 Y33.1692 F1200
G1 X34.9837 Y33.2208 F1200
G1 X35.2205 Y33.27 F1200
G1 X35.4576 Y33.3168 F1200
G1 X35.6949 Y33.3612 F1200
G1 X35.9326 Y33.4032 F1200
G1 X36.1705 Y33.4428 F1200
G1 X36.4086 Y33.48 F1200
G1 X36.647 Y33.5148 F1200
G1 X36.8856 Y33.5472 F1200
G1 X37.1244 Y33.5772 F1200
G1 X37.3634 Y33.6048 F1200
G1 X37.6026 Y33.63 F1200
G1 X37.8419 Y33.6528 F1200
G1 X38.0813 Y33.6732 F1200
G1 X38.3209 Y33.6912 F1200
G1 X38.5606 Y33.7068 F1200
G1 X38.8003 Y33.72 F1200
G1 X39.0402 Y33.7308 F1200
G1 X39.2801 Y33.7392 F1200
G1 X39.52 Y33.7452 F1200
G1 X39.76 Y33.7488 F1200
G1 X40 Y33.75 F1200
G1 X40.24 Y33.7488 F1200
G1 X40.48 Y33.7452 F1200
G1 X40.7199 Y33.7392 F1200
G1 X40.9598 Y33.7308 F1200
G1 X41.1997 Y33.72 F1200
G1 X41.4394 Y33.7068 F1200
G1 X41.6791 Y33.6912 F1200
G1 X41.9187 Y33.6732 F1200
G1 X42.1581 Y33.6528 F1200
G1 X42.3974 Y33.63 F1200
G1 X42.6366 Y33.6048 F1200
G1 X42.8756 Y33.5772 F1200
G1 X43.1144 Y33.5472 F1200
G1 X43.353 Y33.5148 F1200
G1 X43.5914 Y33.48 F1200
G1 X43.8295 Y33.4428 F1200
G1 X44.0674 Y33.4032 F1200
G1 X44.3051 Y33.3612 F1200
G1 X44.5424 Y33.3168 F1200
G1 X44.7795 Y33.27 F1200
G1 X45.0163 Y33.2208 F1200
G1 X45.2527 Y33.1692 F1200
G1 X45.4889 Y33.1152 F1200
G1 X45.7246 Y33.0588 F1200
G1 X45.96 Y33 F1200
G1 X46.195 Y32.9388 F1200
G1 X46.4296 Y32.8752 F1200
G1 X46.6638 Y32.8092 F1200
G1 X46.8976 Y32.7408 F1200
G1 X47.1309 Y32.67 F1200
G1 X47.3637 Y32.5968 F1200
G1 X47.5961 Y32.5212 F1200
G1 X47.828 Y32.4432 F1200
G1 X48.0594 Y32.3628 F1200
G1 X48.2902 Y32.28 F1200
G1 X48.5206 Y32.1948 F1200
G1 X48.7503 Y32.1072 F1200
G1 X48.9795 Y32.0172 F1200
G1 X49.2081 Y31.9248 F1200
G1 X49.4362 Y31.83 F1200
G1 X49.6636 Y31.7328 F1200
G1 X49.8903 Y31.6332 F1200
G1 X50.1165 Y31.5312 F1200
G1 X50.3419 Y31.4268 F1200
G1 X50.5667 Y31.32 F1200
G1 X50.7908 Y31.2108 F1200
G1 X51.0142 Y31.0992 F1200
G1 X51.2369 Y30.9852 F1200
G1 X51.4588 Y30.8688 F1200
G1 X51.68 Y30.75 F1200
G1 X51.9004 Y30.6288 F1200
G1 X52.12 Y30.5052 F1200
G1 X52.3389 Y30.3792 F1200
G1 X52.5569 Y30.2508 F1200
G1 X52.7741 Y30.12 F1200
G1 X52.9904 Y29.9868 F1200
G1 X53.2059 Y29.8512 F1200
G1 X53.4205 Y29.7132 F1200
G1 X53.6342 Y29.5728 F1200
G1 X53.847 Y29.43 F1200
G1 X54.0589 Y29.2848 F1200
G1 X54.2699 Y29.1372 F1200
G1 X54.4799 Y28.9872 F1200
G1 X54.6889 Y28.8348 F1200
G1 X54.897 Y28.68 F1200
G1 X55.104 Y28.5228 F1200
G1 X55.31 Y28.3632 F1200
G1 X55.5151 Y28.2012 F1200
G1 X55.719 Y28.0368 F1200
G1 X55.9219 Y27.87 F1200
G1 X56.1237 Y27.7008 F1200
G1 X56.3245 Y27.5292 F1200
G1 X56.5241 Y27.3552 F1200
G1 X56.7226 Y27.1788 F1200
G1 X56.92 Y27 F1200
G1 X57.1162 Y26.8188 F1200
G1 X57.3113 Y26.6352 F1200
G1 X57.5051 Y26.4492 F1200
G1 X57.6978 Y26.2608 F1200
G1 X57.8893 Y26.07 F1200
G1 X58.0795 Y25.8768 F1200
G1 X58.2685 Y25.6812 F1200
G1 X58.4562 Y25.4832 F1200
G1 X58.6427 Y25.2828 F1200
G1 X58.8278 Y25.08 F1200
G1 X59.0117 Y24.8748 F1200
G1 X59.1942 Y24.6672 F1200
G1 X59.3754 Y24.4572 F1200
G1 X59.5553 Y24.2448 F1200
G1 X59.7338 Y24.03 F1200
G1 X59.9109 Y23.8128 F1200
G1 X60.0866 Y23.5932 F1200
G1 X60.2608 Y23.3712 F1200
G1 X60.4337 Y23.1468 F1200
G1 X60.6051 Y22.92 F1200
G1 X60.7751 Y22.6908 F1200
G1 X60.9436 Y22.4592 F1200
G1 X61.1105 Y22.2252 F1200
G1 X61.276 Y21.9888 F1200
G1 X61.44 Y21.75 F1200
G1 X61.6024 Y21.5088 F1200
G1 X61.7633 Y21.2652 F1200
G1 X61.9226 Y21.0192 F1200
G1 X62.0803 Y20.7708 F1200
G1 X62.2365 Y20.52 F1200
G1 X62.391 Y20.2668 F1200
G1 X62.5439 Y20.0112 F1200
G1 X62.6951 Y19.7532 F1200
G1 X62.8447 Y19.4928 F1200
G1 X62.9926 Y19.23 F1200
G1 X63.1389 Y18.9648 F1200
G1 X63.2834 Y18.6972 F1200
G1 X63.4262 Y18.4272 F1200
G1 X63.5672 Y18.1548 F1200
G1 X63.7066 Y17.88 F1200
G1 X63.8441 Y17.6028 F1200
G1 X63.9799 Y17.3232 F1200
G1 X64.1138 Y17.0412 F1200
G1 X64.246 Y16.7568 F1200
G1 X64.3763 Y16.47 F1200
G1 X64.5048 Y16.1808 F1200
G1 X64.6314 Y15.8892 F1200
G1 X64.7562 Y15.5952 F1200
G1 X64.879 Y15.2988 F1200
G1 X65 Y15 F1200
G0 Z5
M2
