(Generated by svg_to_gcode.pyw)
G21
G90
G0 F3000
G0 Z5
G0 X5 Y45 Z5
G1 Z0 F1200
G1 X75 Y45 A0 F1200
G1 X75 Y5 A-90 F1200
G1 X5 Y5 A-180 F1200
G1 X5 Y45 A-270 F1200
G0 Z5
G0 X52 Y25 Z5
G1 Z0 F1200
G1 X51.9974 Y24.7495 A-90.598 F1200
G1 X51.9895 Y24.4992 A-91.794 F1200
G1 X51.9765 Y24.249 A-92.99 F1200
G1 X51.9582 Y23.9992 A-94.186 F1200
G1 X51.9347 Y23.7498 A-95.3821 F1200
G1 X51.906 Y23.501 A-96.5781 F1200
G1 X51.8721 Y23.2528 A-97.7741 F1200
G1 X51.8331 Y23.0054 A-98.9701 F1200
G1 X51.7889 Y22.7588 A-100.1661 F1200
G1 X51.7395 Y22.5132 A-101.3621 F1200
G1 X51.685 Y22.2687 A-102.5581 F1200
G1 X51.6255 Y22.0254 A-103.7542 F1200
G1 X51.5609 Y21.7834 A-104.9502 F1200
G1 X51.4912 Y21.5428 A-106.1462 F1200
G1 X51.4165 Y21.3037 A-107.3422 F1200
G1 X51.3369 Y21.0662 A-108.5382 F1200
G1 X51.2523 Y20.8304 A-109.7342 F1200
G1 X51.1628 Y20.5965 A-110.9302 F1200
G1 X51.0685 Y20.3644 A-112.1262 F1200
G1 X50.9693 Y20.1344 A-113.3223 F1200
G1 X50.8654 Y19.9065 A-114.5183 F1200
G1 X50.7567 Y19.6808 A-115.7143 F1200
G1 X50.6433 Y19.4575 A-116.9103 F1200
G1 X50.5253 Y19.2365 A-118.1063 F1200
G1 X50.4027 Y19.0181 A-119.3023 F1200
G1 X50.2756 Y18.8023 A-120.4983 F1200
G1 X50.144 Y18.5891 A-121.6944 F1200
G1 X50.008 Y18.3788 A-122.8904 F1200
G1 X49.8676 Y18.1713 A-124.0864 F1200
G1 X49.7229 Y17.9669 A-125.2824 F1200
G1 X49.574 Y17.7654 A-126.4784 F1200
G1 X49.4209 Y17.5672 A-127.6744 F1200
G1 X49.2637 Y17.3722 A-128.8704 F1200
G1 X49.1025 Y17.1805 A-130.0664 F1200
G1 X48.9373 Y16.9922 A-131.2625 F1200
G1 X48.7682 Y16.8074 A-132.4585 F1200
G1 X48.5953 Y16.6261 A-133.6545 F1200
G1 X48.4186 Y16.4486 A-134.8505 F1200
G1 X48.2383 Y16.2747 A-136.0465 F1200
G1 X48.0544 Y16.1046 A-137.2425 F1200
G1 X47.8669 Y15.9385 A-138.4385 F1200
G1 X47.6761 Y15.7762 A-139.6346 F1200
G1 X47.4819 Y15.618 A-140.8306 F1200
G1 X47.2844 Y15.4639 A-142.0266 F1200
G1 X47.0838 Y15.3139 A-143.2226 F1200
G1 X46.8801 Y15.1682 A-144.4186 F1200
G1 X46.6734 Y15.0267 A-145.6146 F1200
G1 X46.4637 Y14.8896 A-146.8106 F1200
G1 X46.2513 Y14.7569 A-148.0066 F1200
G1 X46.0361 Y14.6286 A-149.2027 F1200
G1 X45.8183 Y14.5049 A-150.3987 F1200
G1 X45.598 Y14.3857 A-151.5947 F1200
G1 X45.3752 Y14.2712 A-152.7907 F1200
G1 X45.1501 Y14.1613 A-153.9867 F1200
G1 X44.9228 Y14.0562 A-155.1827 F1200
G1 X44.6933 Y13.9558 A-156.3787 F1200
G1 X44.4617 Y13.8603 A-157.5748 F1200
G1 X44.2282 Y13.7696 A-158.7708 F1200
G1 X43.9929 Y13.6838 A-159.9668 F1200
G1 X43.7558 Y13.6029 A-161.1628 F1200
G1 X43.5171 Y13.527 A-162.3588 F1200
G1 X43.2769 Y13.4561 A-163.5548 F1200
G1 X43.0352 Y13.3902 A-164.7508 F1200
G1 X42.7922 Y13.3294 A-165.9468 F1200
G1 X42.548 Y13.2736 A-167.1429 F1200
G1 X42.3027 Y13.223 A-168.3389 F1200
G1 X42.0564 Y13.1775 A-169.5349 F1200
G1 X41.8091 Y13.1372 A-170.7309 F1200
G1 X41.5611 Y13.102 A-171.9269 F1200
G1 X41.3125 Y13.072 A-173.1229 F1200
G1 X41.0632 Y13.0472 A-174.3189 F1200
G1 X40.8135 Y13.0276 A-175.515 F1200
G1 X40.5634 Y13.0132 A-176.711 F1200
G1 X40.3131 Y13.0041 A-177.907 F1200
G1 X40.0626 Y13.0002 A-179.103 F1200
G1 X39.8121 Y13.0015 A-180.299 F1200
G1 X39.5617 Y13.008 A-181.495 F1200
G1 X39.3115 Y13.0198 A-182.691 F1200
G1 X39.0616 Y13.0367 A-183.887 F1200
G1 X38.8121 Y13.0589 A-185.0831 F1200
G1 X38.5631 Y13.0863 A-186.2791 F1200
G1 X38.3148 Y13.1189 A-187.4751 F1200
G1 X38.0671 Y13.1567 A-188.6711 F1200
G1 X37.8204 Y13.1996 A-189.8671 F1200
G1 X37.5745 Y13.2477 A-191.0631 F1200
G1 X37.3297 Y13.3009 A-192.2591 F1200
G1 X37.0861 Y13.3591 A-193.4551 F1200
G1 X36.8438 Y13.4225 A-194.6512 F1200
G1 X36.6028 Y13.4909 A-195.8472 F1200
G1 X36.3633 Y13.5643 A-197.0432 F1200
G1 X36.1254 Y13.6427 A-198.2392 F1200
G1 X35.8892 Y13.7261 A-199.4352 F1200
G1 X35.6548 Y13.8143 A-200.6312 F1200
G1 X35.4223 Y13.9075 A-201.8272 F1200
G1 X35.1917 Y14.0054 A-203.0233 F1200
G1 X34.9633 Y14.1082 A-204.2193 F1200
G1 X34.737 Y14.2157 A-205.4153 F1200
G1 X34.5131 Y14.3279 A-206.6113 F1200
G1 X34.2915 Y14.4447 A-207.8073 F1200
G1 X34.0725 Y14.5662 A-209.0033 F1200
G1 X33.856 Y14.6922 A-210.1993 F1200
G1 X33.6421 Y14.8227 A-211.3953 F1200
G1 X33.4311 Y14.9576 A-212.5914 F1200
G1 X33.2229 Y15.0969 A-213.7874 F1200
G1 X33.0177 Y15.2405 A-214.9834 F1200
G1 X32.8155 Y15.3884 A-216.1794 F1200
G1 X32.6164 Y15.5404 A-217.3754 F1200
G1 X32.4206 Y15.6966 A-218.5714 F1200
G1 X32.2281 Y15.8569 A-219.7674 F1200
G1 X32.0389 Y16.0211 A-220.9635 F1200
G1 X31.8532 Y16.1892 A-222.1595 F1200
G1 X31.6711 Y16.3612 A-223.3555 F1200
G1 X31.4926 Y16.5369 A-224.5515 F1200
G1 X31.3178 Y16.7163 A-225.7475 F1200
G1 X31.1468 Y16.8993 A-226.9435 F1200
G1 X30.9796 Y17.0859 A-228.1395 F1200
G1 X30.8164 Y17.2759 A-229.3355 F1200
G1 X30.6572 Y17.4693 A-230.5316 F1200
G1 X30.502 Y17.6659 A-231.7276 F1200
G1 X30.351 Y17.8658 A-232.9236 F1200
G1 X30.2042 Y18.0687 A-234.1196 F1200
G1 X30.0617 Y18.2747 A-235.3156 F1200
G1 X29.9235 Y18.4836 A-236.5116 F1200
G1 X29.7896 Y18.6953 A-237.7076 F1200
G1 X29.6603 Y18.9098 A-238.9037 F1200
G1 X29.5354 Y19.127 A-240.0997 F1200
G1 X29.4151 Y19.3467 A-241.2957 F1200
G1 X29.2994 Y19.5689 A-242.4917 F1200
G1 X29.1884 Y19.7934 A-243.6877 F1200
G1 X29.0821 Y20.0202 A-244.8837 F1200
G1 X28.9805 Y20.2492 A-246.0797 F1200
G1 X28.8837 Y20.4802 A-247.2757 F1200
G1 X28.7918 Y20.7132 A-248.4718 F1200
G1 X28.7048 Y20.9481 A-249.6678 F1200
G1 X28.6227 Y21.1848 A-250.8638 F1200
G1 X28.5455 Y21.4231 A-252.0598 F1200
G1 X28.4733 Y21.6629 A-253.2558 F1200
G1 X28.4062 Y21.9043 A-254.4518 F1200
G1 X28.3441 Y22.1469 A-255.6478 F1200
G1 X28.2871 Y22.3908 A-256.8439 F1200
G1 X28.2352 Y22.6359 A-258.0399 F1200
G1 X28.1884 Y22.882 A-259.2359 F1200
G1 X28.1468 Y23.129 A-260.4319 F1200
G1 X28.1103 Y23.3768 A-261.6279 F1200
G1 X28.079 Y23.6253 A-262.8239 F1200
G1 X28.0529 Y23.8744 A-264.0199 F1200
G1 X28.032 Y24.1241 A-265.2159 F1200
G1 X28.0163 Y24.3741 A-266.412 F1200
G1 X28.0059 Y24.6243 A-267.608 F1200
G1 X28.0007 Y24.8748 A-268.804 F1200
G1 X28.0007 Y25.1252 A-270 F1200
G1 X28.0059 Y25.3757 A-271.196 F1200
G1 X28.0163 Y25.6259 A-272.392 F1200
G1 X28.032 Y25.8759 A-273.588 F1200
G1 X28.0529 Y26.1256 A-274.7841 F1200
G1 X28.079 Y26.3747 A-275.9801 F1200
G1 X28.1103 Y26.6232 A-277.1761 F1200
G1 X28.1468 Y26.871 A-278.3721 F1200
G1 X28.1884 Y27.118 A-279.5681 F1200
G1 X28.2352 Y27.3641 A-280.7641 F1200
G1 X28.2871 Y27.6092 A-281.9601 F1200
G1 X28.3441 Y27.8531 A-283.1561 F1200
G1 X28.4062 Y28.0957 A-284.3522 F1200
G1 X28.4733 Y28.3371 A-285.5482 F1200
G1 X28.5455 Y28.5769 A-286.7442 F1200
G1 X28.6227 Y28.8152 A-287.9402 F1200
G1 X28.7048 Y29.0519 A-289.1362 F1200
G1 X28.7918 Y29.2868 A-290.3322 F1200
G1 X28.8837 Y29.5198 A-291.5282 F1200
G1 X28.9805 Y29.7508 A-292.7243 F1200
G1 X29.0821 Y29.9798 A-293.9203 F1200
G1 X29.1884 Y30.2066 A-295.1163 F1200
G1 X29.2994 Y30.4311 A-296.3123 F1200
G1 X29.4151 Y30.6533 A-297.5083 F1200
G1 X29.5354 Y30.873 A-298.7043 F1200
G1 X29.6603 Y31.0902 A-299.9003 F1200
G1 X29.7896 Y31.3047 A-301.0963 F1200
G1 X29.9235 Y31.5164 A-302.2924 F1200
G1 X30.0617 Y31.7253 A-303.4884 F1200
G1 X30.2042 Y31.9313 A-304.6844 F1200
G1 X30.351 Y32.1342 A-305.8804 F1200
G1 X30.502 Y32.3341 A-307.0764 F1200
G1 X30.6572 Y32.5307 A-308.2724 F1200
G1 X30.8164 Y32.7241 A-309.4684 F1200
G1 X30.9796 Y32.9141 A-310.6645 F1200
G1 X31.1468 Y33.1007 A-311.8605 F1200
G1 X31.3178 Y33.2837 A-313.0565 F1200
G1 X31.4926 Y33.4631 A-314.2525 F1200
G1 X31.6711 Y33.6388 A-315.4485 F1200
G1 X31.8532 Y33.8108 A-316.6445 F1200
G1 X32.0389 Y33.9789 A-317.8405 F1200
G1 X32.2281 Y34.1431 A-319.0365 F1200
G1 X32.4206 Y34.3034 A-320.2326 F1200
G1 X32.6164 Y34.4596 A-321.4286 F1200
G1 X32.8155 Y34.6116 A-322.6246 F1200
G1 X33.0177 Y34.7595 A-323.8206 F1200
G1 X33.2229 Y34.9031 A-325.0166 F1200
G1 X33.4311 Y35.0424 A-326.2126 F1200
G1 X33.6421 Y35.1773 A-327.4086 F1200
G1 X33.856 Y35.3078 A-328.6047 F1200
G1 X34.0725 Y35.4338 A-329.8007 F1200
G1 X34.2915 Y35.5553 A-330.9967 F1200
G1 X34.5131 Y35.6721 A-332.1927 F1200
G1 X34.737 Y35.7843 A-333.3887 F1200
G1 X34.9633 Y35.8918 A-334.5847 F1200
G1 X35.1917 Y35.9946 A-335.7807 F1200
G1 X35.4223 Y36.0925 A-336.9767 F1200
G1 X35.6548 Y36.1857 A-338.1728 F1200
G1 X35.8892 Y36.2739 A-339.3688 F1200
G1 X36.1254 Y36.3573 A-340.5648 F1200
G1 X36.3633 Y36.4357 A-341.7608 F1200
G1 X36.6028 Y36.5091 A-342.9568 F1200
G1 X36.8438 Y36.5775 A-344.1528 F1200
G1 X37.0861 Y36.6409 A-345.3488 F1200
G1 X37.3297 Y36.6991 A-346.5449 F1200
G1 X37.5745 Y36.7523 A-347.7409 F1200
G1 X37.8204 Y36.8004 A-348.9369 F1200
G1 X38.0671 Y36.8433 A-350.1329 F1200
G1 X38.3148 Y36.8811 A-351.3289 F1200
G1 X38.5631 Y36.9137 A-352.5249 F1200
G1 X38.8121 Y36.9411 A-353.7209 F1200
G1 X39.0616 Y36.9633 A-354.9169 F1200
G1 X39.3115 Y36.9802 A-356.113 F1200
G1 X39.5617 Y36.992 A-357.309 F1200
G1 X39.8121 Y36.9985 A-358.505 F1200
G1 X40.0626 Y36.9998 A-359.701 F1200
G1 X40.3131 Y36.9959 A-360.897 F1200
G1 X40.5634 Y36.9868 A-362.093 F1200
G1 X40.8135 Y36.9724 A-363.289 F1200
G1 X41.0632 Y36.9528 A-364.485 F1200
G1 X41.3125 Y36.928 A-365.6811 F1200
G1 X41.5611 Y36.898 A-366.8771 F1200
G1 X41.8091 Y36.8628 A-368.0731 F1200
G1 X42.0564 Y36.8225 A-369.2691 F1200
G1 X42.3027 Y36.777 A-370.4651 F1200
G1 X42.548 Y36.7264 A-371.6611 F1200
G1 X42.7922 Y36.6706 A-372.8571 F1200
G1 X43.0352 Y36.6098 A-374.0532 F1200
G1 X43.2769 Y36.5439 A-375.2492 F1200
G1 X43.5171 Y36.473 A-376.4452 F1200
G1 X43.7558 Y36.3971 A-377.6412 F1200
G1 X43.9929 Y36.3162 A-378.8372 F1200
G1 X44.2282 Y36.2304 A-380.0332 F1200
G1 X44.4617 Y36.1397 A-381.2292 F1200
G1 X44.6933 Y36.0442 A-382.4252 F1200
G1 X44.9228 Y35.9438 A-383.6213 F1200
G1 X45.1501 Y35.8387 A-384.8173 F1200
G1 X45.3752 Y35.7288 A-386.0133 F1200
G1 X45.598 Y35.6143 A-387.2093 F1200
G1 X45.8183 Y35.4951 A-388.4053 F1200
G1 X46.0361 Y35.3714 A-389.6013 F1200
G1 X46.2513 Y35.2431 A-390.7973 F1200
G1 X46.4637 Y35.1104 A-391.9934 F1200
G1 X46.6734 Y34.9733 A-393.1894 F1200
G1 X46.8801 Y34.8318 A-394.3854 F1200
G1 X47.0838 Y34.6861 A-395.5814 F1200
G1 X47.2844 Y34.5361 A-396.7774 F1200
G1 X47.4819 Y34.382 A-397.9734 F1200
G1 X47.6761 Y34.2238 A-399.1694 F1200
G1 X47.8669 Y34.0615 A-400.3654 F1200
G1 X48.0544 Y33.8954 A-401.5615 F1200
G1 X48.2383 Y33.7253 A-402.7575 F1200
G1 X48.4186 Y33.5514 A-403.9535 F1200
G1 X48.5953 Y33.3739 A-405.1495 F1200
G1 X48.7682 Y33.1926 A-406.3455 F1200
G1 X48.9373 Y33.0078 A-407.5415 F1200
G1 X49.1025 Y32.8195 A-408.7375 F1200
G1 X49.2637 Y32.6278 A-409.9336 F1200
G1 X49.4209 Y32.4328 A-411.1296 F1200
G1 X49.574 Y32.2346 A-412.3256 F1200
G1 X49.7229 Y32.0331 A-413.5216 F1200
G1 X49.8676 Y31.8287 A-414.7176 F1200
G1 X50.008 Y31.6212 A-415.9136 F1200
G1 X50.144 Y31.4109 A-417.1096 F1200
G1 X50.2756 Y31.1977 A-418.3056 F1200
G1 X50.4027 Y30.9819 A-419.5017 F1200
G1 X50.5253 Y30.7635 A-420.6977 F1200
G1 X50.6433 Y30.5425 A-421.8937 F1200
G1 X50.7567 Y30.3192 A-423.0897 F1200
G1 X50.8654 Y30.0935 A-424.2857 F1200
G1 X50.9693 Y29.8656 A-425.4817 F1200
G1 X51.0685 Y29.6356 A-426.6777 F1200
G1 X51.1628 Y29.4035 A-427.8738 F1200
G1 X51.2523 Y29.1696 A-429.0698 F1200
G1 X51.3369 Y28.9338 A-430.2658 F1200
G1 X51.4165 Y28.6963 A-431.4618 F1200
G1 X51.4912 Y28.4572 A-432.6578 F1200
G1 X51.5609 Y28.2166 A-433.8538 F1200
G1 X51.6255 Y27.9746 A-435.0498 F1200
G1 X51.685 Y27.7313 A-436.2458 F1200
G1 X51.7395 Y27.4868 A-437.4419 F1200
G1 X51.7889 Y27.2412 A-438.6379 F1200
G1 X51.8331 Y26.9946 A-439.8339 F1200
G1 X51.8721 Y26.7472 A-441.0299 F1200
G1 X51.906 Y26.499 A-442.2259 F1200
G1 X51.9347 Y26.2502 A-443.4219 F1200
G1 X51.9582 Y26.0008 A-444.6179 F1200
G1 X51.9765 Y25.751 A-445.814 F1200
G1 X51.9895 Y25.5008 A-447.01 F1200
G1 X51.9974 Y25.2505 A-448.206 F1200
G1 X52 Y25 A-449.402 F1200
G0 Z5
G0 X15 Y15 Z5
G1 Z0 F1200
G1 X15.121 Y15.2988 A-292.0386 F1200
G1 X15.2438 Y15.5952 A-292.5147 F1200
G1 X15.3686 Y15.8892 A-292.9927 F1200
G1 X15.4952 Y16.1808 A-293.4726 F1200
G1 X15.6237 Y16.47 A-293.9543 F1200
G1 X15.754 Y16.7568 A-294.4379 F1200
G1 X15.8862 Y17.0412 A-294.9233 F1200
G1 X16.0201 Y17.3232 A-295.4106 F1200
G1 X16.1559 Y17.6028 A-295.8997 F1200
G1 X16.2934 Y17.88 A-296.3905 F1200
G1 X16.4328 Y18.1548 A-296.8832 F1200
G1 X16.5738 Y18.4272 A-297.3776 F1200
G1 X16.7166 Y18.6972 A-297.8738 F1200
G1 X16.8611 Y18.9648 A-298.3716 F1200
G1 X17.0074 Y19.23 A-298.8712 F1200
G1 X17.1553 Y19.4928 A-299.3725 F1200
G1 X17.3049 Y19.7532 A-299.8755 F1200
G1 X17.4561 Y20.0112 A-300.3801 F1200
G1 X17.609 Y20.2668 A-300.8864 F1200
G1 X17.7635 Y20.52 A-301.3942 F1200
G1 X17.9197 Y20.7708 A-301.9037 F1200
G1 X18.0774 Y21.0192 A-302.4148 F1200
G1 X18.2367 Y21.2652 A-302.9274 F1200
G1 X18.3976 Y21.5088 A-303.4415 F1200
G1 X18.56 Y21.75 A-303.9572 F1200
G1 X18.724 Y21.9888 A-304.4744 F1200
G1 X18.8895 Y22.2252 A-304.993 F1200
G1 X19.0564 Y22.4592 A-305.5131 F1200
G1 X19.2249 Y22.6908 A-306.0346 F1200
G1 X19.3949 Y22.92 A-306.5576 F1200
G1 X19.5663 Y23.1468 A-307.0819 F1200
G1 X19.7392 Y23.3712 A-307.6076 F1200
G1 X19.9134 Y23.5932 A-308.1347 F1200
G1 X20.0891 Y23.8128 A-308.6631 F1200
G1 X20.2662 Y24.03 A-309.1928 F1200
G1 X20.4447 Y24.2448 A-309.7237 F1200
G1 X20.6246 Y24.4572 A-310.2559 F1200
G1 X20.8058 Y24.6672 A-310.7894 F1200
G1 X20.9883 Y24.8748 A-311.3241 F1200
G1 X21.1722 Y25.08 A-311.8599 F1200
G1 X21.3573 Y25.2828 A-312.397 F1200
G1 X21.5438 Y25.4832 A-312.9352 F1200
G1 X21.7315 Y25.6812 A-313.4745 F1200
G1 X21.9205 Y25.8768 A-314.0149 F1200
G1 X22.1107 Y26.07 A-314.5564 F1200
G1 X22.3022 Y26.2608 A-315.0989 F1200
G1 X22.4949 Y26.4492 A-315.6425 F1200
G1 X22.6887 Y26.6352 A-316.1871 F1200
G1 X22.8838 Y26.8188 A-316.7326 F1200
G1 X23.08 Y27 A-317.2792 F1200
G1 X23.2774 Y27.1788 A-317.8267 F1200
G1 X23.4759 Y27.3552 A-318.3751 F1200
G1 X23.6755 Y27.5292 A-318.9244 F1200
G1 X23.8763 Y27.7008 A-319.4746 F1200
G1 X24.0781 Y27.87 A-320.0256 F1200
G1 X24.281 Y28.0368 A-320.5775 F1200
G1 X24.4849 Y28.2012 A-321.1302 F1200
G1 X24.69 Y28.3632 A-321.6837 F1200
G1 X24.896 Y28.5228 A-322.2379 F1200
G1 X25.103 Y28.68 A-322.7929 F1200
G1 X25.3111 Y28.8348 A-323.3487 F1200
G1 X25.5201 Y28.9872 A-323.9051 F1200
G1 X25.7301 Y29.1372 A-324.4622 F1200
G1 X25.9411 Y29.2848 A-325.02 F1200
G1 X26.153 Y29.43 A-325.5785 F1200
G1 X26.3658 Y29.5728 A-326.1376 F1200
G1 X26.5795 Y29.7132 A-326.6973 F1200
G1 X26.7941 Y29.8512 A-327.2576 F1200
G1 X27.0096 Y29.9868 A-327.8184 F1200
G1 X27.2259 Y30.12 A-328.3799 F1200
G1 X27.4431 Y30.2508 A-328.9418 F1200
G1 X27.6611 Y30.3792 A-329.5043 F1200
G1 X27.88 Y30.5052 A-330.0673 F1200
G1 X28.0996 Y30.6288 A-330.6307 F1200
G1 X28.32 Y30.75 A-331.1947 F1200
G1 X28.5412 Y30.8688 A-331.7591 F1200
G1 X28.7631 Y30.9852 A-332.3239 F1200
G1 X28.9858 Y31.0992 A-332.8891 F1200
G1 X29.2092 Y31.2108 A-333.4548 F1200
G1 X29.4333 Y31.32 A-334.0208 F1200
G1 X29.6581 Y31.4268 A-334.5872 F1200
G1 X29.8835 Y31.5312 A-335.154 F1200
G1 X30.1097 Y31.6332 A-335.7211 F1200
G1 X30.3364 Y31.7328 A-336.2886 F1200
G1 X30.5638 Y31.83 A-336.8564 F1200
G1 X30.7919 Y31.9248 A-337.4245 F1200
G1 X31.0205 Y32.0172 A-337.9928 F1200
G1 X31.2497 Y32.1072 A-338.5615 F1200
G1 X31.4794 Y32.1948 A-339.1304 F1200
G1 X31.7098 Y32.28 A-339.6996 F1200
G1 X31.9406 Y32.3628 A-340.269 F1200
G1 X32.172 Y32.4432 A-340.8387 F1200
G1 X32.4039 Y32.5212 A-341.4086 F1200
G1 X32.6363 Y32.5968 A-341.9787 F1200
G1 X32.8691 Y32.67 A-342.549 F1200
G1 X33.1024 Y32.7408 A-343.1195 F1200
G1 X33.3362 Y32.8092 A-343.6902 F1200
G1 X33.5704 Y32.8752 A-344.2611 F1200
G1 X33.805 Y32.9388 A-344.8321 F1200
G1 X34.04 Y33 A-345.4033 F1200
G1 X34.2754 Y33.0588 A-345.9746 F1200
G1 X34.5111 Y33.1152 A-346.5461 F1200
G1 X34.7473 Y33.1692 A-347.1177 F1200
G1 X34.9837 Y33.2208 A-347.6894 F1200
G1 X35.2205 Y33.27 A-348.2613 F1200
G1 X35.4576 Y33.3168 A-348.8332 F1200
G1 X35.6949 Y33.3612 A-349.4053 F1200
G1 X35.9326 Y33.4032 A-349.9775 F1200
G1 X36.1705 Y33.4428 A-350.5497 F1200
G1 X36.4086 Y33.48 A-351.1221 F1200
G1 X36.647 Y33.5148 A-351.6945 F1200
G1 X36.8856 Y33.5472 A-352.267 F1200
G1 X37.1244 Y33.5772 A-352.8395 F1200
G1 X37.3634 Y33.6048 A-353.4121 F1200
G1 X37.6026 Y33.63 A-353.9848 F1200
G1 X37.8419 Y33.6528 A-354.5575 F1200
G1 X38.0813 Y33.6732 A-355.1303 F1200
G1 X38.3209 Y33.6912 A-355.7031 F1200
G1 X38.5606 Y33.7068 A-356.276 F1200
G1 X38.8003 Y33.72 A-356.8489 F1200
G1 X39.0402 Y33.7308 A-357.4218 F1200
G1 X39.2801 Y33.7392 A-357.9947 F1200
G1 X39.52 Y33.7452 A-358.5676 F1200
G1 X39.76 Y33.7488 A-359.1406 F1200
G1 X40 Y33.75 A-359.7135 F1200
G1 X40.24 Y33.7488 A-360.2865 F1200
G1 X40.48 Y33.7452 A-360.8594 F1200
G1 X40.7199 Y33.7392 A-361.4324 F1200
G1 X40.9598 Y33.7308 A-362.0053 F1200
G1 X41.1997 Y33.72 A-362.5782 F1200
G1 X41.4394 Y33.7068 A-363.1511 F1200
G1 X41.6791 Y33.6912 A-363.724 F1200
G1 X41.9187 Y33.6732 A-364.2969 F1200
G1 X42.1581 Y33.6528 A-364.8697 F1200
G1 X42.3974 Y33.63 A-365.4425 F1200
G1 X42.6366 Y33.6048 A-366.0152 F1200
G1 X42.8756 Y33.5772 A-366.5879 F1200
G1 X43.1144 Y33.5472 A-367.1605 F1200
G1 X43.353 Y33.5148 A-367.733 F1200
G1 X43.5914 Y33.48 A-368.3055 F1200
G1 X43.8295 Y33.4428 A-368.8779 F1200
G1 X44.0674 Y33.4032 A-369.4503 F1200
G1 X44.3051 Y33.3612 A-370.0225 F1200
G1 X44.5424 Y33.3168 A-370.5947 F1200
G1 X44.7795 Y33.27 A-371.1668 F1200
G1 X45.0163 Y33.2208 A-371.7387 F1200
G1 X45.2527 Y33.1692 A-372.3106 F1200
G1 X45.4889 Y33.1152 A-372.8823 F1200
G1 X45.7246 Y33.0588 A-373.4539 F1200
G1 X45.96 Y33 A-374.0254 F1200
G1 X46.195 Y32.9388 A-374.5967 F1200
G1 X46.4296 Y32.8752 A-375.1679 F1200
G1 X46.6638 Y32.8092 A-375.7389 F1200
G1 X46.8976 Y32.7408 A-376.3098 F1200
G1 X47.1309 Y32.67 A-376.8805 F1200
G1 X47.3637 Y32.5968 A-377.451 F1200
G1 X47.5961 Y32.5212 A-378.0213 F1200
G1 X47.828 Y32.4432 A-378.5914 F1200
G1 X48.0594 Y32.3628 A-379.1613 F1200
G1 X48.2902 Y32.28 A-379.731 F1200
G1 X48.5206 Y32.1948 A-380.3004 F1200
G1 X48.7503 Y32.1072 A-380.8696 F1200
G1 X48.9795 Y32.0172 A-381.4385 F1200
G1 X49.2081 Y31.9248 A-382.0072 F1200
G1 X49.4362 Y31.83 A-382.5755 F1200
G1 X49.6636 Y31.7328 A-383.1436 F1200
G1 X49.8903 Y31.6332 A-383.7114 F1200
G1 X50.1165 Y31.5312 A-384.2789 F1200
G1 X50.3419 Y31.4268 A-384.846 F1200
G1 X50.5667 Y31.32 A-385.4128 F1200
G1 X50.7908 Y31.2108 A-385.9792 F1200
G1 X51.0142 Y31.0992 A-386.5452 F1200
G1 X51.2369 Y30.9852 A-387.1109 F1200
G1 X51.4588 Y30.8688 A-387.6761 F1200
G1 X51.68 Y30.75 A-388.2409 F1200
G1 X51.9004 Y30.6288 A-388.8053 F1200
G1 X52.12 Y30.5052 A-389.3693 F1200
G1 X52.3389 Y30.3792 A-389.9327 F1200
G1 X52.5569 Y30.2508 A-390.4957 F1200
G1 X52.7741 Y30.12 A-391.0582 F1200
G1 X52.9904 Y29.9868 A-391.6201 F1200
G1 X53.2059 Y29.8512 A-392.1816 F1200
G1 X53.4205 Y29.7132 A-392.7424 F1200
G1 X53.6342 Y29.5728 A-393.3027 F1200
G1 X53.847 Y29.43 A-393.8624 F1200
G1 X54.0589 Y29.2848 A-394.4215 F1200
G1 X54.2699 Y29.1372 A-394.98 F1200
G1 X54.4799 Y28.9872 A-395.5378 F1200
G1 X54.6889 Y28.8348 A-396.0949 F1200
G1 X54.897 Y28.68 A-396.6513 F1200
G1 X55.104 Y28.5228 A-397.2071 F1200
G1 X55.31 Y28.3632 A-397.7621 F1200
G1 X55.5151 Y28.2012 A-398.3163 F1200
G1 X55.719 Y28.0368 A-398.8698 F1200
G1 X55.9219 Y27.87 A-399.4225 F1200
G1 X56.1237 Y27.7008 A-399.9744 F1200
G1 X56.3245 Y27.5292 A-400.5254 F1200
G1 X56.5241 Y27.3552 A-401.0756 F1200
G1 X56.7226 Y27.1788 A-401.6249 F1200
G1 X56.92 Y27 A-402.1733 F1200
G1 X57.1162 Y26.8188 A-402.7208 F1200
G1 X57.3113 Y26.6352 A-403.2674 F1200
G1 X57.5051 Y26.4492 A-403.8129 F1200
G1 X57.6978 Y26.2608 A-404.3575 F1200
G1 X57.8893 Y26.07 A-404.9011 F1200
G1 X58.0795 Y25.8768 A-405.4436 F1200
G1 X58.2685 Y25.6812 A-405.9851 F1200
G1 X58.4562 Y25.4832 A-406.5255 F1200
G1 X58.6427 Y25.2828 A-407.0648 F1200
G1 X58.8278 Y25.08 A-407.603 F1200
G1 X59.0117 Y24.8748 A-408.1401 F1200
G1 X59.1942 Y24.6672 A-408.6759 F1200
G1 X59.3754 Y24.4572 A-409.2106 F1200
G1 X59.5553 Y24.2448 A-409.7441 F1200
G1 X59.7338 Y24.03 A-410.2763 F1200
G1 X59.9109 Y23.8128 A-410.8072 F1200
G1 X60.0866 Y23.5932 A-411.3369 F1200
G1 X60.2608 Y23.3712 A-411.8653 F1200
G1 X60.4337 Y23.1468 A-412.3924 F1200
G1 X60.6051 Y22.92 A-412.9181 F1200
G1 X60.7751 Y22.6908 A-413.4424 F1200
G1 X60.9436 Y22.4592 A-413.9654 F1200
G1 X61.1105 Y22.2252 A-414.4869 F1200
G1 X61.276 Y21.9888 A-415.007 F1200
G1 X61.44 Y21.75 A-415.5256 F1200
G1 X61.6024 Y21.5088 A-416.0428 F1200
G1 X61.7633 Y21.2652 A-416.5585 F1200
G1 X61.9226 Y21.0192 A-417.0726 F1200
G1 X62.0803 Y20.7708 A-417.5852 F1200
G1 X62.2365 Y20.52 A-418.0963 F1200
G1 X62.391 Y20.2668 A-418.6058 F1200
G1 X62.5439 Y20.0112 A-419.1136 F1200
G1 X62.6951 Y19.7532 A-419.6199 F1200
G1 X62.8447 Y19.4928 A-420.1245 F1200
G1 X62.9926 Y19.23 A-420.6275 F1200
G1 X63.1389 Y18.9648 A-421.1288 F1200
G1 X63.2834 Y18.6972 A-421.6284 F1200
G1 X63.4262 Y18.4272 A-422.1262 F1200
G1 X63.5672 Y18.1548 A-422.6224 F1200
G1 X63.7066 Y17.88 A-423.1168 F1200
G1 X63.8441 Y17.6028 A-423.6095 F1200
G1 X63.9799 Y17.3232 A-424.1003 F1200
G1 X64.1138 Y17.0412 A-424.5894 F1200
G1 X64.246 Y16.7568 A-425.0767 F1200
G1 X64.3763 Y16.47 A-425.5621 F1200
G1 X64.5048 Y16.1808 A-426.0457 F1200
G1 X64.6314 Y15.8892 A-426.5274 F1200
G1 X64.7562 Y15.5952 A-427.0073 F1200
G1 X64.879 Y15.2988 A-427.4853 F1200
G1 X65 Y15 A-427.9614 F1200
G0 Z5
M2
