(Generated by svg_to_gcode.pyw)
G21
G90
G0 F3000
M5
G0 X5 Y45
M3
G1 F1200
G1 X75 Y45 A0 F1200
G1 X75 Y5 A-1080 F1200
G1 X5 Y5 A-2160 F1200
G1 X5 Y45 A-3240 F1200
M5
G0 X52 Y25
M3
G1 F1200
G1 X51.9974 Y24.7495 A-1087.1761 F1200
G1 X51.9895 Y24.4992 A-1101.5282 F1200
G1 X51.9765 Y24.249 A-1115.8804 F1200
G1 X51.9582 Y23.9992 A-1130.2326 F1200
G1 X51.9347 Y23.7498 A-1144.5847 F1200
G1 X51.906 Y23.501 A-1158.9369 F1200
G1 X51.8721 Y23.2528 A-1173.289 F1200
G1 X51.8331 Y23.0054 A-1187.6412 F1200
G1 X51.7889 Y22.7588 A-1201.9934 F1200
G1 X51.7395 Y22.5132 A-1216.3455 F1200
G1 X51.685 Y22.2687 A-1230.6977 F1200
G1 X51.6255 Y22.0254 A-1245.0498 F1200
G1 X51.5609 Y21.7834 A-1259.402 F1200
G1 X51.4912 Y21.5428 A-1273.7542 F1200
G1 X51.4165 Y21.3037 A-1288.1063 F1200
G1 X51.3369 Y21.0662 A-1302.4585 F1200
G1 X51.2523 Y20.8304 A-1316.8106 F1200
G1 X51.1628 Y20.5965 A-1331.1628 F1200
G1 X51.0685 Y20.3644 A-1345.515 F1200
G1 X50.9693 Y20.1344 A-1359.8671 F1200
G1 X50.8654 Y19.9065 A-1374.2193 F1200
G1 X50.7567 Y19.6808 A-1388.5714 F1200
G1 X50.6433 Y19.4575 A-1402.9236 F1200
G1 X50.5253 Y19.2365 A-1417.2757 F1200
G1 X50.4027 Y19.0181 A-1431.6279 F1200
G1 X50.2756 Y18.8023 A-1445.9801 F1200
G1 X50.144 Y18.5891 A-1460.3322 F1200
G1 X50.008 Y18.3788 A-1474.6844 F1200
G1 X49.8676 Y18.1713 A-1489.0365 F1200
G1 X49.7229 Y17.9669 A-1503.3887 F1200
G1 X49.574 Y17.7654 A-1517.7409 F1200
G1 X49.4209 Y17.5672 A-1532.093 F1200
G1 X49.2637 Y17.3722 A-1546.4452 F1200
G1 X49.1025 Y17.1805 A-1560.7973 F1200
G1 X48.9373 Y16.9922 A-1575.1495 F1200
G1 X48.7682 Y16.8074 A-1589.5017 F1200
G1 X48.5953 Y16.6261 A-1603.8538 F1200
G1 X48.4186 Y16.4486 A-1618.206 F1200
G1 X48.2383 Y16.2747 A-1632.5581 F1200
G1 X48.0544 Y16.1046 A-1646.9103 F1200
G1 X47.8669 Y15.9385 A-1661.2625 F1200
G1 X47.6761 Y15.7762 A-1675.6146 F1200
G1 X47.4819 Y15.618 A-1689.9668 F1200
G1 X47.2844 Y15.4639 A-1704.3189 F1200
G1 X47.0838 Y15.3139 A-1718.6711 F1200
G1 X46.8801 Y15.1682 A-1733.0233 F1200
G1 X46.6734 Y15.0267 A-1747.3754 F1200
G1 X46.4637 Y14.8896 A-1761.7276 F1200
G1 X46.2513 Y14.7569 A-1776.0797 F1200
G1 X46.0361 Y14.6286 A-1790.4319 F1200
G1 X45.8183 Y14.5049 A-1804.7841 F1200
G1 X45.598 Y14.3857 A-1819.1362 F1200
G1 X45.3752 Y14.2712 A-1833.4884 F1200
G1 X45.1501 Y14.1613 A-1847.8405 F1200
G1 X44.9228 Y14.0562 A-1862.1927 F1200
G1 X44.6933 Y13.9558 A-1876.5449 F1200
G1 X44.4617 Y13.8603 A-1890.897 F1200
G1 X44.2282 Y13.7696 A-1905.2492 F1200
G1 X43.9929 Y13.6838 A-1919.6013 F1200
G1 X43.7558 Y13.6029 A-1933.9535 F1200
G1 X43.5171 Y13.527 A-1948.3056 F1200
G1 X43.2769 Y13.4561 A-1962.6578 F1200
G1 X43.0352 Y13.3902 A-1977.01 F1200
G1 X42.7922 Y13.3294 A-1991.3621 F1200
G1 X42.548 Y13.2736 A-2005.7143 F1200
G1 X42.3027 Y13.223 A-2020.0664 F1200
G1 X42.0564 Y13.1775 A-2034.4186 F1200
G1 X41.8091 Y13.1372 A-2048.7708 F1200
G1 X41.5611 Y13.102 A-2063.1229 F1200
G1 X41.3125 Y13.072 A-2077.4751 F1200
G1 X41.0632 Y13.0472 A-2091.8272 F1200
G1 X40.8135 Y13.0276 A-2106.1794 F1200
G1 X40.5634 Y13.0132 A-2120.5316 F1200
G1 X40.3131 Y13.0041 A-2134.8837 F1200
G1 X40.0626 Y13.0002 A-2149.2359 F1200
G1 X39.8121 Y13.0015 A-2163.588 F1200
G1 X39.5617 Y13.008 A-2177.9402 F1200
G1 X39.3115 Y13.0198 A-2192.2924 F1200
G1 X39.0616 Y13.0367 A-2206.6445 F1200
G1 X38.8121 Y13.0589 A-2220.9967 F1200
G1 X38.5631 Y13.0863 A-2235.3488 F1200
G1 X38.3148 Y13.1189 A-2249.701 F1200
G1 X38.0671 Y13.1567 A-2264.0532 F1200
G1 X37.8204 Y13.1996 A-2278.4053 F1200
G1 X37.5745 Y13.2477 A-2292.7575 F1200
G1 X37.3297 Y13.3009 A-2307.1096 F1200
G1 X37.0861 Y13.3591 A-2321.4618 F1200
G1 X36.8438 Y13.4225 A-2335.814 F1200
G1 X36.6028 Y13.4909 A-2350.1661 F1200
G1 X36.3633 Y13.5643 A-2364.5183 F1200
G1 X36.1254 Y13.6427 A-2378.8704 F1200
G1 X35.8892 Y13.7261 A-2393.2226 F1200
G1 X35.6548 Y13.8143 A-2407.5748 F1200
G1 X35.4223 Y13.9075 A-2421.9269 F1200
G1 X35.1917 Y14.0054 A-2436.2791 F1200
G1 X34.9633 Y14.1082 A-2450.6312 F1200
G1 X34.737 Y14.2157 A-2464.9834 F1200
G1 X34.5131 Y14.3279 A-2479.3355 F1200
G1 X34.2915 Y14.4447 A-2493.6877 F1200
G1 X34.0725 Y14.5662 A-2508.0399 F1200
G1 X33.856 Y14.6922 A-2522.392 F1200
G1 X33.6421 Y14.8227 A-2536.7442 F1200
G1 X33.4311 Y14.9576 A-2551.0963 F1200
G1 X33.2229 Y15.0969 A-2565.4485 F1200
G1 X33.0177 Y15.2405 A-2579.8007 F1200
G1 X32.8155 Y15.3884 A-2594.1528 F1200
G1 X32.6164 Y15.5404 A-2608.505 F1200
G1 X32.4206 Y15.6966 A-2622.8571 F1200
G1 X32.2281 Y15.8569 A-2637.2093 F1200
G1 X32.0389 Y16.0211 A-2651.5615 F1200
G1 X31.8532 Y16.1892 A-2665.9136 F1200
G1 X31.6711 Y16.3612 A-2680.2658 F1200
G1 X31.4926 Y16.5369 A-2694.6179 F1200
G1 X31.3178 Y16.7163 A-2708.9701 F1200
G1 X31.1468 Y16.8993 A-2723.3223 F1200
G1 X30.9796 Y17.0859 A-2737.6744 F1200
G1 X30.8164 Y17.2759 A-2752.0266 F1200
G1 X30.6572 Y17.4693 A-2766.3787 F1200
G1 X30.502 Y17.6659 A-2780.7309 F1200
G1 X30.351 Y17.8658 A-2795.0831 F1200
G1 X30.2042 Y18.0687 A-2809.4352 F1200
G1 X30.0617 Y18.2747 A-2823.7874 F1200
G1 X29.9235 Y18.4836 A-2838.1395 F1200
G1 X29.7896 Y18.6953 A-2852.4917 F1200
G1 X29.6603 Y18.9098 A-2866.8439 F1200
G1 X29.5354 Y19.127 A-2881.196 F1200
G1 X29.4151 Y19.3467 A-2895.5482 F1200
G1 X29.2994 Y19.5689 A-2909.9003 F1200
G1 X29.1884 Y19.7934 A-2924.2525 F1200
G1 X29.0821 Y20.0202 A-2938.6047 F1200
G1 X28.9805 Y20.2492 A-2952.9568 F1200
G1 X28.8837 Y20.4802 A-2967.309 F1200
G1 X28.7918 Y20.7132 A-2981.6611 F1200
G1 X28.7048 Y20.9481 A-2996.0133 F1200
G1 X28.6227 Y21.1848 A-3010.3654 F1200
G1 X28.5455 Y21.4231 A-3024.7176 F1200
G1 X28.4733 Y21.6629 A-3039.0698 F1200
G1 X28.4062 Y21.9043 A-3053.4219 F1200
G1 X28.3441 Y22.1469 A-3067.7741 F1200
G1 X28.2871 Y22.3908 A-3082.1262 F1200
G1 X28.2352 Y22.6359 A-3096.4784 F1200
G1 X28.1884 Y22.882 A-3110.8306 F1200
G1 X28.1468 Y23.129 A-3125.1827 F1200
G1 X28.1103 Y23.3768 A-3139.5349 F1200
G1 X28.079 Y23.6253 A-3153.887 F1200
G1 X28.0529 Y23.8744 A-3168.2392 F1200
G1 X28.032 Y24.1241 A-3182.5914 F1200
G1 X28.0163 Y24.3741 A-3196.9435 F1200
G1 X28.0059 Y24.6243 A-3211.2957 F1200
G1 X28.0007 Y24.8748 A-3225.6478 F1200
G1 X28.0007 Y25.1252 A-3240 F1200
G1 X28.0059 Y25.3757 A-3254.3522 F1200
G1 X28.0163 Y25.6259 A-3268.7043 F1200
G1 X28.032 Y25.8759 A-3283.0565 F1200
G1 X28.0529 Y26.1256 A-3297.4086 F1200
G1 X28.079 Y26.3747 A-3311.7608 F1200
G1 X28.1103 Y26.6232 A-3326.113 F1200
G1 X28.1468 Y26.871 A-3340.4651 F1200
G1 X28.1884 Y27.118 A-3354.8173 F1200
G1 X28.2352 Y27.3641 A-3369.1694 F1200
G1 X28.2871 Y27.6092 A-3383.5216 F1200
G1 X28.3441 Y27.8531 A-3397.8738 F1200
G1 X28.4062 Y28.0957 A-3412.2259 F1200
G1 X28.4733 Y28.3371 A-3426.5781 F1200
G1 X28.5455 Y28.5769 A-3440.9302 F1200
G1 X28.6227 Y28.8152 A-3455.2824 F1200
G1 X28.7048 Y29.0519 A-3469.6346 F1200
G1 X28.7918 Y29.2868 A-3483.9867 F1200
G1 X28.8837 Y29.5198 A-3498.3389 F1200
G1 X28.9805 Y29.7508 A-3512.691 F1200
G1 X29.0821 Y29.9798 A-3527.0432 F1200
G1 X29.1884 Y30.2066 A-3541.3953 F1200
G1 X29.2994 Y30.4311 A-3555.7475 F1200
G1 X29.4151 Y30.6533 A-3570.0997 F1200
G1 X29.5354 Y30.873 A-3584.4518 F1200
G1 X29.6603 Y31.0902 A-3598.804 F1200
G1 X29.7896 Y31.3047 A-3613.1561 F1200
G1 X29.9235 Y31.5164 A-3627.5083 F1200
G1 X30.0617 Y31.7253 A-3641.8605 F1200
G1 X30.2042 Y31.9313 A-3656.2126 F1200
G1 X30.351 Y32.1342 A-3670.5648 F1200
G1 X30.502 Y32.3341 A-3684.9169 F1200
G1 X30.6572 Y32.5307 A-3699.2691 F1200
G1 X30.8164 Y32.7241 A-3713.6213 F1200
G1 X30.9796 Y32.9141 A-3727.9734 F1200
G1 X31.1468 Y33.1007 A-3742.3256 F1200
G1 X31.3178 Y33.2837 A-3756.6777 F1200
G1 X31.4926 Y33.4631 A-3771.0299 F1200
G1 X31.6711 Y33.6388 A-3785.3821 F1200
G1 X31.8532 Y33.8108 A-3799.7342 F1200
G1 X32.0389 Y33.9789 A-3814.0864 F1200
G1 X32.2281 Y34.1431 A-3828.4385 F1200
G1 X32.4206 Y34.3034 A-3842.7907 F1200
G1 X32.6164 Y34.4596 A-3857.1429 F1200
G1 X32.8155 Y34.6116 A-3871.495 F1200
G1 X33.0177 Y34.7595 A-3885.8472 F1200
G1 X33.2229 Y34.9031 A-3900.1993 F1200
G1 X33.4311 Y35.0424 A-3914.5515 F1200
G1 X33.6421 Y35.1773 A-3928.9037 F1200
G1 X33.856 Y35.3078 A-3943.2558 F1200
G1 X34.0725 Y35.4338 A-3957.608 F1200
G1 X34.2915 Y35.5553 A-3971.9601 F1200
G1 X34.5131 Y35.6721 A-3986.3123 F1200
G1 X34.737 Y35.7843 A-4000.6645 F1200
G1 X34.9633 Y35.8918 A-4015.0166 F1200
G1 X35.1917 Y35.9946 A-4029.3688 F1200
G1 X35.4223 Y36.0925 A-4043.7209 F1200
G1 X35.6548 Y36.1857 A-4058.0731 F1200
G1 X35.8892 Y36.2739 A-4072.4252 F1200
G1 X36.1254 Y36.3573 A-4086.7774 F1200
G1 X36.3633 Y36.4357 A-4101.1296 F1200
G1 X36.6028 Y36.5091 A-4115.4817 F1200
G1 X36.8438 Y36.5775 A-4129.8339 F1200
G1 X37.0861 Y36.6409 A-4144.186 F1200
G1 X37.3297 Y36.6991 A-4158.5382 F1200
G1 X37.5745 Y36.7523 A-4172.8904 F1200
G1 X37.8204 Y36.8004 A-4187.2425 F1200
G1 X38.0671 Y36.8433 A-4201.5947 F1200
G1 X38.3148 Y36.8811 A-4215.9468 F1200
G1 X38.5631 Y36.9137 A-4230.299 F1200
G1 X38.8121 Y36.9411 A-4244.6512 F1200
G1 X39.0616 Y36.9633 A-4259.0033 F1200
G1 X39.3115 Y36.9802 A-4273.3555 F1200
G1 X39.5617 Y36.992 A-4287.7076 F1200
G1 X39.8121 Y36.9985 A-4302.0598 F1200
G1 X40.0626 Y36.9998 A-4316.412 F1200
G1 X40.3131 Y36.9959 A-4330.7641 F1200
G1 X40.5634 Y36.9868 A-4345.1163 F1200
G1 X40.8135 Y36.9724 A-4359.4684 F1200
G1 X41.0632 Y36.9528 A-4373.8206 F1200
G1 X41.3125 Y36.928 A-4388.1728 F1200
G1 X41.5611 Y36.898 A-4402.5249 F1200
G1 X41.8091 Y36.8628 A-4416.8771 F1200
G1 X42.0564 Y36.8225 A-4431.2292 F1200
G1 X42.3027 Y36.777 A-4445.5814 F1200
G1 X42.548 Y36.7264 A-4459.9336 F1200
G1 X42.7922 Y36.6706 A-4474.2857 F1200
G1 X43.0352 Y36.6098 A-4488.6379 F1200
G1 X43.2769 Y36.5439 A-4502.99 F1200
G1 X43.5171 Y36.473 A-4517.3422 F1200
G1 X43.7558 Y36.3971 A-4531.6944 F1200
G1 X43.9929 Y36.3162 A-4546.0465 F1200
G1 X44.2282 Y36.2304 A-4560.3987 F1200
G1 X44.4617 Y36.1397 A-4574.7508 F1200
G1 X44.6933 Y36.0442 A-4589.103 F1200
G1 X44.9228 Y35.9438 A-4603.4551 F1200
G1 X45.1501 Y35.8387 A-4617.8073 F1200
G1 X45.3752 Y35.7288 A-4632.1595 F1200
G1 X45.598 Y35.6143 A-4646.5116 F1200
G1 X45.8183 Y35.4951 A-4660.8638 F1200
G1 X46.0361 Y35.3714 A-4675.2159 F1200
G1 X46.2513 Y35.2431 A-4689.5681 F1200
G1 X46.4637 Y35.1104 A-4703.9203 F1200
G1 X46.6734 Y34.9733 A-4718.2724 F1200
G1 X46.8801 Y34.8318 A-4732.6246 F1200
G1 X47.0838 Y34.6861 A-4746.9767 F1200
G1 X47.2844 Y34.5361 A-4761.3289 F1200
G1 X47.4819 Y34.382 A-4775.6811 F1200
G1 X47.6761 Y34.2238 A-4790.0332 F1200
G1 X47.8669 Y34.0615 A-4804.3854 F1200
G1 X48.0544 Y33.8954 A-4818.7375 F1200
G1 X48.2383 Y33.7253 A-4833.0897 F1200
G1 X48.4186 Y33.5514 A-4847.4419 F1200
G1 X48.5953 Y33.3739 A-4861.794 F1200
G1 X48.7682 Y33.1926 A-4876.1462 F1200
G1 X48.9373 Y33.0078 A-4890.4983 F1200
G1 X49.1025 Y32.8195 A-4904.8505 F1200
G1 X49.2637 Y32.6278 A-4919.2027 F1200
G1 X49.4209 Y32.4328 A-4933.5548 F1200
G1 X49.574 Y32.2346 A-4947.907 F1200
G1 X49.7229 Y32.0331 A-4962.2591 F1200
G1 X49.8676 Y31.8287 A-4976.6113 F1200
G1 X50.008 Y31.6212 A-4990.9635 F1200
G1 X50.144 Y31.4109 A-5005.3156 F1200
G1 X50.2756 Y31.1977 A-5019.6678 F1200
G1 X50.4027 Y30.9819 A-5034.0199 F1200
G1 X50.5253 Y30.7635 A-5048.3721 F1200
G1 X50.6433 Y30.5425 A-5062.7243 F1200
G1 X50.7567 Y30.3192 A-5077.0764 F1200
G1 X50.8654 Y30.0935 A-5091.4286 F1200
G1 X50.9693 Y29.8656 A-5105.7807 F1200
G1 X51.0685 Y29.6356 A-5120.1329 F1200
G1 X51.1628 Y29.4035 A-5134.485 F1200
G1 X51.2523 Y29.1696 A-5148.8372 F1200
G1 X51.3369 Y28.9338 A-5163.1894 F1200
G1 X51.4165 Y28.6963 A-5177.5415 F1200
G1 X51.4912 Y28.4572 A-5191.8937 F1200
G1 X51.5609 Y28.2166 A-5206.2458 F1200
G1 X51.6255 Y27.9746 A-5220.598 F1200
G1 X51.685 Y27.7313 A-5234.9502 F1200
G1 X51.7395 Y27.4868 A-5249.3023 F1200
G1 X51.7889 Y27.2412 A-5263.6545 F1200
G1 X51.8331 Y26.9946 A-5278.0066 F1200
G1 X51.8721 Y26.7472 A-5292.3588 F1200
G1 X51.906 Y26.499 A-5306.711 F1200
G1 X51.9347 Y26.2502 A-5321.0631 F1200
G1 X51.9582 Y26.0008 A-5335.4153 F1200
G1 X51.9765 Y25.751 A-5349.7674 F1200
G1 X51.9895 Y25.5008 A-5364.1196 F1200
G1 X51.9974 Y25.2505 A-5378.4718 F1200
G1 X52 Y25 A-5392.8239 F1200
M5
G0 X15 Y15
M3
G1 F1200
G1 X15.1456 Y15.3588 A-3505.0387 F1200
G1 X15.294 Y15.7142 A-3511.9109 F1200
G1 X15.4451 Y16.0661 A-3518.8158 F1200
G1 X15.5988 Y16.4146 A-3525.7534 F1200
G1 X15.7553 Y16.7595 A-3532.7232 F1200
G1 X15.9144 Y17.1011 A-3539.7249 F1200
G1 X16.076 Y17.4391 A-3546.7583 F1200
G1 X16.2403 Y17.7737 A-3553.823 F1200
G1 X16.4072 Y18.1048 A-3560.9187 F1200
G1 X16.5765 Y18.4324 A-3568.045 F1200
G1 X16.7484 Y18.7566 A-3575.2016 F1200
G1 X16.9228 Y19.0773 A-3582.3881 F1200
G1 X17.0996 Y19.3945 A-3589.6042 F1200
G1 X17.2789 Y19.7083 A-3596.8494 F1200
G1 X17.4605 Y20.0186 A-3604.1235 F1200
G1 X17.6445 Y20.3254 A-3611.4259 F1200
G1 X17.8309 Y20.6288 A-3618.7564 F1200
G1 X18.0196 Y20.9287 A-3626.1144 F1200
G1 X18.2105 Y21.2252 A-3633.4997 F1200
G1 X18.4038 Y21.5181 A-3640.9117 F1200
G1 X18.5993 Y21.8076 A-3648.35 F1200
G1 X18.797 Y22.0937 A-3655.8143 F1200
G1 X18.9969 Y22.3762 A-3663.304 F1200
G1 X19.1989 Y22.6553 A-3670.8188 F1200
G1 X19.4031 Y22.931 A-3678.3582 F1200
G1 X19.6094 Y23.2031 A-3685.9217 F1200
G1 X19.8177 Y23.4718 A-3693.5089 F1200
G1 X20.0282 Y23.7371 A-3701.1193 F1200
G1 X20.2406 Y23.9988 A-3708.7525 F1200
G1 X20.4551 Y24.2571 A-3716.408 F1200
G1 X20.6715 Y24.5119 A-3724.0854 F1200
G1 X20.8898 Y24.7633 A-3731.7841 F1200
G1 X21.1101 Y25.0112 A-3739.5037 F1200
G1 X21.3323 Y25.2556 A-3747.2438 F1200
G1 X21.5564 Y25.4966 A-3755.0038 F1200
G1 X21.7823 Y25.7341 A-3762.7834 F1200
G1 X22.01 Y25.9681 A-3770.5819 F1200
G1 X22.2395 Y26.1987 A-3778.399 F1200
G1 X22.4707 Y26.4258 A-3786.2342 F1200
G1 X22.7037 Y26.6494 A-3794.087 F1200
G1 X22.9384 Y26.8696 A-3801.957 F1200
G1 X23.1747 Y27.0863 A-3809.8436 F1200
G1 X23.4128 Y27.2995 A-3817.7465 F1200
G1 X23.6524 Y27.5092 A-3825.6651 F1200
G1 X23.8937 Y27.7155 A-3833.599 F1200
G1 X24.1365 Y27.9184 A-3841.5478 F1200
G1 X24.3809 Y28.1177 A-3849.511 F1200
G1 X24.6268 Y28.3136 A-3857.4881 F1200
G1 X24.8741 Y28.506 A-3865.4788 F1200
G1 X25.123 Y28.695 A-3873.4826 F1200
G1 X25.3733 Y28.8805 A-3881.499 F1200
G1 X25.625 Y29.0625 A-3889.5277 F1200
G1 X25.8781 Y29.2411 A-3897.5681 F1200
G1 X26.1325 Y29.4161 A-3905.62 F1200
G1 X26.3883 Y29.5878 A-3913.6829 F1200
G1 X26.6454 Y29.7559 A-3921.7563 F1200
G1 X26.9038 Y29.9206 A-3929.84 F1200
G1 X27.1634 Y30.0818 A-3937.9335 F1200
G1 X27.4243 Y30.2396 A-3946.0365 F1200
G1 X27.6863 Y30.3939 A-3954.1485 F1200
G1 X27.9496 Y30.5447 A-3962.2692 F1200
G1 X28.2139 Y30.692 A-3970.3983 F1200
G1 X28.4794 Y30.8359 A-3978.5354 F1200
G1 X28.746 Y30.9763 A-3986.6802 F1200
G1 X29.0137 Y31.1133 A-3994.8323 F1200
G1 X29.2824 Y31.2468 A-4002.9915 F1200
G1 X29.5521 Y31.3768 A-4011.1573 F1200
G1 X29.8228 Y31.5033 A-4019.3296 F1200
G1 X30.0944 Y31.6264 A-4027.5079 F1200
G1 X30.367 Y31.746 A-4035.6921 F1200
G1 X30.6405 Y31.8622 A-4043.8818 F1200
G1 X30.9149 Y31.9749 A-4052.0767 F1200
G1 X31.1901 Y32.0841 A-4060.2767 F1200
G1 X31.4662 Y32.1898 A-4068.4814 F1200
G1 X31.743 Y32.2921 A-4076.6906 F1200
G1 X32.0207 Y32.3909 A-4084.904 F1200
G1 X32.299 Y32.4862 A-4093.1215 F1200
G1 X32.5781 Y32.5781 A-4101.3428 F1200
G1 X32.8579 Y32.6665 A-4109.5677 F1200
G1 X33.1384 Y32.7515 A-4117.796 F1200
G1 X33.4195 Y32.833 A-4126.0275 F1200
G1 X33.7012 Y32.911 A-4134.2619 F1200
G1 X33.9835 Y32.9855 A-4142.4992 F1200
G1 X34.2663 Y33.0566 A-4150.7391 F1200
G1 X34.5497 Y33.1242 A-4158.9815 F1200
G1 X34.8336 Y33.1883 A-4167.2261 F1200
G1 X35.118 Y33.249 A-4175.4729 F1200
G1 X35.4028 Y33.3062 A-4183.7217 F1200
G1 X35.6881 Y33.36 A-4191.9724 F1200
G1 X35.9737 Y33.4102 A-4200.2247 F1200
G1 X36.2598 Y33.457 A-4208.4786 F1200
G1 X36.5461 Y33.5004 A-4216.7339 F1200
G1 X36.8328 Y33.5402 A-4224.9906 F1200
G1 X37.1198 Y33.5766 A-4233.2484 F1200
G1 X37.4071 Y33.6096 A-4241.5073 F1200
G1 X37.6946 Y33.6391 A-4249.7672 F1200
G1 X37.9823 Y33.6651 A-4258.0279 F1200
G1 X38.2702 Y33.6876 A-4266.2894 F1200
G1 X38.5582 Y33.7067 A-4274.5515 F1200
G1 X38.8464 Y33.7223 A-4282.8141 F1200
G1 X39.1347 Y33.7344 A-4291.0772 F1200
G1 X39.4231 Y33.7431 A-4299.3406 F1200
G1 X39.7115 Y33.7483 A-4307.6043 F1200
G1 X40 Y33.75 A-4315.8681 F1200
G1 X40.2885 Y33.7483 A-4324.1319 F1200
G1 X40.5769 Y33.7431 A-4332.3957 F1200
G1 X40.8653 Y33.7344 A-4340.6594 F1200
G1 X41.1536 Y33.7223 A-4348.9228 F1200
G1 X41.4418 Y33.7067 A-4357.1859 F1200
G1 X41.7298 Y33.6876 A-4365.4485 F1200
G1 X42.0177 Y33.6651 A-4373.7106 F1200
G1 X42.3054 Y33.6391 A-4381.9721 F1200
G1 X42.5929 Y33.6096 A-4390.2328 F1200
G1 X42.8802 Y33.5766 A-4398.4927 F1200
G1 X43.1672 Y33.5402 A-4406.7516 F1200
G1 X43.4539 Y33.5004 A-4415.0094 F1200
G1 X43.7402 Y33.457 A-4423.2661 F1200
G1 X44.0263 Y33.4102 A-4431.5214 F1200
G1 X44.3119 Y33.36 A-4439.7753 F1200
G1 X44.5972 Y33.3062 A-4448.0276 F1200
G1 X44.882 Y33.249 A-4456.2783 F1200
G1 X45.1664 Y33.1883 A-4464.5271 F1200
G1 X45.4503 Y33.1242 A-4472.7739 F1200
G1 X45.7337 Y33.0566 A-4481.0185 F1200
G1 X46.0165 Y32.9855 A-4489.2609 F1200
G1 X46.2988 Y32.911 A-4497.5008 F1200
G1 X46.5805 Y32.833 A-4505.7381 F1200
G1 X46.8616 Y32.7515 A-4513.9725 F1200
G1 X47.1421 Y32.6665 A-4522.204 F1200
G1 X47.4219 Y32.5781 A-4530.4323 F1200
G1 X47.701 Y32.4862 A-4538.6572 F1200
G1 X47.9793 Y32.3909 A-4546.8785 F1200
G1 X48.257 Y32.2921 A-4555.096 F1200
G1 X48.5338 Y32.1898 A-4563.3094 F1200
G1 X48.8099 Y32.0841 A-4571.5186 F1200
G1 X49.0851 Y31.9749 A-4579.7233 F1200
G1 X49.3595 Y31.8622 A-4587.9233 F1200
G1 X49.633 Y31.746 A-4596.1182 F1200
G1 X49.9056 Y31.6264 A-4604.3079 F1200
G1 X50.1772 Y31.5033 A-4612.4921 F1200
G1 X50.4479 Y31.3768 A-4620.6704 F1200
G1 X50.7176 Y31.2468 A-4628.8427 F1200
G1 X50.9863 Y31.1133 A-4637.0085 F1200
G1 X51.254 Y30.9763 A-4645.1677 F1200
G1 X51.5206 Y30.8359 A-4653.3198 F1200
G1 X51.7861 Y30.692 A-4661.4646 F1200
G1 X52.0504 Y30.5447 A-4669.6017 F1200
G1 X52.3137 Y30.3939 A-4677.7308 F1200
G1 X52.5757 Y30.2396 A-4685.8515 F1200
G1 X52.8366 Y30.0818 A-4693.9635 F1200
G1 X53.0962 Y29.9206 A-4702.0665 F1200
G1 X53.3546 Y29.7559 A-4710.16 F1200
G1 X53.6117 Y29.5878 A-4718.2437 F1200
G1 X53.8675 Y29.4161 A-4726.3171 F1200
G1 X54.1219 Y29.2411 A-4734.38 F1200
G1 X54.375 Y29.0625 A-4742.4319 F1200
G1 X54.6267 Y28.8805 A-4750.4723 F1200
G1 X54.877 Y28.695 A-4758.501 F1200
G1 X55.1259 Y28.506 A-4766.5174 F1200
G1 X55.3732 Y28.3136 A-4774.5212 F1200
G1 X55.6191 Y28.1177 A-4782.5119 F1200
G1 X55.8635 Y27.9184 A-4790.489 F1200
G1 X56.1063 Y27.7155 A-4798.4522 F1200
G1 X56.3476 Y27.5092 A-4806.401 F1200
G1 X56.5872 Y27.2995 A-4814.3349 F1200
G1 X56.8253 Y27.0863 A-4822.2535 F1200
G1 X57.0616 Y26.8696 A-4830.1564 F1200
G1 X57.2963 Y26.6494 A-4838.043 F1200
G1 X57.5293 Y26.4258 A-4845.913 F1200
G1 X57.7605 Y26.1987 A-4853.7658 F1200
G1 X57.99 Y25.9681 A-4861.601 F1200
G1 X58.2177 Y25.7341 A-4869.4181 F1200
G1 X58.4436 Y25.4966 A-4877.2166 F1200
G1 X58.6677 Y25.2556 A-4884.9962 F1200
G1 X58.8899 Y25.0112 A-4892.7562 F1200
G1 X59.1102 Y24.7633 A-4900.4963 F1200
G1 X59.3285 Y24.5119 A-4908.2159 F1200
G1 X59.5449 Y24.2571 A-4915.9146 F1200
G1 X59.7594 Y23.9988 A-4923.592 F1200
G1 X59.9718 Y23.7371 A-4931.2475 F1200
G1 X60.1823 Y23.4718 A-4938.8807 F1200
G1 X60.3906 Y23.2031 A-4946.4911 F1200
G1 X60.5969 Y22.931 A-4954.0783 F1200
G1 X60.8011 Y22.6553 A-4961.6418 F1200
G1 X61.0031 Y22.3762 A-4969.1812 F1200
G1 X61.203 Y22.0937 A-4976.696 F1200
G1 X61.4007 Y21.8076 A-4984.1857 F1200
G1 X61.5962 Y21.5181 A-4991.65 F1200
G1 X61.7895 Y21.2252 A-4999.0883 F1200
G1 X61.9804 Y20.9287 A-5006.5003 F1200
G1 X62.1691 Y20.6288 A-5013.8856 F1200
G1 X62.3555 Y20.3254 A-5021.2436 F1200
G1 X62.5395 Y20.0186 A-5028.5741 F1200
G1 X62.7211 Y19.7083 A-5035.8765 F1200
G1 X62.9004 Y19.3945 A-5043.1506 F1200
G1 X63.0772 Y19.0773 A-5050.3958 F1200
G1 X63.2516 Y18.7566 A-5057.6119 F1200
G1 X63.4235 Y18.4324 A-5064.7984 F1200
G1 X63.5928 Y18.1048 A-5071.955 F1200
G1 X63.7597 Y17.7737 A-5079.0813 F1200
G1 X63.924 Y17.4391 A-5086.177 F1200
G1 X64.0856 Y17.1011 A-5093.2417 F1200
G1 X64.2447 Y16.7595 A-5100.2751 F1200
G1 X64.4012 Y16.4146 A-5107.2768 F1200
G1 X64.5549 Y16.0661 A-5114.2466 F1200
G1 X64.706 Y15.7142 A-5121.1842 F1200
G1 X64.8544 Y15.3588 A-5128.0891 F1200
G1 X65 Y15 A-5134.9613 F1200
M5
M2
