(Generated by svg_to_gcode.pyw)
G21
G90
G0 F3000
(XY preview mode: theta axis omitted)
G0 Z5
G0 X0 Y39 Z5
G1 Z0 F1200
G1 X74.1 Y39 F1200
G1 X74.1 Y0 F1200
G1 X0 Y0 F1200
G1 X0 Y39 F1200
G0 Z5
G0 X0 Y33 Z5
G1 Z0 F1200
G1 X74.1 Y33 F1200
G1 X74.1 Y36 F1200
G1 X0 Y36 F1200
G1 X0 Y33 F1200
G0 Z5
G0 X74.1 Y30 Z5
G1 Z0 F1200
G1 X0 Y30 F1200
G1 X0 Y27 F1200
G1 X74.1 Y27 F1200
G1 X74.1 Y30 F1200
G0 Z5
G0 X0 Y21 Z5
G1 Z0 F1200
G1 X74.1 Y21 F1200
G1 X74.1 Y24 F1200
G1 X0 Y24 F1200
G1 X0 Y21 F1200
G0 Z5
G0 X74.1 Y18 Z5
G1 Z0 F1200
G1 X0 Y18 F1200
G1 X0 Y15 F1200
G1 X74.1 Y15 F1200
G1 X74.1 Y18 F1200
G0 Z5
G0 X0 Y9 Z5
G1 Z0 F1200
G1 X74.1 Y9 F1200
G1 X74.1 Y12 F1200
G1 X0 Y12 F1200
G1 X0 Y9 F1200
G0 Z5
G0 X74.1 Y6 Z5
G1 Z0 F1200
G1 X0 Y6 F1200
G1 X0 Y3 F1200
G1 X74.1 Y3 F1200
G1 X74.1 Y6 F1200
G0 Z5
M2
