(Generated by svg_to_gcode.pyw)
G21
G90
G0 F3000
(XY preview mode: theta axis omitted)
G0 Z5
G0 X10 Y45 Z5
G1 Z0 F1200
G1 X11.5 Y41.5 F1200
G1 X15 Y41.5 F1200
G1 X12 Y39.2 F1200
G1 X13 Y35.5 F1200
G1 X10 Y37.8 F1200
G1 X7 Y35.5 F1200
G1 X8 Y39.2 F1200
G1 X5 Y41.5 F1200
G1 X8.5 Y41.5 F1200
G1 X10 Y45 F1200
G0 Z5
G0 X30 Y45 Z5
G1 Z0 F1200
G1 X31.5 Y41.5 F1200
G1 X35 Y41.5 F1200
G1 X32 Y39.2 F1200
G1 X33 Y35.5 F1200
G1 X30 Y37.8 F1200
G1 X27 Y35.5 F1200
G1 X28 Y39.2 F1200
G1 X25 Y41.5 F1200
G1 X28.5 Y41.5 F1200
G1 X30 Y45 F1200
G0 Z5
G0 X50 Y45 Z5
G1 Z0 F1200
G1 X51.5 Y41.5 F1200
G1 X55 Y41.5 F1200
G1 X52 Y39.2 F1200
G1 X53 Y35.5 F1200
G1 X50 Y37.8 F1200
G1 X47 Y35.5 F1200
G1 X48 Y39.2 F1200
G1 X45 Y41.5 F1200
G1 X48.5 Y41.5 F1200
G1 X50 Y45 F1200
G0 Z5
G0 X20 Y30 Z5
G1 Z0 F1200
G1 X21.5 Y26.5 F1200
G1 X25 Y26.5 F1200
G1 X22 Y24.2 F1200
G1 X23 Y20.5 F1200
G1 X20 Y22.8 F1200
G1 X17 Y20.5 F1200
G1 X18 Y24.2 F1200
G1 X15 Y26.5 F1200
G1 X18.5 Y26.5 F1200
G1 X20 Y30 F1200
G0 Z5
G0 X40 Y30 Z5
G1 Z0 F1200
G1 X41.5 Y26.5 F1200
G1 X45 Y26.5 F1200
G1 X42 Y24.2 F1200
G1 X43 Y20.5 F1200
G1 X40 Y22.8 F1200
G1 X37 Y20.5 F1200
G1 X38 Y24.2 F1200
G1 X35 Y26.5 F1200
G1 X38.5 Y26.5 F1200
G1 X40 Y30 F1200
G0 Z5
M2
